%
(1001)
(T1  D=3 CR=0 TAPER=20deg - ZMIN=-1 - chamfer mill)
G90 G94
G17
G21
G28 G91 Z0
G90

(Pocket2)
M9
T1 M6
S500 M3
G54
M8
G0 X10.142 Y-9.182
Z15
Z1.1
G1 Z0.405 F333.3
X10.127 Y-9.184 Z0.313
X10.086 Y-9.19 Z0.23
X10.021 Y-9.202 Z0.163
X9.941 Y-9.221 Z0.121
X9.853 Y-9.248 Z0.105
G3 X10.775 Y-11.945 Z0.055 I0.461 J-1.348
X9.853 Y-9.248 Z0.005 I-0.461 J1.348
X10.775 Y-11.945 Z-0.045 I0.461 J-1.348
X11.574 Y-9.93 Z-0.073 I-0.461 J1.348
X9.459 Y-9.456 Z-0.1 I-1.26 J-0.666
X9.474 Y-9.477 I0.008 J-0.01 F1000
X9.459 Y-9.456 I-0.008 J0.01
G1 X9.437 Y-9.465
X9.413 Y-9.46
X9.396 Y-9.457
X9.38 Y-9.462
X9.37 Y-9.476
X9.367 Y-9.496
X9.374 Y-9.516
X9.389 Y-9.53
X9.409 Y-9.535
X9.47
X9.495 Y-9.53
X9.516 Y-9.516
X9.53 Y-9.495
X9.535 Y-9.47
Y-9.392
X9.528 Y-9.369
X9.51 Y-9.355
X9.486 Y-9.353
X9.466 Y-9.365
X9.377 Y-9.464
X9.37 Y-9.476
X9.36 Y-9.489
X9.345 Y-9.496
X9.328 Y-9.495
X9.305
X9.285 Y-9.508
X9.269 Y-9.526
X9.262 Y-9.54
X9.264 Y-9.557
X9.274 Y-9.569
X9.29 Y-9.574
X9.514
X9.537 Y-9.569
X9.556 Y-9.556
X9.569 Y-9.537
X9.574 Y-9.514
Y-9.257
X9.569 Y-9.242
X9.557 Y-9.232
X9.541 Y-9.231
X9.527 Y-9.239
X9.285 Y-9.508
X9.266 Y-9.519
X9.243 Y-9.518
X9.221 Y-9.517
X9.202 Y-9.529
X9.183 Y-9.55
X9.173 Y-9.572
X9.176 Y-9.596
X9.191 Y-9.614
X9.214 Y-9.621
X9.533
X9.567 Y-9.614
X9.595 Y-9.595
X9.614 Y-9.567
X9.621 Y-9.533
Y-9.167
X9.614 Y-9.145
X9.596 Y-9.131
X9.572 Y-9.129
X9.552 Y-9.141
X9.202 Y-9.529
X9.187 Y-9.538
X9.169 Y-9.537
X9.151 Y-9.536
X9.136 Y-9.545
X9.071 Y-9.612
X9.064 Y-9.627
X9.066 Y-9.643
X9.076 Y-9.656
X9.092 Y-9.66
X9.6
X9.623 Y-9.656
X9.643 Y-9.643
X9.656 Y-9.623
X9.66 Y-9.6
Y-9.033
X9.656 Y-9.018
X9.643 Y-9.008
X9.627 Y-9.007
X9.614 Y-9.015
G3 X9.345 Y-9.316 I29.618 J-26.737
G2 X9.136 Y-9.545 I-7.556 J6.684
G1 X9.117 Y-9.556
X9.095 Y-9.554
X9.073 Y-9.552
X9.054 Y-9.563
X8.981 Y-9.638
X8.97 Y-9.658
X8.972 Y-9.682
X8.987 Y-9.7
X9.01 Y-9.707
X9.619
X9.653 Y-9.701
X9.682 Y-9.682
X9.701 Y-9.653
X9.707 Y-9.619
Y-8.943
X9.7 Y-8.921
X9.682 Y-8.906
X9.659 Y-8.905
X9.639 Y-8.917
G3 X9.314 Y-9.281 I26.154 J-23.61
G2 X9.054 Y-9.563 I-5.876 J5.159
G1 X9.039 Y-9.572
X9.021 Y-9.57
X9.003 Y-9.569
X8.987 Y-9.577
X8.861 Y-9.7
X8.854 Y-9.713
X8.855 Y-9.729
X8.865 Y-9.742
X8.88 Y-9.746
X9.687
X9.71 Y-9.742
X9.729 Y-9.729
X9.742 Y-9.71
X9.746 Y-9.687
Y-8.808
X9.742 Y-8.793
X9.729 Y-8.783
X9.713 Y-8.782
X9.7 Y-8.791
G3 X9.29 Y-9.253 I25.591 J-23.102
G2 X8.987 Y-9.577 I-4.835 J4.21
G1 X8.968 Y-9.587
X8.947 Y-9.585
X8.925 Y-9.582
X8.906 Y-9.592
X8.765 Y-9.725
X8.753 Y-9.745
X8.754 Y-9.768
X8.769 Y-9.787
X8.791 Y-9.794
X9.706
X9.739 Y-9.787
X9.768 Y-9.768
X9.787 Y-9.739
X9.794 Y-9.706
Y-8.719
X9.787 Y-8.697
X9.768 Y-8.682
X9.745 Y-8.681
X9.725 Y-8.692
X9.07 Y-9.436
X8.906 Y-9.592
X8.89 Y-9.599
X8.873 Y-9.597
X8.856 Y-9.595
X8.841 Y-9.603
G2 X8.635 Y-9.787 I-3.724 J3.957
G1 X8.627 Y-9.8
X8.628 Y-9.816
X8.637 Y-9.828
X8.652 Y-9.832
X9.774
X9.796 Y-9.828
X9.815 Y-9.815
X9.828 Y-9.796
X9.832 Y-9.774
Y-8.584
X9.828 Y-8.569
X9.816 Y-8.559
X9.8 Y-8.558
X9.786 Y-8.566
G3 X9.231 Y-9.196 I27.689 J-24.995
G2 X8.841 Y-9.603 I-4.114 J3.549
G1 X8.822 Y-9.612
X8.801 Y-9.61
X8.78 Y-9.607
X8.76 Y-9.616
G2 X8.531 Y-9.814 I-3.496 J3.834
G1 X8.518 Y-9.832
X8.519 Y-9.854
X8.532 Y-9.872
X8.554 Y-9.879
X9.793
X9.826 Y-9.872
X9.854 Y-9.854
X9.872 Y-9.826
X9.879 Y-9.793
Y-8.494
X9.872 Y-8.473
X9.854 Y-8.459
X9.832 Y-8.457
X9.812 Y-8.469
G3 X9.197 Y-9.166 I28.887 J-26.077
G2 X8.76 Y-9.616 I-3.933 J3.384
G1 X8.745 Y-9.623
X8.728 Y-9.621
X8.711 Y-9.618
X8.695 Y-9.626
G2 X8.391 Y-9.874 I-3.271 J3.693
G1 X8.382 Y-9.886
Y-9.901
X8.391 Y-9.913
X8.405 Y-9.917
X9.86
X9.889 Y-9.91
X9.909 Y-9.889
X9.917 Y-9.86
Y-8.361
X9.913 Y-8.347
X9.901 Y-8.338
X9.886 Y-8.337
X9.873 Y-8.344
G3 X9.168 Y-9.145 I31.304 J-28.259
G2 X8.695 Y-9.626 I-3.744 J3.212
G1 X8.675 Y-9.635
X8.653 Y-9.631
X8.631 Y-9.628
X8.611 Y-9.637
G2 X8.278 Y-9.9 I-3.272 J3.792
G1 X8.265 Y-9.918
Y-9.939
X8.278 Y-9.956
X8.298 Y-9.963
X9.88
X9.911 Y-9.956
X9.938 Y-9.938
X9.956 Y-9.911
X9.963 Y-9.88
Y-8.273
X9.956 Y-8.252
X9.939 Y-8.239
X9.917 Y-8.237
X9.898 Y-8.248
G3 X9.131 Y-9.117 I38.622 J-34.865
G2 X8.611 Y-9.637 I-3.792 J3.272
G1 X8.597 Y-9.643
X8.582 Y-9.64
X8.567 Y-9.638
X8.553 Y-9.644
G2 X8.284 Y-9.856 I-2.762 J3.23
G1 X8.209 Y-9.907
X8.133 Y-9.958
X8.124 Y-9.97
Y-9.985
X8.133 Y-9.996
X8.147 Y-10.001
X9.944
X9.972 Y-9.993
X9.993 Y-9.973
X10.001 Y-9.944
Y-8.143
X9.996 Y-8.129
X9.985 Y-8.12
X9.969 Y-8.119
X9.957 Y-8.126
X8.913 Y-9.294
G2 X8.614 Y-9.591 I-2.846 J2.569
G1 X8.553 Y-9.644
X8.535 Y-9.652
X8.515 Y-9.648
X8.496 Y-9.645
X8.477 Y-9.653
G2 X8.26 Y-9.821 I-2.707 J3.267
G1 X8.14 Y-9.903
X8.019 Y-9.984
X8.007 Y-10.001
Y-10.023
X8.019 Y-10.04
X8.04 Y-10.047
X9.963 Y-10.046
X9.995 Y-10.04
X10.022 Y-10.022
X10.04 Y-9.995
X10.046 Y-9.963
Y-8.056
X10.04 Y-8.034
X10.023 Y-8.021
X10.001 Y-8.019
X9.982 Y-8.031
X8.882 Y-9.266
G2 X8.585 Y-9.56 I-2.794 J2.522
G1 X8.477 Y-9.653
X8.46 Y-9.66
X8.442 Y-9.656
X8.423 Y-9.653
X8.406 Y-9.66
X8.237 Y-9.79
X7.874 Y-10.042
X7.866 Y-10.054
Y-10.068
X7.874 Y-10.08
X7.888 Y-10.085
X10.028
X10.056 Y-10.077
X10.077 Y-10.056
X10.085 Y-10.028
Y-7.926
X10.08 Y-7.911
X10.068 Y-7.902
X10.053 Y-7.901
X10.04 Y-7.909
X8.851 Y-9.238
G2 X8.406 Y-9.66 I-2.931 J2.646
G1 X8.384 Y-9.669
X8.361 Y-9.664
X8.338 Y-9.658
X8.316 Y-9.666
X8.295 Y-9.681
X7.761 Y-10.068
X7.748 Y-10.085
Y-10.106
X7.761 Y-10.124
X7.781 Y-10.13
X10.047
X10.079 Y-10.124
X10.106 Y-10.106
X10.124 Y-10.079
X10.13 Y-10.047
Y-7.837
X10.124 Y-7.816
X10.106 Y-7.802
X10.085 Y-7.801
X10.066 Y-7.812
X8.82 Y-9.21
G2 X8.316 Y-9.666 I-2.503 J2.259
G1 X8.299 Y-9.672
X8.281 Y-9.668
X8.263 Y-9.663
X8.246 Y-9.669
X8.244 Y-9.671
X7.616 Y-10.126
X7.607 Y-10.138
Y-10.152
X7.616 Y-10.164
X7.63 Y-10.168
X10.112
X10.14 Y-10.161
X10.161 Y-10.14
X10.168 Y-10.112
Y-7.701
X10.164 Y-7.687
X10.152 Y-7.678
X10.137 Y-7.677
X10.125 Y-7.685
X10.076 Y-7.746
X10.027 Y-7.806
X8.789 Y-9.182
G2 X8.246 Y-9.669 I-2.597 J2.344
G1 X8.229 Y-9.675
X8.211 Y-9.671
X8.193 Y-9.666
X8.175 Y-9.672
X8.156 Y-9.686
G3 X7.503 Y-10.152 I30.641 J-43.667
G1 X7.49 Y-10.169
Y-10.19
X7.502 Y-10.207
X7.523 Y-10.214
X10.131
X10.163 Y-10.208
X10.19 Y-10.19
X10.208 Y-10.163
X10.214 Y-10.131
Y-7.603
X10.207 Y-7.582
X10.19 Y-7.569
X10.169
X10.151 Y-7.581
X9.995 Y-7.777
X8.758 Y-9.154
G2 X8.175 Y-9.672 I-2.659 J2.401
G1 X8.16 Y-9.678
X8.144 Y-9.673
X8.127 Y-9.669
X8.112 Y-9.675
X8.071 Y-9.704
G3 X7.358 Y-10.21 I26.002 J-37.384
G1 X7.349 Y-10.221
Y-10.236
X7.358 Y-10.248
X7.371 Y-10.252
X10.195
X10.224 Y-10.245
X10.245 Y-10.224
X10.252 Y-10.195
Y-7.454
X10.248 Y-7.44
X10.236 Y-7.432
X10.221
X10.21 Y-7.44
X10.152 Y-7.52
X10.092 Y-7.599
X8.727 Y-9.126
G2 X8.112 Y-9.675 I-2.843 J2.567
G1 X8.094 Y-9.68
X8.076 Y-9.676
X8.058 Y-9.671
X8.04 Y-9.677
X8 Y-9.705
G3 X7.244 Y-10.236 I18.15 J-26.63
G1 X7.232 Y-10.253
Y-10.274
X7.244 Y-10.291
X7.264 Y-10.298
X10.215
X10.247 Y-10.291
X10.274 Y-10.274
X10.291 Y-10.247
X10.298 Y-10.215
Y-7.342
X10.291 Y-7.322
X10.274 Y-7.31
X10.253 Y-7.311
X10.237 Y-7.323
X10.093 Y-7.529
X8.696 Y-9.098
G2 X8.04 Y-9.677 I-2.885 J2.604
G1 X8.021 Y-9.683
X8.001 Y-9.678
X7.981 Y-9.673
X7.961 Y-9.679
G2 X7.594 Y-9.94 I-28.274 J39.3
G3 X7.099 Y-10.294 I27.907 J-39.561
G1 X7.09 Y-10.31
X7.096 Y-10.328
X7.113 Y-10.335
X10.281
X10.308 Y-10.328
X10.328 Y-10.308
X10.335 Y-10.281
Y-7.176
X10.328 Y-7.16
X10.31 Y-7.155
X10.296 Y-7.164
G2 X10.112 Y-7.439 I-4.233 J2.628
X9.905 Y-7.696 I-2.386 J1.71
G1 X8.665 Y-9.07
G2 X8.09 Y-9.587 I-2.745 J2.478
G1 X7.961 Y-9.679
X7.948 Y-9.684
X7.935 Y-9.68
X7.922 Y-9.677
X7.909 Y-9.681
X7.845 Y-9.724
G3 X6.988 Y-10.32 I14.97 J-22.444
G1 X6.976 Y-10.337
Y-10.357
X6.988 Y-10.373
X7.007 Y-10.379
X10.3
X10.331 Y-10.373
X10.356 Y-10.356
X10.373 Y-10.331
X10.379 Y-10.3
Y-7.048
X10.373 Y-7.03
X10.357 Y-7.019
X10.337 Y-7.02
X10.323 Y-7.033
G2 X10.115 Y-7.362 I-4.662 J2.7
X9.875 Y-7.668 I-2.35 J1.598
G1 X8.635 Y-9.042
G2 X7.909 Y-9.681 I-3.128 J2.824
G1 X7.886 Y-9.688
X7.862 Y-9.682
X7.838 Y-9.676
X7.814 Y-9.683
X6.847 Y-10.377
X6.838 Y-10.392
X6.844 Y-10.409
X6.86 Y-10.417
X10.363 Y-10.416
X10.39 Y-10.409
X10.409 Y-10.39
X10.416 Y-10.363
Y-6.873
X10.409 Y-6.857
X10.392 Y-6.853
X10.378 Y-6.863
X10.333 Y-6.946
X10.288 Y-7.03
G2 X9.845 Y-7.641 I-3.191 J1.849
G1 X8.604 Y-9.015
G2 X8.042 Y-9.521 I-2.684 J2.423
G1 X7.814 Y-9.683
X7.796 Y-9.69
X7.778 Y-9.685
X7.76 Y-9.68
X7.742 Y-9.686
G2 X7.377 Y-9.945 I-32.349 J45.234
G3 X6.737 Y-10.402 I31.984 J-45.492
G1 X6.725 Y-10.418
Y-10.438
X6.737 Y-10.455
X6.756 Y-10.461
X10.382
X10.412 Y-10.455
X10.438 Y-10.438
X10.455 Y-10.412
X10.461 Y-10.382
Y-6.745
X10.455 Y-6.727
X10.438 Y-6.716
X10.419 Y-6.717
X10.404 Y-6.73
X10.253 Y-7.01
G2 X9.815 Y-7.614 I-3.141 J1.82
G1 X8.574 Y-8.988
G2 X8.018 Y-9.488 I-2.654 J2.396
X7.742 Y-9.686 I-32.624 J45.035
G1 X7.724 Y-9.692
X7.705 Y-9.687
X7.687 Y-9.682
X7.668 Y-9.688
X6.596 Y-10.458
X6.587 Y-10.474
X6.593 Y-10.491
X6.609 Y-10.498
X10.445
X10.471 Y-10.491
X10.491 Y-10.471
X10.498 Y-10.445
Y-6.57
X10.491 Y-6.555
X10.474 Y-6.55
X10.46 Y-6.56
X10.219 Y-6.99
G2 X9.784 Y-7.587 I-3.058 J1.772
G1 X8.544 Y-8.961
G2 X7.994 Y-9.455 I-2.624 J2.368
G1 X7.668 Y-9.688
X7.65 Y-9.695
X7.631 Y-9.69
X7.612 Y-9.685
X7.594 Y-9.691
X6.486 Y-10.483
X6.474 Y-10.499
Y-10.52
X6.486 Y-10.536
X6.505 Y-10.542
X10.463
X10.493 Y-10.536
X10.519 Y-10.519
X10.536 Y-10.493
X10.542 Y-10.463
Y-6.442
X10.536 Y-6.424
X10.52 Y-6.413
X10.5 Y-6.414
X10.485 Y-6.427
G3 X10.149 Y-7.012 I73.043 J-42.311
G2 X9.754 Y-7.559 I-2.705 J1.538
G1 X8.514 Y-8.933
G2 X7.97 Y-9.422 I-2.593 J2.341
G1 X7.594 Y-9.691
X7.577 Y-9.697
X7.56 Y-9.692
X7.544 Y-9.688
X7.527 Y-9.694
G3 X7.148 Y-9.971 I72.979 J-99.859
G2 X6.34 Y-10.54 I-13.453 J18.262
G1 X6.331 Y-10.555
X6.336 Y-10.572
X6.352 Y-10.579
X10.526
X10.553 Y-10.572
X10.572 Y-10.553
X10.579 Y-10.526
Y-6.267
X10.572 Y-6.252
X10.555 Y-6.247
X10.541 Y-6.257
G3 X10.166 Y-6.916 I43.731 J-25.331
G2 X9.724 Y-7.532 I-2.956 J1.654
G1 X8.484 Y-8.906
G2 X7.946 Y-9.389 I-2.563 J2.314
G3 X7.527 Y-9.694 I72.56 J-100.164
G1 X7.51 Y-9.7
X7.491 Y-9.695
X7.473 Y-9.691
X7.456 Y-9.697
G3 X7.081 Y-9.976 I38.118 J-51.634
G2 X6.218 Y-10.566 I-7.297 J9.735
G1 X6.206 Y-10.581
X6.205 Y-10.601
X6.216 Y-10.617
X6.235 Y-10.624
X10.545
X10.575 Y-10.618
X10.6 Y-10.6
X10.618 Y-10.575
X10.624 Y-10.545
Y-6.139
X10.617 Y-6.121
X10.601 Y-6.11
X10.581 Y-6.111
X10.567 Y-6.124
G3 X10.166 Y-6.837 I26.132 J-15.137
G2 X9.694 Y-7.505 I-3.047 J1.656
G1 X8.453 Y-8.879
G2 X7.922 Y-9.356 I-2.533 J2.287
G3 X7.456 Y-9.697 I37.652 J-51.975
G1 X7.436 Y-9.704
X7.417 Y-9.698
X7.397 Y-9.693
X7.378 Y-9.7
X6.398 Y-10.41
X6.227 Y-10.522
X6.049 Y-10.623
X6.039 Y-10.637
X6.043 Y-10.653
X6.059 Y-10.661
X10.607
X10.634 Y-10.654
X10.654 Y-10.634
X10.661 Y-10.607
Y-5.964
X10.653 Y-5.949
X10.637 Y-5.944
X10.622 Y-5.954
G3 X10.35 Y-6.431 I34.789 J-20.152
G2 X10.078 Y-6.908 I-35.061 J19.674
X9.664 Y-7.478 I-2.918 J1.69
G1 X8.423 Y-8.852
G2 X7.898 Y-9.323 I-2.503 J2.259
G1 X7.378 Y-9.7
X7.36 Y-9.706
X7.341 Y-9.702
X7.323 Y-9.697
X7.305 Y-9.703
X6.374 Y-10.377
G2 X6.144 Y-10.524 I-1.319 J1.82
X5.902 Y-10.651 I-3.1 J5.602
G1 X5.889 Y-10.664
X5.887 Y-10.683
X5.897 Y-10.698
X5.915 Y-10.704
X10.628
X10.657 Y-10.698
X10.682 Y-10.682
X10.698 Y-10.657
X10.704 Y-10.628
Y-5.836
X10.698 Y-5.818
X10.682 Y-5.807
X10.663 Y-5.808
X10.649 Y-5.821
G3 X10.184 Y-6.662 I20.722 J-12.003
G2 X9.634 Y-7.451 I-3.419 J1.801
G1 X8.393 Y-8.825
G2 X7.875 Y-9.29 I-2.473 J2.232
G1 X7.305 Y-9.703
X7.287 Y-9.709
X7.269 Y-9.704
X7.251 Y-9.7
X7.233 Y-9.706
X6.351 Y-10.345
G2 X6.059 Y-10.531 I-1.689 J2.331
X5.75 Y-10.684 I-1.862 J3.353
G1 X5.724 Y-10.695
X5.697 Y-10.706
X5.687 Y-10.718
X5.69 Y-10.733
X5.704 Y-10.74
X10.691
X10.715 Y-10.734
X10.734 Y-10.715
X10.74 Y-10.691
Y-5.663
X10.733 Y-5.649
X10.718 Y-5.644
X10.705 Y-5.654
X10.009 Y-6.868
G2 X9.604 Y-7.424 I-2.848 J1.65
G1 X8.364 Y-8.798
G2 X7.851 Y-9.258 I-2.443 J2.206
G1 X7.233 Y-9.706
X7.216 Y-9.712
X7.198 Y-9.707
X7.18 Y-9.702
X7.162 Y-9.709
X6.327 Y-10.313
G2 X6.04 Y-10.497 I-1.731 J2.389
X5.735 Y-10.65 I-1.77 J3.156
G1 X5.634 Y-10.691
X5.533 Y-10.732
X5.52 Y-10.744
X5.517 Y-10.762
X5.527 Y-10.777
X5.543 Y-10.783
X10.709
X10.737 Y-10.777
X10.761 Y-10.761
X10.777 Y-10.737
X10.783 Y-10.709
Y-5.539
X10.777 Y-5.522
X10.762 Y-5.511
X10.743 Y-5.513
X10.73 Y-5.525
X9.975 Y-6.848
G2 X9.575 Y-7.397 I-2.814 J1.63
G1 X8.334 Y-8.772
G2 X7.828 Y-9.226 I-2.414 J2.179
G1 X7.162 Y-9.709
X7.145 Y-9.715
X7.127 Y-9.71
X7.109 Y-9.705
X7.091 Y-9.711
X6.304 Y-10.281
G2 X5.72 Y-10.617 I-1.885 J2.602
G1 X5.522 Y-10.701
X5.324 Y-10.785
X5.314 Y-10.797
X5.317 Y-10.812
X5.331 Y-10.819
X10.769
X10.794 Y-10.812
X10.812 Y-10.794
X10.819 Y-10.769
Y-5.37
X10.812 Y-5.355
X10.797 Y-5.351
X10.783 Y-5.36
X9.941 Y-6.829
G2 X9.546 Y-7.371 I-2.78 J1.61
G1 X8.305 Y-8.745
G2 X7.805 Y-9.194 I-2.385 J2.153
G1 X7.091 Y-9.711
X7.074 Y-9.717
X7.056 Y-9.713
X7.038 Y-9.708
X7.02 Y-9.714
X6.281 Y-10.249
G2 X5.735 Y-10.56 I-1.674 J2.31
G3 X5.16 Y-10.811 I23.686 J-55.037
G1 X5.147 Y-10.823
X5.144 Y-10.841
X5.154 Y-10.856
X5.171 Y-10.862
X10.788
X10.816 Y-10.856
X10.84 Y-10.84
X10.856 Y-10.816
X10.862 Y-10.788
Y-5.246
X10.856 Y-5.228
X10.841 Y-5.218
X10.822 Y-5.219
X10.808 Y-5.231
X9.907 Y-6.809
G2 X9.516 Y-7.345 I-2.746 J1.591
G1 X8.276 Y-8.719
G2 X7.782 Y-9.162 I-2.356 J2.126
G1 X7.02 Y-9.714
X7.003 Y-9.72
X6.985 Y-9.715
X6.967 Y-9.711
X6.949 Y-9.717
X6.258 Y-10.218
G2 X5.622 Y-10.575 I-1.865 J2.574
G3 X4.951 Y-10.864 I14.042 J-33.512
G1 X4.941 Y-10.876
X4.945 Y-10.891
X4.959 Y-10.898
X10.848
X10.873 Y-10.891
X10.891 Y-10.873
X10.898 Y-10.848
Y-5.067
X10.891 Y-5.053
X10.876 Y-5.049
X10.863 Y-5.059
X10.831 Y-5.124
X10.797 Y-5.189
X9.873 Y-6.789
G2 X9.487 Y-7.318 I-2.712 J1.571
G1 X8.247 Y-8.692
G2 X7.759 Y-9.13 I-2.326 J2.1
G1 X6.949 Y-9.717
X6.932 Y-9.723
X6.914 Y-9.718
X6.896 Y-9.714
X6.878 Y-9.72
X6.235 Y-10.186
G2 X5.529 Y-10.576 I-1.946 J2.687
G3 X4.787 Y-10.89 I8.988 J-22.287
G1 X4.774 Y-10.902
X4.772 Y-10.92
X4.781 Y-10.935
X4.798 Y-10.941
X10.866
X10.895 Y-10.935
X10.919 Y-10.919
X10.935 Y-10.895
X10.941 Y-10.866
Y-4.918
X10.935 Y-4.901
X10.92 Y-4.892
X10.902 Y-4.894
X10.889 Y-4.907
X10.764 Y-5.169
X9.838 Y-6.769
G2 X9.458 Y-7.292 I-2.678 J1.551
G1 X8.217 Y-8.666
G2 X7.736 Y-9.098 I-2.297 J2.074
G1 X6.878 Y-9.72
X6.861 Y-9.726
X6.843 Y-9.721
X6.825 Y-9.716
X6.808 Y-9.722
X6.212 Y-10.154
G2 X5.657 Y-10.473 I-1.792 J2.474
X5.118 Y-10.708 I-20.529 J46.358
G3 X4.579 Y-10.943 I19.99 J-46.593
G1 X4.569 Y-10.955
X4.572 Y-10.97
X4.586 Y-10.976
X10.928
X10.952 Y-10.97
X10.97 Y-10.952
X10.976 Y-10.928
Y-4.689
X10.97 Y-4.675
X10.955 Y-4.673
X10.944 Y-4.683
G2 X10.847 Y-4.921 I-4.168 J1.552
X10.731 Y-5.15 I-2.127 J0.935
G1 X9.805 Y-6.75
G2 X9.429 Y-7.266 I-2.644 J1.531
G1 X8.188 Y-8.64
G2 X7.713 Y-9.067 I-2.268 J2.047
G1 X6.808 Y-9.722
X6.79 Y-9.728
X6.773 Y-9.724
X6.755 Y-9.719
X6.738 Y-9.725
X6.189 Y-10.123
G2 X5.641 Y-10.438 I-1.77 J2.443
G1 X4.415 Y-10.97
X4.403 Y-10.981
X4.401 Y-10.998
X4.41 Y-11.012
X4.426 Y-11.018
X10.948
X10.975 Y-11.013
X10.997 Y-10.997
X11.013 Y-10.975
X11.018 Y-10.948
Y-4.479
X11.012 Y-4.464
X10.998 Y-4.456
X10.982 Y-4.459
X10.972 Y-4.472
G2 X10.852 Y-4.809 I-6.546 J2.141
X10.698 Y-5.131 I-2.127 J0.82
G1 X9.771 Y-6.73
G2 X9.4 Y-7.24 I-2.61 J1.512
G1 X8.16 Y-8.614
G2 X7.69 Y-9.035 I-2.239 J2.021
G1 X6.738 Y-9.725
X6.721 Y-9.731
X6.704 Y-9.726
X6.686 Y-9.722
X6.669 Y-9.728
X6.167 Y-10.092
G2 X5.626 Y-10.403 I-1.747 J2.412
G1 X4.214 Y-11.021
X4.205 Y-11.032
X4.208 Y-11.046
X4.221 Y-11.053
X11.006
X11.03 Y-11.047
X11.047 Y-11.03
X11.053 Y-11.006
Y-4.21
X11.046 Y-4.198
X11.032 Y-4.196
X11.022 Y-4.206
X10.918 Y-4.545
G2 X10.665 Y-5.112 I-2.831 J0.926
G1 X9.738 Y-6.711
G2 X9.372 Y-7.214 I-2.577 J1.493
G1 X8.131 Y-8.588
G2 X7.668 Y-9.004 I-2.211 J1.996
G1 X6.669 Y-9.728
X6.652 Y-9.734
X6.635 Y-9.729
X6.618 Y-9.725
X6.601 Y-9.73
X6.144 Y-10.061
G2 X5.61 Y-10.368 I-1.725 J2.381
X4.832 Y-10.707 I-29.657 J66.971
G3 X4.054 Y-11.046 I28.879 J-67.31
G1 X4.042 Y-11.058
X4.04 Y-11.074
X4.048 Y-11.089
X4.064 Y-11.094
X11.025
X11.051 Y-11.089
X11.074 Y-11.074
X11.089 Y-11.051
X11.094 Y-11.025
Y-3.999
X11.089 Y-3.984
X11.074 Y-3.976
X11.059 Y-3.979
X11.048 Y-3.992
G3 X10.869 Y-4.553 I44.944 J-14.697
G2 X10.631 Y-5.093 I-2.545 J0.797
G1 X9.705 Y-6.692
G2 X9.343 Y-7.189 I-2.544 J1.474
G1 X8.103 Y-8.563
G2 X7.645 Y-8.973 I-2.183 J1.97
G1 X6.601 Y-9.73
X6.584 Y-9.736
X6.566 Y-9.732
X6.549 Y-9.727
X6.532 Y-9.733
X6.122 Y-10.03
G2 X5.595 Y-10.333 I-1.703 J2.35
G1 X4.652 Y-10.75
G2 X3.851 Y-11.098 I-22.288 J50.33
G1 X3.842 Y-11.109
X3.845 Y-11.123
X3.858 Y-11.129
X11.083
X11.106 Y-11.123
X11.123 Y-11.106
X11.129 Y-11.083
Y-3.731
X11.123 Y-3.718
X11.109 Y-3.716
X11.099 Y-3.726
G3 X10.884 Y-4.413 I26.579 J-8.692
G2 X10.598 Y-5.074 I-2.945 J0.88
G1 X9.672 Y-6.673
G2 X9.315 Y-7.163 I-2.511 J1.455
G1 X8.075 Y-8.537
G2 X7.623 Y-8.943 I-2.154 J1.945
G1 X6.532 Y-9.733
X6.515 Y-9.739
X6.497 Y-9.734
X6.48 Y-9.73
X6.463 Y-9.736
X6.1 Y-9.999
G2 X5.579 Y-10.298 I-1.68 J2.319
G1 X3.879 Y-11.048
X3.774 Y-11.088
X3.667 Y-11.125
X3.654 Y-11.135
X3.651 Y-11.151
X3.659 Y-11.165
X3.675 Y-11.171
X11.101
X11.128 Y-11.165
X11.15 Y-11.15
X11.165 Y-11.128
X11.171 Y-11.101
Y-3.52
X11.165 Y-3.505
X11.151 Y-3.497
X11.135 Y-3.5
X11.125 Y-3.512
G3 X10.885 Y-4.298 I19.278 J-6.304
G2 X10.565 Y-5.054 I-3.176 J0.898
G1 X9.639 Y-6.654
G2 X9.287 Y-7.137 I-2.478 J1.436
G1 X8.046 Y-8.511
G2 X7.601 Y-8.912 I-2.126 J1.919
G1 X6.463 Y-9.736
X6.446 Y-9.742
X6.429 Y-9.737
X6.412 Y-9.733
X6.395 Y-9.738
X6.077 Y-9.968
G2 X5.564 Y-10.264 I-1.658 J2.289
G1 X3.865 Y-11.016
G2 X3.619 Y-11.108 I-0.915 J2.067
X3.365 Y-11.177 I-1.112 J3.592
G1 X3.355 Y-11.186
X3.356 Y-11.199
X3.368 Y-11.205
X11.161
X11.183 Y-11.199
X11.199 Y-11.183
X11.205 Y-11.161
Y-3.251
X11.199 Y-3.239
X11.186 Y-3.237
X11.176 Y-3.246
X10.773 Y-4.497
G2 X10.533 Y-5.036 I-2.686 J0.878
G1 X9.606 Y-6.635
G2 X9.259 Y-7.112 I-2.446 J1.417
G1 X8.018 Y-8.486
G2 X7.578 Y-8.881 I-2.098 J1.894
G1 X6.395 Y-9.738
X6.378 Y-9.744
X6.362 Y-9.74
X6.345 Y-9.735
X6.328 Y-9.741
X6.056 Y-9.938
G2 X5.549 Y-10.23 I-1.636 J2.259
G1 X3.85 Y-10.982
G2 X3.295 Y-11.16 I-1.107 J2.5
G1 X3.17 Y-11.182
X3.046 Y-11.204
X3.033 Y-11.212
X3.03 Y-11.226
X3.036 Y-11.24
X3.05 Y-11.245
X11.18
X11.205 Y-11.24
X11.226 Y-11.226
X11.24 Y-11.205
X11.245 Y-11.18
Y-3.045
X11.24 Y-3.031
X11.226 Y-3.023
X11.212 Y-3.026
X11.202 Y-3.038
X10.738 Y-4.486
G2 X10.501 Y-5.017 I-2.651 J0.867
G1 X9.574 Y-6.616
G2 X9.231 Y-7.087 I-2.414 J1.398
G1 X7.991 Y-8.461
G2 X7.557 Y-8.851 I-2.07 J1.869
G1 X6.328 Y-9.741
X6.312 Y-9.747
X6.295 Y-9.742
X6.278 Y-9.738
X6.262 Y-9.744
X6.034 Y-9.908
G2 X5.534 Y-10.196 I-1.615 J2.229
G1 X3.835 Y-10.948
G2 X3.254 Y-11.131 I-1.097 J2.478
G3 X2.656 Y-11.252 I7.33 J-37.82
G1 X2.646 Y-11.26
X2.648 Y-11.273
X2.659 Y-11.279
X11.235
X11.257 Y-11.273
X11.273 Y-11.257
X11.279 Y-11.235
Y-2.787
X11.273 Y-2.775
X11.26 Y-2.773
X11.25 Y-2.782
X10.703 Y-4.474
G2 X10.469 Y-4.999 I-2.616 J0.855
G1 X9.542 Y-6.598
G2 X9.204 Y-7.063 I-2.382 J1.38
G1 X7.963 Y-8.437
G2 X7.535 Y-8.821 I-2.043 J1.844
G1 X6.262 Y-9.744
X6.245 Y-9.749
X6.229 Y-9.745
X6.212 Y-9.74
X6.195 Y-9.746
X6.013 Y-9.879
G2 X5.519 Y-10.162 I-1.593 J2.199
G1 X3.82 Y-10.915
G2 X3.088 Y-11.135 I-1.25 J2.822
G3 X2.336 Y-11.278 I3.291 J-19.369
G1 X2.324 Y-11.286
X2.32 Y-11.3
X2.327 Y-11.313
X2.34 Y-11.319
X11.254
X11.279 Y-11.314
X11.3 Y-11.3
X11.314 Y-11.279
X11.319 Y-11.254
Y-2.564
X11.313 Y-2.55
X11.3 Y-2.543
X11.286 Y-2.546
X11.277 Y-2.558
X11.259 Y-2.63
X11.24 Y-2.701
X10.668 Y-4.463
G2 X10.437 Y-4.98 I-2.581 J0.844
G1 X9.51 Y-6.579
G2 X9.176 Y-7.038 I-2.35 J1.361
G1 X7.936 Y-8.412
G2 X7.513 Y-8.791 I-2.016 J1.82
G1 X6.195 Y-9.746
X6.179 Y-9.752
X6.163 Y-9.747
X6.146 Y-9.743
X6.13 Y-9.749
X5.991 Y-9.849
G2 X5.504 Y-10.129 I-1.572 J2.17
G1 X3.806 Y-10.881
G2 X3.272 Y-11.053 I-1.085 J2.45
G1 X1.946 Y-11.326
X1.937 Y-11.334
X1.938 Y-11.346
X1.949 Y-11.352
X11.311 Y-11.351
X11.331 Y-11.346
X11.346 Y-11.331
X11.351 Y-11.311
Y-2.083
X11.328 Y-2.082
X11.325 Y-2.112
X11.323 Y-2.143
G2 X11.281 Y-2.42 I-3.048 J0.326
X11.209 Y-2.691 I-2.33 J0.467
G1 X10.634 Y-4.452
G2 X10.405 Y-4.962 I-2.546 J0.833
G1 X9.479 Y-6.561
G2 X9.149 Y-7.013 I-2.318 J1.343
G1 X7.909 Y-8.387
G2 X7.492 Y-8.762 I-1.989 J1.795
G1 X6.13 Y-9.749
X6.114 Y-9.754
X6.098 Y-9.75
X6.081 Y-9.746
X6.065 Y-9.751
X5.97 Y-9.82
G2 X5.49 Y-10.096 I-1.551 J2.141
G1 X3.791 Y-10.849
G2 X3.265 Y-11.018 I-1.07 J2.417
X2.45 Y-11.185 I-16.815 J79.961
G3 X1.636 Y-11.352 I16.001 J-80.128
G1 X1.624 Y-11.36
X1.621 Y-11.373
X1.627 Y-11.385
X1.64 Y-11.39
X11.33
X11.353 Y-11.385
X11.372 Y-11.372
X11.385 Y-11.353
X11.39 Y-11.33
Y-1.474
X11.385 Y-1.461
X11.373 Y-1.456
X11.36 Y-1.46
X11.354 Y-1.472
G3 X11.296 Y-2.081 I25.39 J-2.717
G2 X11.175 Y-2.68 I-2.616 J0.217
G1 X10.6 Y-4.441
G2 X10.374 Y-4.944 I-2.512 J0.822
G1 X9.448 Y-6.543
G2 X9.123 Y-6.989 I-2.287 J1.325
G1 X7.883 Y-8.364
G2 X7.471 Y-8.733 I-1.962 J1.771
G1 X6.065 Y-9.751
X6.051 Y-9.756
X6.035 Y-9.752
X6.02 Y-9.748
X6.005 Y-9.754
X5.951 Y-9.793
G2 X5.476 Y-10.066 I-1.531 J2.114
G1 X3.778 Y-10.818
G2 X3.258 Y-10.986 I-1.057 J2.386
G1 X1.444 Y-11.367
X1.321 Y-11.388
X1.197 Y-11.404
X1.198 Y-11.418
X11.393
X11.411 Y-11.411
X11.418 Y-11.393
Y-0.746
X11.403 Y-0.745
X11.258 Y-2.136
G2 X11.144 Y-2.669 I-2.595 J0.278
G1 X10.568 Y-4.43
G2 X10.346 Y-4.927 I-2.481 J0.811
G1 X9.419 Y-6.526
G2 X9.098 Y-6.967 I-2.258 J1.308
G1 X7.858 Y-8.341
G2 X7.452 Y-8.706 I-1.937 J1.749
G1 X6.005 Y-9.754
X5.97 Y-9.784 Z-0.093
X5.94 Y-9.819 Z-0.085
X5.918 Y-9.854 Z-0.064
X5.9 Y-9.892 Z-0.043
X5.884 Y-9.956 Z0.024
X5.881 Y-9.999 Z0.107
X5.882 Y-10.013 Z0.2
G0 Z5
X-9.645 Y-10.178
Z0.405
G1 X-9.638 Y-10.166 Z0.313 F333.3
X-9.618 Y-10.129 Z0.23
X-9.588 Y-10.07 Z0.163
X-9.556 Y-9.994 Z0.121
X-9.524 Y-9.908 Z0.105
G3 X-12.235 Y-9.027 Z0.055 I-1.355 J0.44
X-9.524 Y-9.908 Z0.005 I1.355 J-0.44
X-12.235 Y-9.027 Z-0.045 I-1.355 J0.44
X-11.103 Y-10.875 Z-0.073 I1.355 J-0.44
X-9.455 Y-9.467 Z-0.1 I0.223 J1.407
X-9.48 I-0.013 F1000
X-9.455 I0.013
G1 X-9.453 Y-9.445
X-9.447 Y-9.424
X-9.445 Y-9.401
X-9.455 Y-9.38
X-9.467 Y-9.366
X-9.487 Y-9.355
X-9.51 Y-9.356
X-9.528 Y-9.37
X-9.535 Y-9.392
Y-9.471
X-9.53 Y-9.496
X-9.516 Y-9.516
X-9.495 Y-9.53
X-9.471 Y-9.535
X-9.41
X-9.387 Y-9.528
X-9.372 Y-9.51
X-9.369 Y-9.486
X-9.379 Y-9.465
X-9.455 Y-9.38
X-9.463 Y-9.363
X-9.46 Y-9.345
X-9.457 Y-9.327
X-9.465 Y-9.31
X-9.527 Y-9.241
X-9.541 Y-9.233
X-9.557 Y-9.234
X-9.569 Y-9.244
X-9.574 Y-9.259
Y-9.514
X-9.57 Y-9.537
X-9.556 Y-9.557
X-9.537 Y-9.57
X-9.514 Y-9.574
X-9.294
X-9.278 Y-9.57
X-9.267 Y-9.557
X-9.264 Y-9.54
X-9.272 Y-9.525
X-9.465 Y-9.31
X-9.474 Y-9.29
X-9.471 Y-9.268
X-9.468 Y-9.246
X-9.477 Y-9.226
X-9.553 Y-9.141
X-9.573 Y-9.13
X-9.596 Y-9.131
X-9.614 Y-9.145
X-9.621 Y-9.167
Y-9.534
X-9.614 Y-9.568
X-9.596 Y-9.596
X-9.567 Y-9.615
X-9.534 Y-9.621
X-9.216
X-9.193 Y-9.614
X-9.178 Y-9.596
X-9.175 Y-9.573
X-9.185 Y-9.551
X-9.477 Y-9.226
X-9.485 Y-9.21
X-9.482 Y-9.192
X-9.479 Y-9.174
X-9.487 Y-9.157
X-9.613 Y-9.016
X-9.627 Y-9.008
X-9.643 Y-9.009
X-9.656 Y-9.019
X-9.66 Y-9.034
Y-9.6
X-9.656 Y-9.623
X-9.643 Y-9.643
X-9.623 Y-9.656
X-9.6 Y-9.661
X-9.094
X-9.079 Y-9.656
X-9.068 Y-9.643
X-9.066 Y-9.627
X-9.074 Y-9.612
G2 X-9.346 Y-9.316 I6.105 J5.895
G1 X-9.487 Y-9.157
X-9.496 Y-9.137
X-9.492 Y-9.116
X-9.489 Y-9.095
X-9.498 Y-9.075
X-9.639 Y-8.916
X-9.659 Y-8.905
X-9.682 Y-8.906
X-9.7 Y-8.92
X-9.707 Y-8.942
Y-9.621
X-9.701 Y-9.654
X-9.682 Y-9.682
X-9.654 Y-9.701
X-9.62 Y-9.707
X-9.011
X-8.988 Y-9.701
X-8.973 Y-9.682
X-8.971 Y-9.659
X-8.982 Y-9.639
G2 X-9.316 Y-9.282 I4.949 J4.966
G3 X-9.498 Y-9.075 I-26.032 J-22.713
G1 X-9.505 Y-9.059
X-9.503 Y-9.042
X-9.5 Y-9.025
X-9.507 Y-9.009
X-9.699 Y-8.791
X-9.713 Y-8.782
X-9.729 Y-8.784
X-9.742 Y-8.793
X-9.747 Y-8.809
Y-9.686
X-9.742 Y-9.709
X-9.729 Y-9.729
X-9.709 Y-9.742
X-9.686 Y-9.747
X-8.882
X-8.866 Y-9.742
X-8.856 Y-9.729
X-8.855 Y-9.713
X-8.863 Y-9.699
X-9.124 Y-9.444
X-9.507 Y-9.009
X-9.516 Y-8.989
X-9.512 Y-8.968
X-9.509 Y-8.946
X-9.518 Y-8.926
G3 X-9.726 Y-8.691 I-16.687 J-14.559
G1 X-9.745 Y-8.679
X-9.768 Y-8.681
X-9.787 Y-8.695
X-9.793 Y-8.717
Y-9.707
X-9.787 Y-9.74
X-9.768 Y-9.768
X-9.74 Y-9.787
X-9.707 Y-9.794
X-8.79
X-8.768 Y-9.787
X-8.754 Y-9.769
X-8.753 Y-9.746
X-8.765 Y-9.726
X-8.933 Y-9.575
G2 X-9.335 Y-9.138 I5.251 J5.245
G3 X-9.518 Y-8.926 I-16.87 J-14.347
G1 X-9.525 Y-8.91
X-9.522 Y-8.893
X-9.519 Y-8.875
X-9.526 Y-8.859
G3 X-9.786 Y-8.566 I-19.952 J-17.386
G1 X-9.8 Y-8.558
X-9.815 Y-8.559
X-9.828 Y-8.568
X-9.833 Y-8.583
Y-9.773
X-9.828 Y-9.796
X-9.815 Y-9.815
X-9.796 Y-9.828
X-9.773 Y-9.833
X-8.652
X-8.637 Y-9.828
X-8.628 Y-9.816
X-8.627 Y-9.8
X-8.635 Y-9.787
X-8.855 Y-9.594
G2 X-9.329 Y-9.088 I5.045 J5.205
G3 X-9.526 Y-8.859 I-20.15 J-17.157
G1 X-9.535 Y-8.839
X-9.532 Y-8.818
X-9.528 Y-8.796
X-9.537 Y-8.777
G3 X-9.813 Y-8.467 I-31.197 J-27.449
G1 X-9.832 Y-8.455
X-9.854 Y-8.457
X-9.872 Y-8.471
X-9.879 Y-8.492
Y-9.794
X-9.872 Y-9.827
X-9.854 Y-9.854
X-9.826 Y-9.872
X-9.794 Y-9.879
X-8.552
X-8.531 Y-9.872
X-8.518 Y-9.855
X-8.517 Y-9.833
X-8.529 Y-9.814
G2 X-9.198 Y-9.167 I3.147 J3.922
G3 X-9.537 Y-8.777 I-31.536 J-27.059
G1 X-9.545 Y-8.761
X-9.542 Y-8.743
X-9.539 Y-8.726
X-9.546 Y-8.71
G3 X-9.872 Y-8.343 I-34.127 J-29.977
G1 X-9.885 Y-8.335
X-9.9 Y-8.336
X-9.913 Y-8.346
X-9.917 Y-8.36
Y-9.86
X-9.909 Y-9.888
X-9.888 Y-9.909
X-9.859 Y-9.917
X-8.404
X-8.39 Y-9.913
X-8.381 Y-9.901
Y-9.886
X-8.389 Y-9.874
G2 X-9.169 Y-9.145 I2.876 J3.858
G3 X-9.546 Y-8.71 I-34.504 J-29.542
G1 X-9.555 Y-8.691
X-9.551 Y-8.671
X-9.548 Y-8.65
X-9.557 Y-8.631
G3 X-9.898 Y-8.246 I-32.272 J-28.279
G1 X-9.917 Y-8.235
X-9.939 Y-8.236
X-9.956 Y-8.25
X-9.962 Y-8.271
Y-9.88
X-9.956 Y-9.912
X-9.938 Y-9.938
X-9.912 Y-9.956
X-9.88 Y-9.963
X-8.296 Y-9.962
X-8.276 Y-9.956
X-8.263 Y-9.939
Y-9.918
X-8.276 Y-9.901
G2 X-8.637 Y-9.62 I4.084 J5.612
X-8.966 Y-9.302 I2.034 J2.44
X-9.432 Y-8.774 I31.93 J28.665
G1 X-9.557 Y-8.631
X-9.564 Y-8.615
X-9.561 Y-8.597
X-9.558 Y-8.579
X-9.566 Y-8.562
G3 X-9.956 Y-8.125 I-54.248 J-47.913
G1 X-9.969 Y-8.117
X-9.984 Y-8.118
X-9.996 Y-8.127
X-10.001 Y-8.142
Y-9.943
X-9.993 Y-9.972
X-9.972 Y-9.993
X-9.943 Y-10.001
X-8.146
X-8.132 Y-9.996
X-8.124 Y-9.984
Y-9.97
X-8.132 Y-9.958
X-8.306 Y-9.839
G2 X-8.935 Y-9.274 I2.415 J3.319
X-9.445 Y-8.699 I53.859 J48.351
G1 X-9.566 Y-8.562
X-9.575 Y-8.543
X-9.571 Y-8.523
X-9.568 Y-8.503
X-9.576 Y-8.484
G3 X-9.982 Y-8.027 I-43.029 J-37.807
G1 X-10.001 Y-8.016
X-10.023 Y-8.017
X-10.04 Y-8.031
X-10.046 Y-8.052
Y-9.964
X-10.04 Y-9.996
X-10.022 Y-10.022
X-9.996 Y-10.04
X-9.964 Y-10.046
X-8.038
X-8.018 Y-10.04
X-8.006 Y-10.023
Y-10.002
X-8.018 Y-9.985
X-8.281 Y-9.805
G2 X-8.904 Y-9.246 I2.391 J3.285
X-9.443 Y-8.637 I42.623 J38.264
G1 X-9.576 Y-8.484
X-9.584 Y-8.468
X-9.581 Y-8.45
X-9.578 Y-8.432
X-9.586 Y-8.416
X-10.04 Y-7.906
X-10.053 Y-7.898
X-10.068 Y-7.899
X-10.08 Y-7.908
X-10.085 Y-7.923
Y-10.027
X-10.077 Y-10.056
X-10.056 Y-10.077
X-10.027 Y-10.085
X-7.889
X-7.875 Y-10.08
X-7.866 Y-10.068
Y-10.053
X-7.875 Y-10.041
X-8.066 Y-9.907
X-8.258 Y-9.773
G2 X-8.872 Y-9.218 I2.323 J3.192
G1 X-9.586 Y-8.416
X-9.595 Y-8.397
X-9.591 Y-8.377
X-9.588 Y-8.356
X-9.597 Y-8.338
X-10.066 Y-7.808
X-10.085 Y-7.797
X-10.106 Y-7.798
X-10.124 Y-7.812
X-10.13 Y-7.833
Y-10.048
X-10.124 Y-10.08
X-10.106 Y-10.106
X-10.079 Y-10.124
X-10.048 Y-10.13
X-7.78
X-7.76 Y-10.124
X-7.748 Y-10.107
Y-10.086
X-7.76 Y-10.069
X-8.315 Y-9.665
G2 X-8.841 Y-9.19 I1.989 J2.734
G1 X-9.597 Y-8.338
X-9.603 Y-8.324
X-9.601 Y-8.31
X-9.598 Y-8.295
X-9.605 Y-8.282
G2 X-10.127 Y-7.68 I19.436 J17.391
G1 X-10.144 Y-7.671
X-10.161 Y-7.678
X-10.169 Y-7.695
Y-10.111
X-10.161 Y-10.14
X-10.14 Y-10.161
X-10.111 Y-10.169
X-7.631
X-7.617 Y-10.164
X-7.608 Y-10.152
Y-10.137
X-7.617 Y-10.125
X-8.266 Y-9.653
G2 X-8.81 Y-9.162 I2.056 J2.825
G3 X-9.474 Y-8.426 I-126.345 J-113.424
G1 X-9.605 Y-8.282
X-9.612 Y-8.265
X-9.61 Y-8.248
X-9.607 Y-8.23
X-9.614 Y-8.214
G2 X-10.154 Y-7.575 I11.143 J9.965
G1 X-10.171 Y-7.564
X-10.191
X-10.208 Y-7.576
X-10.214 Y-7.596
Y-10.132
X-10.208 Y-10.163
X-10.19 Y-10.19
X-10.163 Y-10.208
X-10.132 Y-10.214
X-7.523
X-7.503 Y-10.207
X-7.49 Y-10.19
Y-10.169
X-7.503 Y-10.152
G3 X-8.167 Y-9.677 I-29.686 J-40.792
G2 X-8.779 Y-9.134 I2.082 J2.961
G3 X-9.478 Y-8.364 I-66.235 J-59.461
G1 X-9.614 Y-8.214
X-9.624 Y-8.193
X-9.621 Y-8.17
X-9.617 Y-8.147
X-9.627 Y-8.126
X-9.989 Y-7.723
X-10.05 Y-7.652
X-10.108 Y-7.577
X-10.21 Y-7.439
X-10.222 Y-7.431
X-10.236
X-10.248 Y-7.44
X-10.252 Y-7.453
Y-10.195
X-10.245 Y-10.224
X-10.223 Y-10.245
X-10.194 Y-10.253
X-7.373
X-7.359 Y-10.248
X-7.351 Y-10.236
Y-10.221
X-7.359 Y-10.209
G3 X-8.082 Y-9.694 I-25.547 J-35.104
G2 X-8.748 Y-9.106 I2.206 J3.166
G1 X-9.627 Y-8.126
X-9.635 Y-8.108
X-9.632 Y-8.089
X-9.629 Y-8.069
X-9.638 Y-8.052
X-9.958 Y-7.695
X-10.033 Y-7.606
X-10.103 Y-7.514
X-10.237 Y-7.324
X-10.253 Y-7.311
X-10.274
X-10.291 Y-7.323
X-10.298 Y-7.343
Y-10.216
X-10.291 Y-10.247
X-10.274 Y-10.274
X-10.247 Y-10.292
X-10.216 Y-10.298
X-7.265
X-7.245 Y-10.291
X-7.233 Y-10.274
Y-10.253
X-7.245 Y-10.236
G3 X-8.011 Y-9.696 I-18.689 J-25.681
G2 X-8.716 Y-9.078 I2.213 J3.238
G1 X-9.638 Y-8.052
X-9.646 Y-8.034
X-9.643 Y-8.015
X-9.64 Y-7.995
X-9.649 Y-7.978
X-9.927 Y-7.667
G2 X-10.121 Y-7.426 I2.113 J1.897
X-10.294 Y-7.17 I4.292 J3.081
G1 X-10.305 Y-7.161
X-10.319 Y-7.16
X-10.331 Y-7.169
X-10.335 Y-7.182
Y-10.28
X-10.328 Y-10.308
X-10.308 Y-10.328
X-10.28 Y-10.336
X-7.115 Y-10.335
X-7.098 Y-10.328
X-7.092 Y-10.31
X-7.102 Y-10.294
G3 X-7.606 Y-9.932 I-29.022 J-39.88
G2 X-8.11 Y-9.57 I28.518 J40.242
X-8.686 Y-9.05 I2.176 J2.989
G1 X-9.649 Y-7.978
X-9.657 Y-7.96
X-9.654 Y-7.941
X-9.651 Y-7.922
X-9.659 Y-7.905
X-9.897 Y-7.64
G2 X-10.132 Y-7.339 I2.131 J1.913
X-10.335 Y-7.015 I4.163 J2.836
G1 X-10.347 Y-7.005
X-10.362 Y-7.004
X-10.375 Y-7.013
X-10.38 Y-7.027
Y-10.301
X-10.374 Y-10.331
X-10.357 Y-10.357
X-10.331 Y-10.374
X-10.301 Y-10.38
X-7.009
X-6.99 Y-10.373
X-6.978 Y-10.357
Y-10.337
X-6.99 Y-10.321
X-8.086 Y-9.537
G2 X-8.655 Y-9.023 I2.151 J2.956
G1 X-9.659 Y-7.905
X-9.667 Y-7.887
X-9.664 Y-7.868
X-9.661 Y-7.849
X-9.67 Y-7.832
X-9.866 Y-7.613
G2 X-10.104 Y-7.316 I2.507 J2.251
X-10.309 Y-6.996 I3.175 J2.261
G1 X-10.344 Y-6.931
X-10.378 Y-6.866
X-10.393 Y-6.856
X-10.409 Y-6.861
X-10.417 Y-6.876
Y-10.363
X-10.41 Y-10.39
X-10.39 Y-10.41
X-10.363 Y-10.417
X-6.863
X-6.846 Y-10.409
X-6.841 Y-10.392
X-6.85 Y-10.377
X-8.062 Y-9.504
G2 X-8.625 Y-8.996 I2.128 J2.923
G1 X-9.67 Y-7.832
X-9.678 Y-7.815
X-9.675 Y-7.796
X-9.672 Y-7.777
X-9.68 Y-7.759
X-9.836 Y-7.586
G2 X-10.071 Y-7.292 I2.507 J2.25
X-10.274 Y-6.976 I3.097 J2.211
G1 X-10.339 Y-6.854
X-10.404 Y-6.732
X-10.419 Y-6.719
X-10.438 Y-6.718
X-10.455 Y-6.729
X-10.461 Y-6.747
Y-10.383
X-10.455 Y-10.413
X-10.438 Y-10.438
X-10.412 Y-10.455
X-10.382 Y-10.461
X-6.759
X-6.74 Y-10.455
X-6.728 Y-10.439
Y-10.418
X-6.74 Y-10.402
X-8.038 Y-9.471
G2 X-8.595 Y-8.969 I2.104 J2.891
G1 X-9.68 Y-7.759
X-9.688 Y-7.742
X-9.685 Y-7.723
X-9.682 Y-7.704
X-9.691 Y-7.687
X-9.806 Y-7.558
G2 X-10.241 Y-6.957 I2.63 J2.361
G1 X-10.35 Y-6.759
X-10.46 Y-6.561
X-10.474 Y-6.551
X-10.491 Y-6.556
X-10.498 Y-6.571
Y-10.445
X-10.491 Y-10.471
X-10.471 Y-10.491
X-10.445 Y-10.498
X-6.613
X-6.596 Y-10.491
X-6.591 Y-10.474
X-6.6 Y-10.458
X-8.014 Y-9.438
G2 X-8.564 Y-8.941 I2.08 J2.858
G1 X-9.691 Y-7.687
X-9.699 Y-7.67
X-9.696 Y-7.651
X-9.693 Y-7.632
X-9.701 Y-7.614
X-9.776 Y-7.531
G2 X-10.144 Y-7.022 I2.226 J1.999
G1 X-10.486 Y-6.427
X-10.5 Y-6.414
X-10.52 Y-6.413
X-10.536 Y-6.424
X-10.542 Y-6.442
Y-10.464
X-10.536 Y-10.494
X-10.519 Y-10.519
X-10.494 Y-10.536
X-10.464 Y-10.542
X-6.509
X-6.49 Y-10.536
X-6.478 Y-10.52
Y-10.5
X-6.49 Y-10.484
X-7.99 Y-9.405
G2 X-8.534 Y-8.914 I2.056 J2.825
G1 X-9.701 Y-7.614
X-9.709 Y-7.597
X-9.706 Y-7.578
X-9.703 Y-7.559
X-9.712 Y-7.542
X-9.745 Y-7.504
G2 X-10.176 Y-6.901 I2.48 J2.226
G3 X-10.541 Y-6.256 I-52.078 J-29.045
G1 X-10.555 Y-6.246
X-10.572 Y-6.251
X-10.579 Y-6.267
Y-10.526
X-10.572 Y-10.553
X-10.553 Y-10.572
X-10.526 Y-10.579
X-6.355
X-6.339 Y-10.572
X-6.334 Y-10.555
X-6.343 Y-10.54
X-6.407 Y-10.5
X-6.469 Y-10.458
X-7.966 Y-9.372
G2 X-8.504 Y-8.887 I2.032 J2.792
G1 X-9.712 Y-7.542
X-9.72 Y-7.525
X-9.717 Y-7.506
X-9.714 Y-7.487
X-9.722 Y-7.469
G2 X-10.177 Y-6.822 I2.546 J2.272
G3 X-10.567 Y-6.122 I-28.22 J-15.277
G1 X-10.582 Y-6.109
X-10.601 Y-6.108
X-10.617 Y-6.119
X-10.624 Y-6.137
Y-10.545
X-10.618 Y-10.575
X-10.601 Y-10.601
X-10.575 Y-10.618
X-10.545 Y-10.624
X-6.236
X-6.217 Y-10.617
X-6.206 Y-10.601
X-6.207 Y-10.582
X-6.219 Y-10.567
G2 X-7.093 Y-9.97 I5.704 J9.286
G3 X-7.942 Y-9.339 I-33.908 J-44.796
G2 X-8.474 Y-8.86 I2.008 J2.759
G1 X-9.715 Y-7.477
X-9.722 Y-7.469
X-9.73 Y-7.452
X-9.727 Y-7.433
X-9.724 Y-7.414
X-9.732 Y-7.396
G2 X-10.193 Y-6.725 I2.798 J2.416
G3 X-10.622 Y-5.951 I-26.392 J-14.132
G1 X-10.636 Y-5.941
X-10.653 Y-5.946
X-10.661 Y-5.962
Y-10.607
X-10.653 Y-10.634
X-10.634 Y-10.654
X-10.607 Y-10.661
X-6.058
X-6.043 Y-10.653
X-6.038 Y-10.637
X-6.048 Y-10.623
X-6.24 Y-10.515
X-6.423 Y-10.395
X-7.918 Y-9.307
G2 X-8.443 Y-8.833 I1.984 J2.726
G1 X-9.685 Y-7.45
X-9.732 Y-7.396
X-9.74 Y-7.379
X-9.736 Y-7.36
X-9.733 Y-7.342
X-9.741 Y-7.324
G2 X-10.195 Y-6.646 I2.918 J2.444
G3 X-10.65 Y-5.817 I-21.642 J-11.335
G1 X-10.664 Y-5.804
X-10.682 Y-5.803
X-10.698 Y-5.813
X-10.704 Y-5.831
Y-10.628
X-10.698 Y-10.657
X-10.682 Y-10.682
X-10.657 Y-10.698
X-10.628 Y-10.704
X-5.911
X-5.894 Y-10.698
X-5.884 Y-10.683
X-5.886 Y-10.664
X-5.899 Y-10.651
G2 X-6.155 Y-10.518 I2.534 J5.178
X-6.4 Y-10.362 I1.132 J2.046
G1 X-7.895 Y-9.274
G2 X-8.413 Y-8.806 I1.96 J2.694
G1 X-9.655 Y-7.423
X-9.741 Y-7.324
X-9.748 Y-7.307
X-9.744 Y-7.288
X-9.741 Y-7.27
X-9.748 Y-7.252
G2 X-10.031 Y-6.836 I2.572 J2.055
X-10.367 Y-6.243 I57.672 J33.11
G3 X-10.704 Y-5.649 I-58.009 J-32.517
G1 X-10.717 Y-5.64
X-10.733 Y-5.644
X-10.74 Y-5.659
Y-10.69
X-10.733 Y-10.715
X-10.715 Y-10.733
X-10.69 Y-10.74
X-5.701
X-5.687 Y-10.733
X-5.683 Y-10.718
X-5.693 Y-10.706
X-5.737 Y-10.688
X-5.78 Y-10.67
G2 X-6.087 Y-10.516 I1.513 J3.387
X-6.376 Y-10.33 I1.45 J2.576
G1 X-7.871 Y-9.242
G2 X-8.384 Y-8.779 I1.937 J2.662
G1 X-9.625 Y-7.396
X-9.748 Y-7.252
X-9.755 Y-7.235
X-9.751 Y-7.216
X-9.747 Y-7.198
X-9.753 Y-7.181
G2 X-9.996 Y-6.817 I2.578 J1.984
X-10.363 Y-6.168 I45.828 J26.311
G3 X-10.729 Y-5.519 I-46.195 J-25.662
G1 X-10.743 Y-5.507
X-10.762 Y-5.506
X-10.777 Y-5.516
X-10.783 Y-5.533
Y-10.709
X-10.777 Y-10.737
X-10.761 Y-10.761
X-10.737 Y-10.777
X-10.708 Y-10.783
X-5.541
X-5.524 Y-10.777
X-5.515 Y-10.762
X-5.517 Y-10.744
X-5.53 Y-10.732
X-5.764 Y-10.636
G2 X-6.068 Y-10.482 I1.43 J3.202
X-6.353 Y-10.298 I1.498 J2.634
G1 X-7.848 Y-9.21
G2 X-8.355 Y-8.753 I1.914 J2.63
G1 X-9.596 Y-7.37
X-9.677 Y-7.277
X-9.753 Y-7.181
X-9.76 Y-7.163
X-9.756 Y-7.145
X-9.751 Y-7.127
X-9.758 Y-7.11
G2 X-9.962 Y-6.797 I2.582 J1.912
G1 X-10.783 Y-5.353
X-10.796 Y-5.344
X-10.812 Y-5.348
X-10.819 Y-5.363
Y-10.769
X-10.812 Y-10.794
X-10.794 Y-10.812
X-10.769 Y-10.819
X-5.33
X-5.316 Y-10.812
X-5.313 Y-10.797
X-5.323 Y-10.785
X-5.749 Y-10.602
G2 X-6.33 Y-10.266 I1.31 J2.934
G1 X-7.825 Y-9.178
G2 X-8.325 Y-8.727 I1.891 J2.598
G1 X-9.567 Y-7.344
G2 X-9.758 Y-7.11 I2.391 J2.146
G1 X-9.764 Y-7.092
X-9.76 Y-7.074
X-9.755 Y-7.056
X-9.761 Y-7.038
G2 X-9.928 Y-6.777 I2.585 J1.841
X-10.368 Y-6 I65.837 J37.798
G3 X-10.808 Y-5.223 I-66.277 J-37.021
G1 X-10.822 Y-5.211
X-10.841 Y-5.21
X-10.856 Y-5.22
X-10.862 Y-5.237
Y-10.787
X-10.856 Y-10.816
X-10.84 Y-10.84
X-10.816 Y-10.856
X-10.787 Y-10.862
X-5.171
X-5.154 Y-10.856
X-5.145 Y-10.841
X-5.147 Y-10.823
X-5.16 Y-10.811
G3 X-5.748 Y-10.552 I-19.894 J-44.545
G2 X-6.307 Y-10.234 I1.146 J2.66
G1 X-7.802 Y-9.146
G2 X-8.296 Y-8.7 I1.867 J2.566
G1 X-9.537 Y-7.317
G2 X-9.761 Y-7.038 I2.361 J2.12
G1 X-9.767 Y-7.02
X-9.762 Y-7.002
X-9.757 Y-6.985
X-9.763 Y-6.967
X-9.83 Y-6.864
X-9.894 Y-6.758
G3 X-10.39 Y-5.903 I-93.684 J-53.786
G2 X-10.87 Y-5.04 I18.571 J10.889
G1 X-10.88 Y-5.032
X-10.892 Y-5.035
X-10.898 Y-5.047
Y-10.848
X-10.891 Y-10.873
X-10.873 Y-10.891
X-10.848 Y-10.898
X-4.96
X-4.946 Y-10.891
X-4.943 Y-10.876
X-4.953 Y-10.864
G3 X-5.635 Y-10.568 I-13.747 J-30.782
G2 X-6.283 Y-10.202 I1.25 J2.973
G1 X-7.778 Y-9.114
G2 X-8.266 Y-8.674 I1.844 J2.534
G1 X-9.508 Y-7.291
G2 X-9.763 Y-6.967 I2.332 J2.094
G1 X-9.768 Y-6.949
X-9.763 Y-6.931
X-9.758 Y-6.913
X-9.763 Y-6.895
X-9.86 Y-6.738
X-10.784 Y-5.123
X-10.843 Y-5.006
X-10.898 Y-4.886
X-10.908 Y-4.875
X-10.923 Y-4.874
X-10.936 Y-4.882
X-10.941 Y-4.896
Y-10.866
X-10.935 Y-10.895
X-10.919 Y-10.919
X-10.895 Y-10.935
X-10.866 Y-10.941
X-4.801
X-4.784 Y-10.935
X-4.774 Y-10.92
X-4.777 Y-10.902
X-4.79 Y-10.89
G3 X-5.544 Y-10.568 I-9.544 J-21.371
G2 X-6.26 Y-10.171 I1.264 J3.119
G1 X-7.755 Y-9.082
G2 X-8.237 Y-8.648 I1.821 J2.502
G1 X-9.479 Y-7.265
G2 X-9.763 Y-6.895 I2.303 J2.067
G1 X-9.768 Y-6.877
X-9.763 Y-6.86
X-9.757 Y-6.842
X-9.762 Y-6.824
X-9.825 Y-6.718
X-10.752 Y-5.105
X-10.808 Y-5.001
X-10.858 Y-4.895
X-10.948 Y-4.677
X-10.958 Y-4.668
X-10.971 Y-4.67
X-10.977 Y-4.682
Y-10.927
X-10.97 Y-10.952
X-10.952 Y-10.97
X-10.927 Y-10.977
X-4.59
X-4.576 Y-10.97
X-4.573 Y-10.955
X-4.583 Y-10.943
G3 X-5.134 Y-10.7 I-21.102 J-47.249
G2 X-5.685 Y-10.458 I20.551 J47.492
X-6.237 Y-10.139 I1.246 J2.79
G1 X-7.732 Y-9.051
G2 X-8.208 Y-8.621 I1.798 J2.47
G1 X-9.449 Y-7.238
G2 X-9.762 Y-6.824 I2.273 J2.041
G1 X-9.767 Y-6.806
X-9.761 Y-6.789
X-9.755 Y-6.772
X-9.76 Y-6.754
X-9.792 Y-6.699
X-10.718 Y-5.086
G2 X-10.861 Y-4.789 I1.985 J1.139
X-10.972 Y-4.48 I4.787 J1.897
G1 X-10.982 Y-4.467
X-10.998 Y-4.464
X-11.013 Y-4.472
X-11.018 Y-4.487
Y-10.949
X-11.013 Y-10.975
X-10.998 Y-10.998
X-10.975 Y-11.013
X-10.949 Y-11.018
X-4.429
X-4.413 Y-11.013
X-4.405 Y-10.998
X-4.407 Y-10.982
X-4.419 Y-10.97
X-5.669 Y-10.423
G2 X-6.214 Y-10.107 I1.23 J2.754
G1 X-7.709 Y-9.019
G2 X-8.179 Y-8.595 I1.775 J2.439
G1 X-9.421 Y-7.212
G2 X-9.76 Y-6.754 I2.245 J2.015
G1 X-9.764 Y-6.736
X-9.758 Y-6.719
X-9.752 Y-6.702
X-9.756 Y-6.685
X-9.759 Y-6.68
X-10.685 Y-5.067
G2 X-10.935 Y-4.502 I2.583 J1.483
G1 X-10.979 Y-4.357
X-11.023 Y-4.212
X-11.033 Y-4.202
X-11.047 Y-4.204
X-11.053 Y-4.217
Y-11.007
X-11.047 Y-11.03
X-11.03 Y-11.047
X-11.007 Y-11.053
X-4.226
X-4.213 Y-11.047
X-4.21 Y-11.032
X-4.219 Y-11.021
X-5.654 Y-10.388
G2 X-6.192 Y-10.076 I1.214 J2.719
G1 X-7.687 Y-8.988
G2 X-8.151 Y-8.57 I1.752 J2.408
G1 X-9.392 Y-7.187
G2 X-9.756 Y-6.685 I2.216 J1.99
G1 X-9.76 Y-6.667
X-9.754 Y-6.65
X-9.747 Y-6.634
X-9.752 Y-6.616
X-10.652 Y-5.048
G2 X-10.878 Y-4.532 I2.257 J1.296
G3 X-11.049 Y-3.997 I-61.16 J-19.232
G1 X-11.059 Y-3.984
X-11.075 Y-3.981
X-11.089 Y-3.989
X-11.095 Y-4.004
Y-11.025
X-11.089 Y-11.052
X-11.074 Y-11.074
X-11.052 Y-11.089
X-11.025 Y-11.095
X-4.071
X-4.055 Y-11.089
X-4.046 Y-11.075
X-4.048 Y-11.058
X-4.061 Y-11.047
X-5.638 Y-10.353
G2 X-6.169 Y-10.046 I1.199 J2.685
G1 X-7.664 Y-8.958
G2 X-8.122 Y-8.544 I1.73 J2.377
G1 X-9.364 Y-7.161
G2 X-9.726 Y-6.661 I2.188 J1.964
G1 X-9.752 Y-6.616
X-9.756 Y-6.599
X-9.749 Y-6.582
X-9.743 Y-6.565
X-9.747 Y-6.547
X-10.619 Y-5.029
G2 X-10.893 Y-4.391 I2.611 J1.499
G3 X-11.099 Y-3.729 I-28.596 J-8.539
G1 X-11.109 Y-3.719
X-11.123 Y-3.721
X-11.13 Y-3.733
Y-11.083
X-11.123 Y-11.106
X-11.106 Y-11.123
X-11.083 Y-11.13
X-3.864
X-3.851 Y-11.123
X-3.848 Y-11.109
X-3.858 Y-11.098
X-5.623 Y-10.318
G2 X-6.147 Y-10.015 I1.183 J2.65
G1 X-7.642 Y-8.927
G2 X-8.094 Y-8.519 I1.708 J2.346
G1 X-9.335 Y-7.136
G2 X-9.693 Y-6.642 I2.159 J1.939
G1 X-9.747 Y-6.547
X-9.751 Y-6.53
X-9.745 Y-6.513
X-9.738 Y-6.496
X-9.742 Y-6.479
X-10.586 Y-5.01
G2 X-10.894 Y-4.275 I2.808 J1.612
G3 X-11.125 Y-3.513 I-19.766 J-5.57
G1 X-11.135 Y-3.501
X-11.151 Y-3.497
X-11.165 Y-3.505
X-11.171 Y-3.521
Y-11.101
X-11.166 Y-11.128
X-11.151 Y-11.151
X-11.128 Y-11.166
X-11.101 Y-11.171
X-3.678
X-3.663 Y-11.165
X-3.655 Y-11.151
X-3.658 Y-11.135
X-3.67 Y-11.125
X-3.91 Y-11.039
X-5.607 Y-10.283
G2 X-6.124 Y-9.984 I1.168 J2.615
G1 X-7.619 Y-8.896
G2 X-8.065 Y-8.493 I1.685 J2.315
G1 X-9.307 Y-7.11
G2 X-9.659 Y-6.623 I2.131 J1.913
G1 X-9.742 Y-6.479
X-9.746 Y-6.461
X-9.74 Y-6.445
X-9.734 Y-6.428
X-9.738 Y-6.411
X-10.553 Y-4.991
G2 X-10.791 Y-4.455 I2.451 J1.407
G1 X-11.177 Y-3.245
X-11.186 Y-3.236
X-11.199 Y-3.238
X-11.205 Y-3.249
Y-11.162
X-11.199 Y-11.183
X-11.183 Y-11.199
X-11.162 Y-11.205
X-3.362
X-3.35 Y-11.199
X-3.349 Y-11.186
X-3.359 Y-11.178
G2 X-3.631 Y-11.106 I0.785 J3.508
X-3.896 Y-11.006 I0.684 J2.222
G1 X-5.592 Y-10.249
G2 X-6.102 Y-9.953 I1.152 J2.58
G1 X-7.597 Y-8.865
G2 X-8.037 Y-8.468 I1.663 J2.285
G1 X-9.279 Y-7.085
G2 X-9.627 Y-6.604 I2.103 J1.888
G1 X-9.738 Y-6.411
X-9.742 Y-6.394
X-9.736 Y-6.378
X-9.729 Y-6.362
X-9.733 Y-6.345
X-10.521 Y-4.972
G2 X-10.756 Y-4.444 I2.419 J1.389
X-10.979 Y-3.74 I56.88 J18.436
G3 X-11.202 Y-3.036 I-57.103 J-17.732
G1 X-11.212 Y-3.024
X-11.226 Y-3.021
X-11.24 Y-3.028
X-11.245 Y-3.043
Y-11.18
X-11.24 Y-11.205
X-11.226 Y-11.226
X-11.205 Y-11.24
X-11.18 Y-11.245
X-3.048
X-3.034 Y-11.24
X-3.027 Y-11.227
X-3.031 Y-11.212
X-3.043 Y-11.204
X-3.324 Y-11.154
G2 X-3.88 Y-10.973 I0.583 J2.737
G1 X-5.577 Y-10.215
G2 X-6.08 Y-9.924 I1.137 J2.547
G1 X-7.576 Y-8.836
G2 X-8.01 Y-8.444 I1.641 J2.255
G1 X-9.251 Y-7.061
G2 X-9.595 Y-6.586 I2.075 J1.863
G1 X-9.733 Y-6.345
X-9.737 Y-6.328
X-9.731 Y-6.311
X-9.725 Y-6.295
X-9.729 Y-6.278
X-10.489 Y-4.954
G2 X-10.72 Y-4.432 I2.387 J1.37
G1 X-11.25 Y-2.778
X-11.26 Y-2.769
X-11.273 Y-2.771
X-11.279 Y-2.782
Y-11.236
X-11.273 Y-11.257
X-11.257 Y-11.273
X-11.235 Y-11.279
X-2.662
X-2.65 Y-11.273
X-2.649 Y-11.26
X-2.659 Y-11.252
G3 X-3.27 Y-11.127 I-7.345 J-34.465
G2 X-3.865 Y-10.939 I0.525 J2.695
G1 X-5.562 Y-10.181
G2 X-6.059 Y-9.894 I1.122 J2.513
G1 X-7.554 Y-8.806
G2 X-7.982 Y-8.419 I1.619 J2.225
G1 X-9.224 Y-7.036
G2 X-9.563 Y-6.568 I2.048 J1.839
G1 X-9.729 Y-6.278
X-9.733 Y-6.261
X-9.727 Y-6.245
X-9.721 Y-6.229
X-9.724 Y-6.212
X-10.457 Y-4.936
G2 X-10.685 Y-4.421 I2.355 J1.352
G3 X-10.994 Y-3.487 I-80.931 J-26.231
G2 X-11.28 Y-2.546 I15.634 J5.268
G1 X-11.288 Y-2.535
X-11.302 Y-2.532
X-11.314 Y-2.538
X-11.319 Y-2.551
Y-11.254
X-11.314 Y-11.279
X-11.3 Y-11.3
X-11.279 Y-11.314
X-11.254 Y-11.319
X-2.347
X-2.333 Y-11.313
X-2.327 Y-11.3
X-2.331 Y-11.286
X-2.343 Y-11.278
G3 X-3.106 Y-11.131 I-4.06 J-19.051
G2 X-3.85 Y-10.905 I0.528 J3.073
G1 X-5.546 Y-10.148
G2 X-6.037 Y-9.864 I1.107 J2.479
G1 X-7.532 Y-8.776
G2 X-7.955 Y-8.394 I1.598 J2.195
G1 X-9.196 Y-7.011
G2 X-9.531 Y-6.549 I2.021 J1.814
G1 X-9.724 Y-6.212
X-9.728 Y-6.195
X-9.722 Y-6.179
X-9.716 Y-6.163
X-9.72 Y-6.146
X-10.426 Y-4.918
G2 X-10.651 Y-4.41 I2.323 J1.334
G1 X-11.217 Y-2.662
G2 X-11.287 Y-2.39 I2.127 J0.69
X-11.328 Y-2.112 I3.333 J0.633
G1 X-11.352 Y-2.113
Y-11.312
X-11.346 Y-11.332
X-11.332 Y-11.346
X-11.312 Y-11.352
X-1.96
X-1.95 Y-11.346
X-1.948 Y-11.334
X-1.957 Y-11.327
X-3.301 Y-11.046
G2 X-3.836 Y-10.872 I0.558 J2.62
G1 X-5.532 Y-10.114
G2 X-6.016 Y-9.834 I1.092 J2.446
G1 X-7.511 Y-8.746
G2 X-7.928 Y-8.37 I1.576 J2.166
G1 X-9.169 Y-6.987
G2 X-9.499 Y-6.531 I1.993 J1.79
G1 X-9.72 Y-6.146
X-9.724 Y-6.13
X-9.718 Y-6.114
X-9.712 Y-6.099
X-9.716 Y-6.082
X-10.395 Y-4.9
G2 X-10.617 Y-4.399 I2.292 J1.316
G1 X-11.183 Y-2.651
G2 X-11.299 Y-2.075 I2.438 J0.79
G3 X-11.354 Y-1.491 I-27.956 J-2.348
G1 X-11.361 Y-1.479
X-11.373 Y-1.475
X-11.385 Y-1.48
X-11.39 Y-1.493
Y-11.33
X-11.385 Y-11.353
X-11.372 Y-11.373
X-11.353 Y-11.386
X-11.33 Y-11.39
X-1.655
X-1.642 Y-11.385
X-1.636 Y-11.373
X-1.64 Y-11.36
X-1.651 Y-11.353
X-3.294 Y-11.011
G2 X-3.821 Y-10.839 I0.551 J2.585
G1 X-5.517 Y-10.082
G2 X-5.995 Y-9.806 I1.078 J2.413
G1 X-7.49 Y-8.718
G2 X-7.901 Y-8.346 I1.555 J2.137
G1 X-9.143 Y-6.963
G2 X-9.468 Y-6.513 I1.967 J1.766
G1 X-9.716 Y-6.082
X-9.719 Y-6.067
X-9.714 Y-6.052
X-9.708 Y-6.038
X-9.712 Y-6.022
X-10.366 Y-4.883
G2 X-10.585 Y-4.388 I2.263 J1.299
G1 X-11.152 Y-2.641
G2 X-11.264 Y-2.109 I2.483 J0.805
G1 X-11.404 Y-0.746
X-11.418 Y-0.747
Y-11.394
X-11.411 Y-11.411
X-11.394 Y-11.419
X-1.212 Y-11.418
X-1.211 Y-11.404
X-1.279 Y-11.396
X-1.343 Y-11.388
X-1.41 Y-11.377
X-1.473 Y-11.365
X-3.287 Y-10.979
G2 X-3.807 Y-10.809 I0.544 J2.553
G1 X-5.504 Y-10.052
G2 X-5.975 Y-9.779 I1.064 J2.383
G1 X-7.47 Y-8.691
G2 X-7.876 Y-8.324 I1.536 J2.11
G1 X-9.118 Y-6.941
G2 X-9.439 Y-6.497 I1.942 J1.744
G1 X-9.712 Y-6.022
X-9.738 Y-5.984 Z-0.093
X-9.77 Y-5.95 Z-0.085
X-9.802 Y-5.924 Z-0.064
X-9.838 Y-5.903 Z-0.043
X-9.9 Y-5.88 Z0.024
X-9.942 Y-5.873 Z0.107
X-9.957 Y-5.872 Z0.2
G0 Z5
X-9.644 Y8.756
Z0.405
G1 X-9.637 Y8.768 Z0.313 F333.3
X-9.617 Y8.805 Z0.23
X-9.588 Y8.864 Z0.163
X-9.555 Y8.94 Z0.121
X-9.524 Y9.026 Z0.105
G3 X-12.234 Y9.907 Z0.055 I-1.355 J0.44
X-9.524 Y9.026 Z0.005 I1.355 J-0.44
X-12.234 Y9.907 Z-0.045 I-1.355 J0.44
X-9.524 Y9.026 Z-0.095 I1.355 J-0.44
X-9.454 Y9.467 Z-0.1 I-1.355 J0.44
X-9.479 I-0.013 F1000
X-9.454 I0.013
G1 X-9.45 Y9.485
X-9.439 Y9.5
X-9.433 Y9.515
X-9.439 Y9.529
X-9.453 Y9.535
X-9.47
X-9.495 Y9.53
X-9.516 Y9.516
X-9.53 Y9.495
X-9.535 Y9.47
Y9.392
X-9.528 Y9.369
X-9.51 Y9.355
X-9.486 Y9.353
X-9.466 Y9.365
X-9.377 Y9.464
X-9.367 Y9.485
X-9.37 Y9.509
X-9.386 Y9.528
X-9.409 Y9.535
X-9.453
X-9.471 Y9.54
X-9.482 Y9.554
X-9.494 Y9.569
X-9.512 Y9.574
X-9.514
X-9.537 Y9.569
X-9.556 Y9.556
X-9.569 Y9.537
X-9.574 Y9.514
Y9.257
X-9.569 Y9.242
X-9.557 Y9.232
X-9.541 Y9.231
X-9.527 Y9.239
X-9.269 Y9.526
X-9.262 Y9.54
X-9.264 Y9.557
X-9.274 Y9.569
X-9.29 Y9.574
X-9.512
X-9.531 Y9.58
X-9.543 Y9.596
X-9.552 Y9.607
X-9.566 Y9.611
X-9.58 Y9.608
X-9.602 Y9.588
X-9.616 Y9.562
X-9.621 Y9.533
Y9.167
X-9.614 Y9.145
X-9.596 Y9.131
X-9.572 Y9.129
X-9.552 Y9.141
X-9.183 Y9.55
X-9.173 Y9.572
X-9.176 Y9.596
X-9.191 Y9.614
X-9.215 Y9.621
X-9.533
X-9.557 Y9.618
X-9.58 Y9.608
X-9.601 Y9.602
X-9.622 Y9.61
X-9.638 Y9.615
X-9.654 Y9.607
X-9.66 Y9.592
Y9.033
X-9.655 Y9.018
X-9.643 Y9.008
X-9.627 Y9.007
X-9.614 Y9.015
G3 X-9.345 Y9.316 I-29.624 J26.742
G2 X-9.071 Y9.612 I7.559 J-6.686
G1 X-9.064 Y9.627
X-9.066 Y9.643
X-9.076 Y9.656
X-9.092 Y9.66
X-9.6
X-9.623 Y9.656
X-9.643 Y9.643
X-9.656 Y9.623
X-9.66 Y9.6
Y9.592
X-9.667 Y9.57
X-9.684 Y9.556
X-9.701 Y9.542
X-9.707 Y9.521
Y8.943
X-9.7 Y8.921
X-9.682 Y8.906
X-9.659 Y8.905
X-9.639 Y8.917
G3 X-9.314 Y9.281 I-26.155 J23.611
G2 X-8.981 Y9.637 I5.878 J-5.16
G1 X-8.97 Y9.658
X-8.972 Y9.682
X-8.987 Y9.7
X-9.01 Y9.707
X-9.619
X-9.653 Y9.701
X-9.682 Y9.682
X-9.701 Y9.653
X-9.707 Y9.619
Y9.521
X-9.713 Y9.503
X-9.727 Y9.491
X-9.741 Y9.48
X-9.746 Y9.462
Y8.809
X-9.742 Y8.793
X-9.729 Y8.784
X-9.713 Y8.782
X-9.7 Y8.791
G3 X-9.29 Y9.253 I-25.59 J23.101
G2 X-8.861 Y9.699 I4.836 J-4.211
G1 X-8.854 Y9.713
X-8.855 Y9.729
X-8.865 Y9.742
X-8.88 Y9.746
X-9.687
X-9.71 Y9.742
X-9.729 Y9.729
X-9.742 Y9.71
X-9.746 Y9.687
Y9.462
X-9.753 Y9.441
X-9.77 Y9.427
X-9.787 Y9.413
X-9.794 Y9.391
Y8.719
X-9.787 Y8.697
X-9.768 Y8.682
X-9.745 Y8.681
X-9.725 Y8.693
X-9.07 Y9.436
X-8.765 Y9.725
X-8.753 Y9.745
X-8.754 Y9.768
X-8.769 Y9.787
X-8.791 Y9.794
X-9.706
X-9.739 Y9.787
X-9.768 Y9.768
X-9.787 Y9.739
X-9.794 Y9.706
Y9.391
X-9.799 Y9.374
X-9.813 Y9.362
X-9.827 Y9.351
X-9.832 Y9.333
Y8.584
X-9.828 Y8.569
X-9.816 Y8.559
X-9.8 Y8.558
X-9.786 Y8.566
G3 X-9.231 Y9.196 I-27.687 J24.994
G2 X-8.635 Y9.787 I4.115 J-3.55
G1 X-8.627 Y9.8
X-8.628 Y9.816
X-8.637 Y9.828
X-8.652 Y9.832
X-9.774
X-9.796 Y9.828
X-9.815 Y9.815
X-9.828 Y9.796
X-9.832 Y9.774
Y9.333
X-9.839 Y9.312
X-9.856 Y9.298
X-9.872 Y9.284
X-9.879 Y9.264
Y8.494
X-9.872 Y8.473
X-9.854 Y8.459
X-9.832 Y8.457
X-9.812 Y8.469
G3 X-9.197 Y9.166 I-28.885 J26.075
G2 X-8.531 Y9.813 I3.934 J-3.384
G1 X-8.518 Y9.832
X-8.519 Y9.854
X-8.533 Y9.872
X-8.554 Y9.879
X-9.793
X-9.826 Y9.872
X-9.854 Y9.854
X-9.872 Y9.826
X-9.879 Y9.793
Y9.264
X-9.884 Y9.246
X-9.898 Y9.235
X-9.912 Y9.223
X-9.917 Y9.206
Y8.361
X-9.913 Y8.347
X-9.901 Y8.338
X-9.886 Y8.337
X-9.873 Y8.344
G3 X-9.168 Y9.145 I-31.302 J28.257
G2 X-8.391 Y9.874 I3.744 J-3.212
G1 X-8.382 Y9.886
Y9.901
X-8.391 Y9.913
X-8.405 Y9.917
X-9.86
X-9.889 Y9.909
X-9.909 Y9.889
X-9.917 Y9.86
Y9.206
X-9.923 Y9.186
X-9.94 Y9.172
X-9.956 Y9.158
X-9.963 Y9.138
Y8.273
X-9.956 Y8.252
X-9.939 Y8.239
X-9.917 Y8.237
X-9.898 Y8.248
G3 X-9.131 Y9.117 I-38.6 J34.845
G2 X-8.278 Y9.9 I3.791 J-3.272
G1 X-8.265 Y9.918
Y9.939
X-8.278 Y9.956
X-8.298 Y9.963
X-9.88
X-9.911 Y9.956
X-9.938 Y9.938
X-9.956 Y9.911
X-9.963 Y9.88
Y9.138
X-9.968 Y9.121
X-9.982 Y9.109
X-9.996 Y9.098
X-10.001 Y9.08
Y8.144
X-9.996 Y8.129
X-9.985 Y8.12
X-9.969 Y8.119
X-9.956 Y8.126
X-8.913 Y9.294
G2 X-8.614 Y9.591 I2.845 J-2.569
X-8.284 Y9.856 I2.822 J-3.177
G1 X-8.209 Y9.907
X-8.133 Y9.958
X-8.124 Y9.97
Y9.985
X-8.133 Y9.996
X-8.147 Y10.001
X-9.944
X-9.972 Y9.993
X-9.993 Y9.972
X-10.001 Y9.944
Y9.08
X-10.007 Y9.06
X-10.024 Y9.046
X-10.04 Y9.033
X-10.046 Y9.012
Y8.056
X-10.04 Y8.034
X-10.023 Y8.021
X-10.001 Y8.019
X-9.982 Y8.031
X-8.882 Y9.266
G2 X-8.585 Y9.56 I2.793 J-2.522
X-8.26 Y9.821 I2.815 J-3.175
G1 X-8.14 Y9.903
X-8.02 Y9.984
X-8.007 Y10.001
Y10.023
X-8.02 Y10.04
X-8.04 Y10.046
X-9.963
X-9.995 Y10.04
X-10.022 Y10.022
X-10.04 Y9.995
X-10.046 Y9.963
Y9.012
X-10.052 Y8.995
X-10.066 Y8.983
X-10.079 Y8.972
X-10.085 Y8.955
Y7.926
X-10.08 Y7.911
X-10.068 Y7.902
X-10.053 Y7.901
X-10.04 Y7.909
X-8.851 Y9.238
G2 X-8.237 Y9.79 I2.931 J-2.646
G1 X-7.875 Y10.042
X-7.866 Y10.054
Y10.068
X-7.875 Y10.08
X-7.888 Y10.085
X-10.028
X-10.056 Y10.077
X-10.077 Y10.056
X-10.085 Y10.028
Y8.955
X-10.091 Y8.934
X-10.107 Y8.921
X-10.124 Y8.907
X-10.13 Y8.886
Y7.837
X-10.124 Y7.816
X-10.106 Y7.802
X-10.085 Y7.801
X-10.066 Y7.812
X-8.82 Y9.21
G2 X-8.295 Y9.681 I2.503 J-2.259
G1 X-7.761 Y10.068
X-7.749 Y10.085
Y10.106
X-7.761 Y10.124
X-7.781 Y10.13
X-10.047
X-10.079 Y10.124
X-10.106 Y10.106
X-10.124 Y10.079
X-10.13 Y10.047
Y8.886
X-10.135 Y8.869
X-10.149 Y8.858
X-10.163 Y8.846
X-10.168 Y8.829
Y7.701
X-10.164 Y7.687
X-10.152 Y7.678
X-10.137 Y7.677
X-10.125 Y7.685
X-10.076 Y7.746
X-10.027 Y7.806
X-8.789 Y9.182
G2 X-8.244 Y9.671 I2.597 J-2.344
G1 X-7.616 Y10.126
X-7.608 Y10.138
Y10.152
X-7.616 Y10.164
X-7.63 Y10.168
X-10.112
X-10.14 Y10.161
X-10.161 Y10.14
X-10.168 Y10.112
Y8.829
X-10.175 Y8.809
X-10.191 Y8.795
X-10.208 Y8.781
X-10.214 Y8.761
Y7.603
X-10.207 Y7.582
X-10.19 Y7.569
X-10.169
X-10.151 Y7.581
X-9.995 Y7.777
X-8.758 Y9.154
G2 X-8.156 Y9.686 I2.659 J-2.401
G3 X-7.503 Y10.152 I-30.652 J43.681
G1 X-7.49 Y10.169
Y10.19
X-7.503 Y10.207
X-7.523 Y10.214
X-10.131
X-10.163 Y10.208
X-10.19 Y10.19
X-10.208 Y10.163
X-10.214 Y10.131
Y8.761
X-10.219 Y8.744
X-10.233 Y8.732
X-10.247 Y8.721
X-10.252 Y8.703
Y7.454
X-10.248 Y7.44
X-10.236 Y7.432
X-10.221
X-10.21 Y7.44
X-10.152 Y7.52
X-10.092 Y7.599
X-8.727 Y9.126
G2 X-8.071 Y9.704 I2.843 J-2.567
G3 X-7.358 Y10.21 I-26.007 J37.391
G1 X-7.349 Y10.221
Y10.236
X-7.358 Y10.248
X-7.371 Y10.252
X-10.195
X-10.224 Y10.245
X-10.245 Y10.224
X-10.252 Y10.195
Y8.703
X-10.258 Y8.683
X-10.275 Y8.669
X-10.291 Y8.656
X-10.298 Y8.635
Y7.342
X-10.291 Y7.322
X-10.274 Y7.31
X-10.253 Y7.311
X-10.237 Y7.323
X-10.093 Y7.529
X-8.696 Y9.098
G2 X-8 Y9.705 I2.885 J-2.604
G3 X-7.244 Y10.236 I-18.152 J26.632
G1 X-7.232 Y10.253
Y10.274
X-7.244 Y10.291
X-7.264 Y10.298
X-10.215
X-10.247 Y10.291
X-10.273 Y10.273
X-10.291 Y10.247
X-10.298 Y10.215
Y8.635
X-10.303 Y8.619
X-10.316 Y8.607
X-10.33 Y8.596
X-10.335 Y8.579
Y7.176
X-10.328 Y7.16
X-10.31 Y7.155
X-10.296 Y7.165
G2 X-10.112 Y7.439 I4.233 J-2.628
X-9.905 Y7.696 I2.386 J-1.71
G1 X-8.665 Y9.07
G2 X-8.09 Y9.587 I2.745 J-2.478
X-7.595 Y9.94 I28.397 J-39.2
G3 X-7.1 Y10.294 I-27.902 J39.553
G1 X-7.09 Y10.31
X-7.096 Y10.328
X-7.113 Y10.335
X-10.281
X-10.308 Y10.328
X-10.328 Y10.308
X-10.335 Y10.281
Y8.579
X-10.341 Y8.559
X-10.357 Y8.546
X-10.373 Y8.533
X-10.379 Y8.513
Y7.048
X-10.373 Y7.03
X-10.357 Y7.019
X-10.337 Y7.02
X-10.322 Y7.033
G2 X-10.115 Y7.362 I4.66 J-2.7
X-9.875 Y7.668 I2.35 J-1.599
G1 X-8.635 Y9.042
G2 X-7.845 Y9.724 I3.128 J-2.824
G3 X-6.988 Y10.32 I-14.971 J22.444
G1 X-6.976 Y10.336
Y10.357
X-6.988 Y10.373
X-7.008 Y10.379
X-10.3
X-10.331 Y10.373
X-10.356 Y10.356
X-10.373 Y10.331
X-10.379 Y10.3
Y8.513
X-10.384 Y8.496
X-10.398 Y8.485
X-10.411 Y8.474
X-10.416 Y8.457
Y6.873
X-10.409 Y6.858
X-10.392 Y6.853
X-10.378 Y6.863
X-10.333 Y6.946
X-10.288 Y7.03
G2 X-9.845 Y7.641 I3.191 J-1.849
G1 X-8.604 Y9.015
G2 X-8.042 Y9.521 I2.684 J-2.423
G1 X-6.847 Y10.377
X-6.838 Y10.392
X-6.844 Y10.409
X-6.86 Y10.416
X-10.363
X-10.39 Y10.409
X-10.409 Y10.39
X-10.416 Y10.363
Y8.457
X-10.422 Y8.437
X-10.439 Y8.424
X-10.455 Y8.411
X-10.461 Y8.391
Y6.745
X-10.454 Y6.727
X-10.438 Y6.716
X-10.419 Y6.717
X-10.404 Y6.73
X-10.253 Y7.01
G2 X-9.815 Y7.614 I3.141 J-1.82
G1 X-8.574 Y8.988
G2 X-8.018 Y9.488 I2.654 J-2.396
X-7.378 Y9.945 I32.62 J-45.029
G3 X-6.737 Y10.402 I-31.979 J45.486
G1 X-6.725 Y10.418
Y10.438
X-6.737 Y10.455
X-6.756 Y10.461
X-10.382
X-10.412 Y10.455
X-10.438 Y10.438
X-10.455 Y10.412
X-10.461 Y10.382
Y8.391
X-10.466 Y8.374
X-10.479 Y8.363
X-10.493 Y8.352
X-10.498 Y8.335
Y6.57
X-10.491 Y6.555
X-10.474 Y6.55
X-10.46 Y6.56
X-10.219 Y6.99
G2 X-9.784 Y7.587 I3.058 J-1.772
G1 X-8.544 Y8.961
G2 X-7.994 Y9.455 I2.624 J-2.368
G1 X-6.596 Y10.458
X-6.587 Y10.473
X-6.593 Y10.491
X-6.609 Y10.498
X-10.445
X-10.471 Y10.491
X-10.491 Y10.471
X-10.498 Y10.445
Y8.335
X-10.504 Y8.315
X-10.52 Y8.302
X-10.536 Y8.289
X-10.542 Y8.269
Y6.442
X-10.536 Y6.424
X-10.52 Y6.413
X-10.5 Y6.414
X-10.485 Y6.427
G3 X-10.149 Y7.012 I-73.084 J42.335
G2 X-9.754 Y7.559 I2.705 J-1.538
G1 X-8.514 Y8.933
G2 X-7.97 Y9.422 I2.593 J-2.341
G1 X-6.486 Y10.483
X-6.474 Y10.499
Y10.52
X-6.486 Y10.536
X-6.505 Y10.542
X-10.463
X-10.493 Y10.536
X-10.519 Y10.519
X-10.536 Y10.493
X-10.542 Y10.463
Y8.269
X-10.547 Y8.252
X-10.561 Y8.241
X-10.574 Y8.23
X-10.579 Y8.213
Y6.267
X-10.572 Y6.252
X-10.555 Y6.247
X-10.541 Y6.257
G3 X-10.166 Y6.916 I-43.741 J25.337
G2 X-9.724 Y7.532 I2.956 J-1.654
G1 X-8.484 Y8.906
G2 X-7.946 Y9.389 I2.563 J-2.314
G3 X-7.148 Y9.971 I-72.677 J100.326
G2 X-6.34 Y10.54 I13.466 J-18.281
G1 X-6.331 Y10.555
X-6.336 Y10.572
X-6.352 Y10.579
X-10.526
X-10.553 Y10.572
X-10.572 Y10.553
X-10.579 Y10.526
Y8.213
X-10.585 Y8.193
X-10.601 Y8.18
X-10.618 Y8.166
X-10.624 Y8.146
Y6.139
X-10.617 Y6.121
X-10.601 Y6.11
X-10.581 Y6.111
X-10.567 Y6.124
G3 X-10.166 Y6.837 I-26.134 J15.139
G2 X-9.694 Y7.505 I3.047 J-1.656
G1 X-8.453 Y8.879
G2 X-7.922 Y9.356 I2.533 J-2.287
G3 X-7.081 Y9.976 I-37.676 J52.009
G2 X-6.218 Y10.566 I7.3 J-9.74
G1 X-6.206 Y10.581
X-6.205 Y10.601
X-6.216 Y10.617
X-6.235 Y10.624
X-10.545
X-10.575 Y10.618
X-10.6 Y10.6
X-10.618 Y10.575
X-10.624 Y10.545
Y8.146
X-10.629 Y8.13
X-10.642 Y8.119
X-10.656 Y8.108
X-10.661 Y8.091
Y5.964
X-10.653 Y5.949
X-10.637 Y5.944
X-10.622 Y5.954
G3 X-10.35 Y6.431 I-34.785 J20.149
G2 X-10.078 Y6.908 I35.057 J-19.672
X-9.664 Y7.478 I2.918 J-1.69
G1 X-8.423 Y8.852
G2 X-7.898 Y9.323 I2.503 J-2.259
G1 X-6.398 Y10.41
X-6.227 Y10.522
X-6.049 Y10.623
X-6.039 Y10.637
X-6.043 Y10.653
X-6.059 Y10.661
X-10.607
X-10.634 Y10.654
X-10.654 Y10.634
X-10.661 Y10.607
Y8.091
X-10.667 Y8.071
X-10.682 Y8.058
X-10.698 Y8.045
X-10.704 Y8.025
Y5.836
X-10.698 Y5.818
X-10.682 Y5.807
X-10.663 Y5.808
X-10.649 Y5.821
G3 X-10.184 Y6.662 I-20.722 J12.003
G2 X-9.634 Y7.451 I3.419 J-1.801
G1 X-8.393 Y8.825
G2 X-7.875 Y9.29 I2.473 J-2.232
G1 X-6.374 Y10.377
G2 X-6.144 Y10.524 I1.318 J-1.82
X-5.902 Y10.651 I3.102 J-5.605
G1 X-5.889 Y10.664
X-5.887 Y10.682
X-5.897 Y10.698
X-5.915 Y10.704
X-10.628
X-10.657 Y10.698
X-10.682 Y10.682
X-10.698 Y10.657
X-10.704 Y10.628
Y8.025
X-10.709 Y8.009
X-10.722 Y7.998
X-10.735 Y7.988
X-10.74 Y7.971
Y5.663
X-10.733 Y5.649
X-10.718 Y5.644
X-10.704 Y5.654
X-10.009 Y6.868
G2 X-9.604 Y7.424 I2.848 J-1.65
G1 X-8.364 Y8.798
G2 X-7.851 Y9.258 I2.443 J-2.206
G1 X-6.351 Y10.345
G2 X-6.059 Y10.531 I1.689 J-2.331
X-5.75 Y10.684 I1.863 J-3.354
G1 X-5.724 Y10.695
X-5.697 Y10.706
X-5.687 Y10.718
X-5.69 Y10.733
X-5.704 Y10.74
X-10.691
X-10.715 Y10.734
X-10.734 Y10.715
X-10.74 Y10.691
Y7.971
X-10.746 Y7.952
X-10.762 Y7.939
X-10.777 Y7.926
X-10.783 Y7.907
Y5.539
X-10.777 Y5.522
X-10.762 Y5.511
X-10.743 Y5.513
X-10.73 Y5.525
X-9.975 Y6.848
G2 X-9.575 Y7.397 I2.814 J-1.63
G1 X-8.334 Y8.772
G2 X-7.828 Y9.226 I2.414 J-2.179
G1 X-6.327 Y10.313
G2 X-6.04 Y10.497 I1.73 J-2.389
X-5.735 Y10.65 I1.771 J-3.157
G1 X-5.634 Y10.691
X-5.533 Y10.732
X-5.52 Y10.744
X-5.517 Y10.762
X-5.527 Y10.777
X-5.544 Y10.783
X-10.709
X-10.737 Y10.777
X-10.761 Y10.761
X-10.777 Y10.737
X-10.783 Y10.709
Y7.907
X-10.788 Y7.891
X-10.801 Y7.88
X-10.814 Y7.869
X-10.819 Y7.853
Y5.37
X-10.812 Y5.355
X-10.797 Y5.351
X-10.783 Y5.36
X-9.941 Y6.829
G2 X-9.546 Y7.371 I2.78 J-1.61
G1 X-8.305 Y8.745
G2 X-7.805 Y9.194 I2.385 J-2.153
G1 X-6.304 Y10.281
G2 X-5.72 Y10.617 I1.885 J-2.602
G1 X-5.522 Y10.701
X-5.324 Y10.785
X-5.314 Y10.797
X-5.317 Y10.812
X-5.332 Y10.819
X-10.769
X-10.794 Y10.812
X-10.812 Y10.794
X-10.819 Y10.769
Y7.853
X-10.825 Y7.834
X-10.841 Y7.821
X-10.856 Y7.808
X-10.862 Y7.789
Y5.246
X-10.856 Y5.228
X-10.841 Y5.218
X-10.822 Y5.219
X-10.808 Y5.231
X-9.907 Y6.809
G2 X-9.516 Y7.345 I2.746 J-1.591
G1 X-8.276 Y8.719
G2 X-7.782 Y9.162 I2.356 J-2.126
G1 X-6.281 Y10.249
G2 X-5.735 Y10.56 I1.674 J-2.31
G3 X-5.16 Y10.811 I-23.714 J55.1
G1 X-5.147 Y10.823
X-5.145 Y10.841
X-5.154 Y10.856
X-5.171 Y10.862
X-10.788
X-10.816 Y10.856
X-10.84 Y10.84
X-10.856 Y10.816
X-10.862 Y10.788
Y7.789
X-10.867 Y7.773
X-10.88 Y7.762
X-10.893 Y7.751
X-10.898 Y7.735
Y5.067
X-10.891 Y5.053
X-10.876 Y5.049
X-10.863 Y5.059
X-10.831 Y5.124
X-10.797 Y5.189
X-9.873 Y6.789
G2 X-9.487 Y7.318 I2.712 J-1.571
G1 X-8.247 Y8.692
G2 X-7.759 Y9.13 I2.326 J-2.1
G1 X-6.258 Y10.218
G2 X-5.622 Y10.575 I1.865 J-2.574
G3 X-4.952 Y10.864 I-14.048 J33.525
G1 X-4.942 Y10.876
X-4.945 Y10.891
X-4.959 Y10.898
X-10.848
X-10.873 Y10.891
X-10.891 Y10.873
X-10.898 Y10.848
Y7.735
X-10.904 Y7.716
X-10.919 Y7.703
X-10.935 Y7.69
X-10.941 Y7.671
Y4.918
X-10.935 Y4.901
X-10.92 Y4.892
X-10.902 Y4.894
X-10.889 Y4.907
X-10.764 Y5.169
X-9.839 Y6.769
G2 X-9.458 Y7.292 I2.678 J-1.551
G1 X-8.217 Y8.666
G2 X-7.736 Y9.098 I2.297 J-2.074
G1 X-6.235 Y10.186
G2 X-5.53 Y10.576 I1.946 J-2.686
G3 X-4.787 Y10.89 I-8.989 J22.29
G1 X-4.774 Y10.902
X-4.772 Y10.92
X-4.781 Y10.935
X-4.798 Y10.941
X-10.866
X-10.895 Y10.935
X-10.919 Y10.919
X-10.935 Y10.895
X-10.941 Y10.866
Y7.671
X-10.946 Y7.655
X-10.959 Y7.644
X-10.972 Y7.633
X-10.976 Y7.617
Y4.689
X-10.97 Y4.675
X-10.955 Y4.673
X-10.944 Y4.683
G2 X-10.847 Y4.921 I4.169 J-1.552
X-10.731 Y5.15 I2.127 J-0.935
G1 X-9.805 Y6.75
G2 X-9.429 Y7.266 I2.644 J-1.531
G1 X-8.188 Y8.64
G2 X-7.713 Y9.067 I2.268 J-2.047
G1 X-6.212 Y10.154
G2 X-5.657 Y10.473 I1.792 J-2.474
X-5.118 Y10.708 I20.522 J-46.341
G3 X-4.579 Y10.943 I-19.983 J46.576
G1 X-4.569 Y10.955
X-4.572 Y10.97
X-4.586 Y10.976
X-10.928
X-10.952 Y10.97
X-10.97 Y10.952
X-10.976 Y10.928
Y7.617
X-10.982 Y7.599
X-10.997 Y7.586
X-11.012 Y7.574
X-11.018 Y7.555
Y4.479
X-11.012 Y4.464
X-10.998 Y4.456
X-10.982 Y4.459
X-10.972 Y4.472
G2 X-10.852 Y4.809 I6.543 J-2.14
X-10.698 Y5.131 I2.127 J-0.82
G1 X-9.771 Y6.73
G2 X-9.4 Y7.24 I2.61 J-1.512
G1 X-8.16 Y8.614
G2 X-7.69 Y9.035 I2.239 J-2.021
G1 X-6.189 Y10.123
G2 X-5.641 Y10.438 I1.77 J-2.443
G1 X-4.416 Y10.97
X-4.403 Y10.981
X-4.401 Y10.998
X-4.41 Y11.012
X-4.426 Y11.018
X-10.948
X-10.975 Y11.013
X-10.997 Y10.997
X-11.013 Y10.975
X-11.018 Y10.948
Y7.555
X-11.023 Y7.539
X-11.035 Y7.529
X-11.048 Y7.518
X-11.053 Y7.503
Y4.211
X-11.046 Y4.198
X-11.032 Y4.196
X-11.022 Y4.206
X-10.918 Y4.545
G2 X-10.665 Y5.112 I2.831 J-0.926
G1 X-9.738 Y6.711
G2 X-9.372 Y7.214 I2.577 J-1.493
G1 X-8.131 Y8.588
G2 X-7.668 Y9.004 I2.211 J-1.996
G1 X-6.167 Y10.092
G2 X-5.626 Y10.403 I1.747 J-2.412
G1 X-4.214 Y11.021
X-4.205 Y11.032
X-4.208 Y11.046
X-4.221 Y11.053
X-11.006
X-11.03 Y11.047
X-11.047 Y11.03
X-11.053 Y11.006
Y7.503
X-11.058 Y7.484
X-11.074 Y7.471
X-11.089 Y7.459
X-11.094 Y7.44
Y3.999
X-11.089 Y3.984
X-11.074 Y3.976
X-11.058 Y3.979
X-11.048 Y3.992
G3 X-10.869 Y4.553 I-44.967 J14.705
G2 X-10.632 Y5.093 I2.545 J-0.797
G1 X-9.705 Y6.692
G2 X-9.343 Y7.189 I2.544 J-1.474
G1 X-8.103 Y8.563
G2 X-7.645 Y8.973 I2.183 J-1.97
G1 X-6.144 Y10.061
G2 X-5.61 Y10.368 I1.725 J-2.381
X-4.832 Y10.707 I29.651 J-66.956
G3 X-4.054 Y11.046 I-28.873 J67.295
G1 X-4.042 Y11.058
X-4.04 Y11.074
X-4.049 Y11.089
X-4.064 Y11.094
X-11.025
X-11.051 Y11.089
X-11.074 Y11.074
X-11.089 Y11.051
X-11.094 Y11.025
Y7.44
X-11.099 Y7.425
X-11.112 Y7.414
X-11.124 Y7.404
X-11.129 Y7.388
Y3.731
X-11.123 Y3.718
X-11.109 Y3.716
X-11.099 Y3.726
G3 X-10.884 Y4.413 I-26.583 J8.693
G2 X-10.598 Y5.074 I2.945 J-0.88
G1 X-9.672 Y6.673
G2 X-9.315 Y7.163 I2.511 J-1.455
G1 X-8.075 Y8.537
G2 X-7.623 Y8.943 I2.154 J-1.945
G1 X-6.122 Y10.03
G2 X-5.595 Y10.333 I1.703 J-2.35
G1 X-4.655 Y10.749
G2 X-3.851 Y11.098 I22.474 J-50.75
G1 X-3.842 Y11.109
X-3.845 Y11.123
X-3.858 Y11.129
X-11.083
X-11.106 Y11.123
X-11.123 Y11.106
X-11.129 Y11.083
Y7.388
X-11.135 Y7.369
X-11.15 Y7.357
X-11.165 Y7.344
X-11.171 Y7.326
Y3.52
X-11.165 Y3.505
X-11.151 Y3.497
X-11.135 Y3.5
X-11.125 Y3.513
G3 X-10.885 Y4.298 I-19.278 J6.304
G2 X-10.565 Y5.054 I3.176 J-0.898
G1 X-9.639 Y6.654
G2 X-9.287 Y7.137 I2.478 J-1.436
G1 X-8.046 Y8.511
G2 X-7.601 Y8.912 I2.126 J-1.919
G1 X-6.1 Y9.999
G2 X-5.579 Y10.298 I1.68 J-2.319
G1 X-3.879 Y11.048
X-3.774 Y11.088
X-3.667 Y11.124
X-3.654 Y11.135
X-3.651 Y11.151
X-3.66 Y11.165
X-3.675 Y11.171
X-11.101
X-11.128 Y11.165
X-11.15 Y11.15
X-11.165 Y11.128
X-11.171 Y11.101
Y7.326
X-11.175 Y7.31
X-11.188 Y7.3
X-11.2 Y7.29
X-11.205 Y7.275
Y3.251
X-11.199 Y3.239
X-11.186 Y3.237
X-11.176 Y3.246
X-10.773 Y4.497
G2 X-10.533 Y5.036 I2.686 J-0.878
G1 X-9.606 Y6.635
G2 X-9.259 Y7.112 I2.446 J-1.417
G1 X-8.018 Y8.486
G2 X-7.578 Y8.881 I2.098 J-1.894
G1 X-6.078 Y9.968
G2 X-5.564 Y10.264 I1.658 J-2.289
G1 X-3.865 Y11.016
G2 X-3.619 Y11.108 I0.915 J-2.066
X-3.365 Y11.177 I1.113 J-3.594
G1 X-3.355 Y11.186
X-3.357 Y11.199
X-3.368 Y11.205
X-11.161
X-11.183 Y11.199
X-11.199 Y11.183
X-11.205 Y11.161
Y7.275
X-11.21 Y7.257
X-11.225 Y7.245
X-11.239 Y7.233
X-11.245 Y7.215
Y3.045
X-11.24 Y3.031
X-11.226 Y3.023
X-11.212 Y3.026
X-11.202 Y3.038
X-10.738 Y4.486
G2 X-10.501 Y5.017 I2.651 J-0.867
G1 X-9.574 Y6.616
G2 X-9.231 Y7.087 I2.414 J-1.398
G1 X-7.991 Y8.461
G2 X-7.557 Y8.851 I2.07 J-1.869
G1 X-6.056 Y9.938
G2 X-5.549 Y10.23 I1.636 J-2.259
G1 X-3.85 Y10.982
G2 X-3.295 Y11.16 I1.107 J-2.5
G1 X-3.17 Y11.182
X-3.046 Y11.204
X-3.034 Y11.212
X-3.03 Y11.226
X-3.037 Y11.239
X-3.05 Y11.245
X-11.18
X-11.205 Y11.24
X-11.226 Y11.226
X-11.24 Y11.205
X-11.245 Y11.18
Y7.215
X-11.249 Y7.199
X-11.262 Y7.189
X-11.274 Y7.179
X-11.279 Y7.164
Y2.787
X-11.273 Y2.775
X-11.26 Y2.773
X-11.25 Y2.782
X-10.703 Y4.474
G2 X-10.469 Y4.999 I2.616 J-0.855
G1 X-9.542 Y6.598
G2 X-9.204 Y7.063 I2.382 J-1.38
G1 X-7.963 Y8.437
G2 X-7.535 Y8.821 I2.043 J-1.844
G1 X-6.034 Y9.908
G2 X-5.534 Y10.196 I1.615 J-2.229
G1 X-3.835 Y10.948
G2 X-3.254 Y11.131 I1.097 J-2.478
G3 X-2.656 Y11.252 I-7.342 J37.875
G1 X-2.647 Y11.26
X-2.648 Y11.273
X-2.659 Y11.279
X-11.235
X-11.257 Y11.273
X-11.273 Y11.257
X-11.279 Y11.235
Y7.164
X-11.284 Y7.146
X-11.299 Y7.134
X-11.313 Y7.122
X-11.319 Y7.104
Y2.564
X-11.313 Y2.55
X-11.3 Y2.543
X-11.286 Y2.546
X-11.277 Y2.559
X-11.259 Y2.63
X-11.24 Y2.701
X-10.668 Y4.463
G2 X-10.437 Y4.98 I2.581 J-0.844
G1 X-9.51 Y6.579
G2 X-9.176 Y7.038 I2.35 J-1.361
G1 X-7.936 Y8.412
G2 X-7.513 Y8.791 I2.016 J-1.82
G1 X-6.013 Y9.879
G2 X-5.519 Y10.162 I1.593 J-2.199
G1 X-3.82 Y10.915
G2 X-3.088 Y11.135 I1.249 J-2.821
G3 X-2.337 Y11.278 I-3.292 J19.372
G1 X-2.324 Y11.286
X-2.32 Y11.3
X-2.327 Y11.313
X-2.341 Y11.319
X-11.254
X-11.279 Y11.314
X-11.3 Y11.3
X-11.314 Y11.279
X-11.319 Y11.254
Y7.104
X-11.323 Y7.089
X-11.335 Y7.079
X-11.347 Y7.069
X-11.351 Y7.055
Y2.084
X-11.328 Y2.082
X-11.325 Y2.113
X-11.323 Y2.143
G2 X-11.281 Y2.42 I3.049 J-0.326
X-11.209 Y2.691 I2.329 J-0.467
G1 X-10.634 Y4.452
G2 X-10.405 Y4.962 I2.546 J-0.833
G1 X-9.479 Y6.561
G2 X-9.149 Y7.013 I2.318 J-1.343
G1 X-7.909 Y8.387
G2 X-7.492 Y8.762 I1.989 J-1.795
G1 X-5.991 Y9.849
G2 X-5.504 Y10.129 I1.572 J-2.17
G1 X-3.806 Y10.881
G2 X-3.272 Y11.053 I1.085 J-2.45
G1 X-1.947 Y11.326
X-1.937 Y11.334
X-1.939 Y11.346
X-1.949 Y11.351
X-11.311
X-11.331 Y11.346
X-11.346 Y11.331
X-11.351 Y11.311
Y7.055
X-11.357 Y7.037
X-11.371 Y7.026
X-11.385 Y7.014
X-11.39 Y6.997
Y1.474
X-11.385 Y1.462
X-11.373 Y1.456
X-11.36 Y1.46
X-11.354 Y1.472
G3 X-11.296 Y2.081 I-25.4 J2.718
G2 X-11.175 Y2.68 I2.616 J-0.217
G1 X-10.6 Y4.441
G2 X-10.374 Y4.944 I2.512 J-0.822
G1 X-9.448 Y6.543
G2 X-9.123 Y6.99 I2.287 J-1.325
G1 X-7.883 Y8.364
G2 X-7.471 Y8.733 I1.962 J-1.771
G1 X-5.97 Y9.82
G2 X-5.49 Y10.097 I1.551 J-2.141
G1 X-3.791 Y10.849
G2 X-3.265 Y11.018 I1.07 J-2.417
X-2.45 Y11.185 I16.807 J-79.922
G3 X-1.636 Y11.352 I-15.993 J80.089
G1 X-1.625 Y11.36
X-1.621 Y11.373
X-1.627 Y11.385
X-1.64 Y11.39
X-11.33
X-11.353 Y11.385
X-11.372 Y11.372
X-11.385 Y11.353
X-11.39 Y11.33
Y6.997
X-11.394 Y6.984
X-11.404 Y6.976
X-11.415 Y6.967
X-11.418 Y6.954
Y0.746
X-11.403 Y0.745
X-11.258 Y2.136
G2 X-11.144 Y2.669 I2.595 J-0.278
G1 X-10.568 Y4.43
G2 X-10.346 Y4.927 I2.481 J-0.811
G1 X-9.419 Y6.526
G2 X-9.098 Y6.967 I2.258 J-1.308
G1 X-7.858 Y8.341
G2 X-7.452 Y8.706 I1.937 J-1.749
G1 X-5.951 Y9.793
G2 X-5.476 Y10.066 I1.531 J-2.114
G1 X-3.778 Y10.818
G2 X-3.258 Y10.986 I1.057 J-2.386
G1 X-1.444 Y11.367
X-1.321 Y11.388
X-1.198 Y11.403
X-1.199 Y11.418
X-11.393
X-11.411 Y11.411
X-11.418 Y11.393
Y6.954
X-11.415 Y6.908 Z-0.093
X-11.404 Y6.863 Z-0.085
X-11.389 Y6.824 Z-0.064
X-11.368 Y6.788 Z-0.043
X-11.325 Y6.737 Z0.024
X-11.293 Y6.71 Z0.107
X-11.28 Y6.702 Z0.2
G0 Z5
X9.29 Y8.756
Z0.405
G1 X9.297 Y8.769 Z0.313 F333.3
X9.317 Y8.806 Z0.23
X9.346 Y8.865 Z0.163
X9.379 Y8.941 Z0.121
X9.41 Y9.027 Z0.105
G3 X6.7 Y9.908 Z0.055 I-1.355 J0.44
X9.41 Y9.027 Z0.005 I1.355 J-0.44
X6.7 Y9.908 Z-0.045 I-1.355 J0.44
X9.41 Y9.027 Z-0.095 I1.355 J-0.44
X9.48 Y9.467 Z-0.1 I-1.355 J0.44
X9.455 I-0.013 F1000
X9.48 I0.013
G1 X9.484 Y9.484
X9.496 Y9.497
X9.504 Y9.509
X9.502 Y9.522
X9.492 Y9.531
X9.471 Y9.535
X9.41
X9.388 Y9.528
X9.372 Y9.51
X9.369 Y9.486
X9.379 Y9.464
X9.467 Y9.366
X9.487 Y9.355
X9.51 Y9.356
X9.528 Y9.37
X9.535 Y9.392
Y9.471
X9.529 Y9.496
X9.514 Y9.518
X9.492 Y9.531
X9.477 Y9.54
X9.467 Y9.555
X9.456 Y9.569
X9.439 Y9.574
X9.294
X9.278 Y9.569
X9.267 Y9.557
X9.265 Y9.54
X9.272 Y9.525
X9.527 Y9.241
X9.541 Y9.233
X9.557 Y9.234
X9.569 Y9.244
X9.574 Y9.259
Y9.514
X9.57 Y9.537
X9.556 Y9.556
X9.537 Y9.57
X9.514 Y9.574
X9.439
X9.418 Y9.581
X9.404 Y9.598
X9.39 Y9.615
X9.369 Y9.621
X9.216
X9.193 Y9.614
X9.178 Y9.596
X9.175 Y9.572
X9.185 Y9.551
X9.553 Y9.141
X9.573 Y9.13
X9.596 Y9.131
X9.614 Y9.145
X9.621 Y9.167
Y9.534
X9.614 Y9.567
X9.596 Y9.596
X9.567 Y9.614
X9.534 Y9.621
X9.369
X9.351 Y9.626
X9.339 Y9.641
X9.327 Y9.655
X9.309 Y9.66
X9.095
X9.079 Y9.656
X9.068 Y9.643
X9.066 Y9.627
X9.074 Y9.612
G2 X9.346 Y9.316 I-6.111 J-5.9
G3 X9.613 Y9.016 I27.46 J24.111
G1 X9.627 Y9.008
X9.643 Y9.009
X9.656 Y9.019
X9.66 Y9.034
Y9.6
X9.656 Y9.623
X9.643 Y9.643
X9.623 Y9.656
X9.6 Y9.66
X9.309
X9.288 Y9.667
X9.274 Y9.684
X9.26 Y9.701
X9.239 Y9.707
X9.011
X8.988 Y9.7
X8.974 Y9.682
X8.971 Y9.659
X8.982 Y9.638
G2 X9.316 Y9.282 I-4.952 J-4.968
G3 X9.639 Y8.916 I26.032 J22.714
G1 X9.659 Y8.905
X9.682 Y8.906
X9.7 Y8.92
X9.707 Y8.942
Y9.62
X9.701 Y9.654
X9.682 Y9.682
X9.654 Y9.701
X9.62 Y9.707
X9.239
X9.221 Y9.713
X9.21 Y9.727
X9.198 Y9.741
X9.18 Y9.747
X8.882
X8.866 Y9.742
X8.856 Y9.729
X8.855 Y9.713
X8.863 Y9.699
X9.124 Y9.444
X9.699 Y8.791
X9.713 Y8.782
X9.729 Y8.784
X9.742 Y8.794
X9.747 Y8.809
Y9.686
X9.742 Y9.709
X9.729 Y9.729
X9.709 Y9.742
X9.686 Y9.747
X9.18
X9.159 Y9.753
X9.145 Y9.77
X9.131 Y9.787
X9.11 Y9.793
X8.791
X8.769 Y9.787
X8.754 Y9.769
X8.753 Y9.746
X8.765 Y9.726
X8.933 Y9.575
G2 X9.335 Y9.138 I-5.253 J-5.246
G3 X9.726 Y8.691 I16.87 J14.347
G1 X9.745 Y8.68
X9.768 Y8.681
X9.787 Y8.695
X9.793 Y8.717
Y9.707
X9.787 Y9.74
X9.768 Y9.768
X9.74 Y9.787
X9.707 Y9.793
X9.11
X9.092 Y9.799
X9.081 Y9.813
X9.069 Y9.827
X9.051 Y9.833
X8.652
X8.637 Y9.828
X8.628 Y9.815
X8.627 Y9.8
X8.635 Y9.787
X8.855 Y9.594
G2 X9.329 Y9.088 I-5.046 J-5.206
G3 X9.786 Y8.566 I20.15 J17.157
G1 X9.8 Y8.558
X9.815 Y8.559
X9.828 Y8.568
X9.833 Y8.583
Y9.773
X9.828 Y9.796
X9.815 Y9.815
X9.796 Y9.828
X9.773 Y9.833
X9.051
X9.031 Y9.839
X9.017 Y9.856
X9.003 Y9.872
X8.982 Y9.879
X8.552
X8.531 Y9.872
X8.518 Y9.854
X8.517 Y9.832
X8.529 Y9.814
G2 X9.198 Y9.167 I-3.147 J-3.922
G3 X9.813 Y8.467 I31.525 J27.05
G1 X9.832 Y8.455
X9.854 Y8.457
X9.872 Y8.471
X9.879 Y8.492
Y9.794
X9.872 Y9.826
X9.854 Y9.854
X9.826 Y9.872
X9.794 Y9.879
X8.982
X8.965 Y9.884
X8.953 Y9.898
X8.942 Y9.912
X8.924 Y9.917
X8.404
X8.39 Y9.912
X8.381 Y9.901
Y9.886
X8.39 Y9.874
G2 X9.169 Y9.145 I-2.877 J-3.858
G3 X9.872 Y8.343 I34.491 J29.53
G1 X9.885 Y8.335
X9.9 Y8.336
X9.913 Y8.346
X9.917 Y8.36
Y9.859
X9.909 Y9.888
X9.888 Y9.909
X9.859 Y9.917
X8.924
X8.904 Y9.923
X8.891 Y9.94
X8.877 Y9.956
X8.857 Y9.962
X8.296
X8.276 Y9.956
X8.263 Y9.939
Y9.918
X8.276 Y9.901
G2 X8.637 Y9.62 I-4.08 J-5.607
X8.966 Y9.302 I-2.035 J-2.44
X9.432 Y8.774 I-31.93 J-28.664
G3 X9.898 Y8.246 I32.396 J28.136
G1 X9.917 Y8.235
X9.939 Y8.236
X9.956 Y8.25
X9.962 Y8.271
Y9.88
X9.956 Y9.912
X9.938 Y9.938
X9.912 Y9.956
X9.88 Y9.962
X8.857
X8.839 Y9.968
X8.828 Y9.982
X8.816 Y9.996
X8.799 Y10.001
X8.147
X8.133 Y9.996
X8.124 Y9.984
Y9.969
X8.132 Y9.957
X8.306 Y9.839
G2 X8.935 Y9.274 I-2.415 J-3.319
X9.445 Y8.699 I-53.859 J-48.351
G3 X9.956 Y8.125 I54.369 J47.776
G1 X9.969 Y8.117
X9.984 Y8.118
X9.996 Y8.127
X10.001 Y8.142
Y9.943
X9.993 Y9.972
X9.972 Y9.993
X9.943 Y10.001
X8.799
X8.778 Y10.007
X8.765 Y10.024
X8.751 Y10.04
X8.731 Y10.046
X8.038
X8.018 Y10.04
X8.006 Y10.023
Y10.002
X8.018 Y9.985
X8.281 Y9.805
G2 X8.904 Y9.246 I-2.391 J-3.285
X9.443 Y8.637 I-42.623 J-38.264
G3 X9.982 Y8.027 I43.162 J37.655
G1 X10.001 Y8.016
X10.023 Y8.017
X10.04 Y8.031
X10.046 Y8.052
Y9.964
X10.04 Y9.996
X10.022 Y10.022
X9.996 Y10.04
X9.964 Y10.046
X8.731
X8.713 Y10.051
X8.702 Y10.065
X8.69 Y10.079
X8.673 Y10.085
X7.889
X7.875 Y10.08
X7.866 Y10.068
Y10.053
X7.875 Y10.041
X8.066 Y9.907
X8.258 Y9.773
G2 X8.872 Y9.218 I-2.323 J-3.192
G1 X10.04 Y7.906
X10.053 Y7.898
X10.068 Y7.899
X10.08 Y7.908
X10.085 Y7.923
Y10.027
X10.077 Y10.056
X10.056 Y10.077
X10.027 Y10.085
X8.673
X8.653 Y10.091
X8.639 Y10.107
X8.625 Y10.124
X8.605 Y10.13
X7.78
X7.76 Y10.124
X7.748 Y10.107
Y10.085
X7.76 Y10.068
X8.315 Y9.665
G2 X8.841 Y9.19 I-1.989 J-2.734
G1 X10.066 Y7.808
X10.085 Y7.797
X10.106 Y7.798
X10.124 Y7.812
X10.13 Y7.833
Y10.048
X10.124 Y10.079
X10.106 Y10.106
X10.079 Y10.124
X10.048 Y10.13
X8.605
X8.588 Y10.135
X8.576 Y10.149
X8.565 Y10.163
X8.547 Y10.169
X7.631
X7.617 Y10.164
X7.608 Y10.152
Y10.137
X7.617 Y10.125
X8.266 Y9.653
G2 X8.81 Y9.162 I-2.056 J-2.825
G3 X9.473 Y8.428 I136.979 J122.971
G2 X10.124 Y7.683 I-20.137 J-18.274
G1 X10.137 Y7.675
X10.152 Y7.676
X10.164 Y7.685
X10.169 Y7.7
Y10.111
X10.161 Y10.14
X10.14 Y10.161
X10.111 Y10.169
X8.547
X8.527 Y10.175
X8.513 Y10.191
X8.5 Y10.208
X8.479 Y10.214
X7.523
X7.503 Y10.207
X7.49 Y10.19
Y10.169
X7.503 Y10.152
G3 X8.168 Y9.677 I29.705 J40.818
G2 X8.779 Y9.134 I-2.082 J-2.961
G3 X9.476 Y8.366 I68.392 J61.398
G2 X10.151 Y7.579 I-11.247 J-10.329
G1 X10.169 Y7.567
X10.19
X10.207 Y7.58
X10.214 Y7.6
Y10.132
X10.208 Y10.163
X10.19 Y10.19
X10.163 Y10.208
X10.132 Y10.214
X8.479
X8.462 Y10.219
X8.45 Y10.233
X8.439 Y10.247
X8.421 Y10.252
X7.374
X7.36 Y10.248
X7.351 Y10.236
Y10.221
X7.359 Y10.209
G3 X8.083 Y9.694 I25.557 J35.118
G2 X8.748 Y9.106 I-2.206 J-3.166
G1 X9.989 Y7.723
X10.05 Y7.652
X10.106 Y7.579
X10.209 Y7.441
X10.221 Y7.432
X10.236
X10.248 Y7.441
X10.252 Y7.455
Y10.194
X10.245 Y10.223
X10.223 Y10.245
X10.194 Y10.252
X8.421
X8.401 Y10.259
X8.388 Y10.275
X8.374 Y10.291
X8.354 Y10.298
X7.265
X7.245 Y10.291
X7.233 Y10.274
Y10.253
X7.245 Y10.236
G3 X8.011 Y9.696 I18.693 J25.686
G2 X8.716 Y9.078 I-2.213 J-3.238
G1 X9.958 Y7.695
X10.033 Y7.606
X10.103 Y7.514
X10.237 Y7.324
X10.254 Y7.311
X10.274
X10.291 Y7.323
X10.298 Y7.343
Y10.216
X10.291 Y10.247
X10.274 Y10.274
X10.247 Y10.291
X10.216 Y10.298
X8.354
X8.337 Y10.303
X8.325 Y10.316
X8.314 Y10.33
X8.297 Y10.335
X7.115
X7.098 Y10.328
X7.092 Y10.31
X7.102 Y10.294
G3 X7.606 Y9.932 I29.012 J39.866
G2 X8.11 Y9.57 I-28.508 J-40.228
X8.686 Y9.05 I-2.176 J-2.989
G1 X9.927 Y7.667
G2 X10.122 Y7.425 I-2.117 J-1.9
X10.295 Y7.168 I-4.279 J-3.071
G1 X10.31 Y7.158
X10.328 Y7.163
X10.335 Y7.18
Y10.28
X10.328 Y10.308
X10.308 Y10.328
X10.28 Y10.335
X8.297
X8.277 Y10.341
X8.264 Y10.357
X8.251 Y10.374
X8.231 Y10.38
X7.009
X6.99 Y10.373
X6.978 Y10.357
Y10.337
X6.99 Y10.321
X8.086 Y9.537
G2 X8.655 Y9.023 I-2.151 J-2.956
G1 X9.897 Y7.64
G2 X10.125 Y7.349 I-2.101 J-1.886
X10.323 Y7.037 I-4.265 J-2.921
G1 X10.338 Y7.024
X10.357 Y7.023
X10.373 Y7.033
X10.38 Y7.052
Y10.301
X10.374 Y10.331
X10.357 Y10.357
X10.331 Y10.374
X10.301 Y10.38
X8.231
X8.214 Y10.385
X8.203 Y10.398
X8.192 Y10.412
X8.175 Y10.417
X6.863
X6.846 Y10.409
X6.841 Y10.392
X6.85 Y10.377
X8.062 Y9.504
G2 X8.625 Y8.996 I-2.128 J-2.923
G1 X9.866 Y7.613
G2 X10.104 Y7.316 I-2.507 J-2.251
X10.309 Y6.996 I-3.175 J-2.261
G1 X10.344 Y6.931
X10.378 Y6.866
X10.393 Y6.856
X10.409 Y6.861
X10.417 Y6.876
Y10.363
X10.41 Y10.39
X10.39 Y10.41
X10.363 Y10.417
X8.175
X8.155 Y10.423
X8.142 Y10.439
X8.129 Y10.455
X8.109 Y10.461
X6.759
X6.74 Y10.455
X6.728 Y10.438
Y10.418
X6.74 Y10.402
X8.038 Y9.471
G2 X8.595 Y8.969 I-2.104 J-2.891
G1 X9.836 Y7.586
G2 X10.071 Y7.292 I-2.507 J-2.25
X10.274 Y6.976 I-3.097 J-2.211
G1 X10.339 Y6.854
X10.404 Y6.732
X10.419 Y6.719
X10.438 Y6.718
X10.455 Y6.729
X10.461 Y6.747
Y10.382
X10.455 Y10.412
X10.438 Y10.438
X10.412 Y10.455
X10.382 Y10.461
X8.109
X8.092 Y10.466
X8.081 Y10.479
X8.07 Y10.493
X8.053 Y10.498
X6.613
X6.596 Y10.491
X6.591 Y10.474
X6.6 Y10.458
X8.014 Y9.438
G2 X8.564 Y8.941 I-2.08 J-2.858
G1 X9.806 Y7.558
G2 X10.241 Y6.957 I-2.63 J-2.361
G1 X10.35 Y6.759
X10.46 Y6.561
X10.474 Y6.551
X10.491 Y6.556
X10.498 Y6.571
Y10.445
X10.491 Y10.471
X10.471 Y10.491
X10.445 Y10.498
X8.053
X8.033 Y10.504
X8.02 Y10.52
X8.007 Y10.536
X7.987 Y10.542
X6.509
X6.49 Y10.536
X6.478 Y10.52
Y10.5
X6.49 Y10.483
X7.99 Y9.405
G2 X8.534 Y8.914 I-2.056 J-2.825
G1 X9.776 Y7.531
G2 X10.144 Y7.022 I-2.226 J-1.999
G1 X10.486 Y6.427
X10.5 Y6.414
X10.52 Y6.413
X10.536 Y6.424
X10.542 Y6.442
Y10.464
X10.536 Y10.494
X10.519 Y10.519
X10.494 Y10.536
X10.464 Y10.542
X7.987
X7.97 Y10.547
X7.959 Y10.561
X7.948 Y10.574
X7.931 Y10.579
X6.355
X6.339 Y10.572
X6.334 Y10.555
X6.343 Y10.54
X6.407 Y10.5
X6.469 Y10.458
X7.966 Y9.372
G2 X8.504 Y8.887 I-2.032 J-2.792
G1 X9.745 Y7.504
G2 X10.176 Y6.901 I-2.48 J-2.226
G3 X10.541 Y6.256 I52.081 J29.046
G1 X10.555 Y6.246
X10.572 Y6.251
X10.579 Y6.267
Y10.526
X10.572 Y10.553
X10.553 Y10.572
X10.526 Y10.579
X7.931
X7.911 Y10.585
X7.898 Y10.601
X7.885 Y10.617
X7.865 Y10.624
X6.236
X6.217 Y10.617
X6.206 Y10.601
X6.207 Y10.582
X6.22 Y10.567
G2 X7.093 Y9.97 I-5.709 J-9.293
G3 X7.942 Y9.339 I33.94 J44.84
G2 X8.474 Y8.86 I-2.008 J-2.759
G1 X9.715 Y7.477
G2 X10.177 Y6.822 I-2.539 J-2.28
G3 X10.567 Y6.122 I28.22 J15.277
G1 X10.582 Y6.109
X10.601 Y6.108
X10.617 Y6.119
X10.624 Y6.137
Y10.545
X10.618 Y10.575
X10.601 Y10.601
X10.575 Y10.618
X10.545 Y10.624
X7.865
X7.848 Y10.629
X7.837 Y10.642
X7.826 Y10.656
X7.809 Y10.661
X6.058
X6.043 Y10.653
X6.039 Y10.637
X6.049 Y10.623
X6.24 Y10.515
X6.423 Y10.395
X7.918 Y9.307
G2 X8.443 Y8.833 I-1.984 J-2.726
G1 X9.685 Y7.45
G2 X10.193 Y6.725 I-2.751 J-2.47
G3 X10.622 Y5.951 I26.392 J14.132
G1 X10.636 Y5.941
X10.653 Y5.946
X10.661 Y5.962
Y10.607
X10.653 Y10.634
X10.634 Y10.653
X10.607 Y10.661
X7.809
X7.79 Y10.667
X7.777 Y10.682
X7.764 Y10.698
X7.744 Y10.704
X5.911
X5.894 Y10.698
X5.884 Y10.682
X5.886 Y10.664
X5.899 Y10.651
G2 X6.156 Y10.518 I-2.536 J-5.182
X6.4 Y10.362 I-1.132 J-2.046
G1 X7.895 Y9.274
G2 X8.413 Y8.806 I-1.96 J-2.694
G1 X9.655 Y7.423
G2 X10.195 Y6.646 I-2.833 J-2.543
G3 X10.65 Y5.817 I21.642 J11.334
G1 X10.664 Y5.804
X10.682 Y5.803
X10.698 Y5.813
X10.704 Y5.831
Y10.628
X10.698 Y10.657
X10.682 Y10.682
X10.657 Y10.698
X10.628 Y10.704
X7.744
X7.728 Y10.709
X7.717 Y10.722
X7.706 Y10.735
X7.69 Y10.74
X5.701
X5.687 Y10.733
X5.684 Y10.718
X5.694 Y10.706
X5.737 Y10.688
X5.78 Y10.67
G2 X6.087 Y10.516 I-1.513 J-3.388
X6.376 Y10.33 I-1.45 J-2.575
G1 X7.871 Y9.242
G2 X8.384 Y8.779 I-1.937 J-2.662
G1 X9.625 Y7.396
G2 X10.031 Y6.836 I-2.45 J-2.199
X10.367 Y6.243 I-57.672 J-33.11
G3 X10.704 Y5.649 I58.009 J32.517
G1 X10.717 Y5.64
X10.733 Y5.644
X10.74 Y5.659
Y10.69
X10.733 Y10.715
X10.715 Y10.733
X10.69 Y10.74
X7.69
X7.671 Y10.746
X7.658 Y10.761
X7.645 Y10.777
X7.626 Y10.783
X5.541
X5.525 Y10.777
X5.515 Y10.762
X5.517 Y10.744
X5.53 Y10.732
X5.764 Y10.636
G2 X6.068 Y10.482 I-1.43 J-3.203
X6.353 Y10.298 I-1.497 J-2.634
G1 X7.848 Y9.21
G2 X8.355 Y8.753 I-1.914 J-2.63
G1 X9.596 Y7.37
G2 X9.996 Y6.817 I-2.42 J-2.173
X10.363 Y6.168 I-45.829 J-26.311
G3 X10.729 Y5.519 I46.195 J25.662
G1 X10.743 Y5.507
X10.762 Y5.506
X10.777 Y5.516
X10.783 Y5.533
Y10.708
X10.777 Y10.737
X10.761 Y10.761
X10.737 Y10.777
X10.708 Y10.783
X7.626
X7.609 Y10.788
X7.599 Y10.801
X7.588 Y10.814
X7.572 Y10.819
X5.331
X5.317 Y10.812
X5.313 Y10.797
X5.323 Y10.785
X5.749 Y10.602
G2 X6.33 Y10.266 I-1.31 J-2.934
G1 X7.825 Y9.178
G2 X8.325 Y8.727 I-1.891 J-2.598
G1 X9.567 Y7.344
G2 X9.962 Y6.797 I-2.391 J-2.146
G1 X10.783 Y5.353
X10.796 Y5.344
X10.812 Y5.348
X10.819 Y5.363
Y10.769
X10.812 Y10.794
X10.794 Y10.812
X10.769 Y10.819
X7.572
X7.552 Y10.825
X7.539 Y10.84
X7.527 Y10.856
X7.507 Y10.862
X5.171
X5.154 Y10.856
X5.145 Y10.841
X5.147 Y10.823
X5.16 Y10.81
G3 X5.748 Y10.552 I19.921 J44.605
G2 X6.307 Y10.234 I-1.146 J-2.66
G1 X7.802 Y9.146
G2 X8.296 Y8.7 I-1.867 J-2.566
G1 X9.537 Y7.317
G2 X9.928 Y6.777 I-2.361 J-2.12
X10.368 Y6 I-65.838 J-37.798
G3 X10.808 Y5.223 I66.278 J37.021
G1 X10.822 Y5.211
X10.841 Y5.21
X10.856 Y5.22
X10.862 Y5.237
Y10.787
X10.856 Y10.816
X10.84 Y10.84
X10.816 Y10.856
X10.787 Y10.862
X7.507
X7.491 Y10.867
X7.48 Y10.88
X7.47 Y10.893
X7.453 Y10.898
X4.961
X4.946 Y10.891
X4.943 Y10.876
X4.953 Y10.864
G3 X5.636 Y10.568 I13.755 J30.798
G2 X6.283 Y10.202 I-1.25 J-2.973
G1 X7.778 Y9.114
G2 X8.266 Y8.674 I-1.844 J-2.534
G1 X9.508 Y7.291
G2 X9.894 Y6.758 I-2.332 J-2.094
G3 X10.385 Y5.909 I117.663 J67.552
G2 X10.863 Y5.053 I-21.581 J-12.598
G1 X10.875 Y5.044
X10.891 Y5.047
X10.898 Y5.062
Y10.848
X10.891 Y10.873
X10.873 Y10.891
X10.848 Y10.898
X7.453
X7.434 Y10.904
X7.421 Y10.919
X7.408 Y10.935
X7.389 Y10.941
X4.801
X4.784 Y10.935
X4.775 Y10.92
X4.777 Y10.902
X4.79 Y10.889
G3 X5.544 Y10.568 I9.546 J21.375
G2 X6.26 Y10.171 I-1.264 J-3.119
G1 X7.755 Y9.082
G2 X8.237 Y8.648 I-1.821 J-2.502
G1 X9.479 Y7.265
G2 X9.86 Y6.738 I-2.303 J-2.067
G1 X10.783 Y5.123
X10.838 Y5.015
X10.889 Y4.905
X10.902 Y4.892
X10.92 Y4.89
X10.935 Y4.9
X10.941 Y4.917
Y10.866
X10.935 Y10.895
X10.919 Y10.919
X10.895 Y10.935
X10.866 Y10.941
X7.389
X7.373 Y10.946
X7.362 Y10.959
X7.351 Y10.972
X7.335 Y10.977
X4.59
X4.576 Y10.97
X4.573 Y10.955
X4.583 Y10.942
G3 X5.134 Y10.7 I21.092 J47.228
G2 X5.685 Y10.458 I-20.541 J-47.47
X6.237 Y10.139 I-1.246 J-2.79
G1 X7.732 Y9.051
G2 X8.208 Y8.621 I-1.798 J-2.47
G1 X9.449 Y7.238
G2 X9.825 Y6.718 I-2.273 J-2.041
G1 X10.752 Y5.105
X10.806 Y5.004
X10.855 Y4.9
X10.943 Y4.688
X10.955 Y4.678
X10.97 Y4.681
X10.977 Y4.694
Y10.927
X10.97 Y10.952
X10.952 Y10.97
X10.927 Y10.977
X7.335
X7.316 Y10.982
X7.304 Y10.997
X7.291 Y11.013
X7.273 Y11.018
X4.429
X4.414 Y11.013
X4.405 Y10.998
X4.407 Y10.982
X4.419 Y10.97
X5.669 Y10.423
G2 X6.214 Y10.107 I-1.23 J-2.754
G1 X7.709 Y9.019
G2 X8.179 Y8.595 I-1.775 J-2.439
G1 X9.421 Y7.212
G2 X9.792 Y6.699 I-2.245 J-2.015
G1 X10.718 Y5.086
G2 X10.861 Y4.789 I-1.985 J-1.139
X10.972 Y4.48 I-4.787 J-1.897
G1 X10.982 Y4.467
X10.998 Y4.464
X11.013 Y4.472
X11.018 Y4.487
Y10.949
X11.013 Y10.975
X10.998 Y10.998
X10.975 Y11.013
X10.949 Y11.018
X7.273
X7.257 Y11.023
X7.247 Y11.036
X7.236 Y11.048
X7.22 Y11.053
X4.226
X4.213 Y11.047
X4.21 Y11.032
X4.22 Y11.021
X5.654 Y10.388
G2 X6.192 Y10.076 I-1.214 J-2.719
G1 X7.687 Y8.988
G2 X8.151 Y8.57 I-1.752 J-2.408
G1 X9.392 Y7.187
G2 X9.759 Y6.68 I-2.216 J-1.99
G1 X10.685 Y5.067
G2 X10.935 Y4.502 I-2.583 J-1.483
G1 X10.979 Y4.357
X11.023 Y4.212
X11.033 Y4.202
X11.047 Y4.204
X11.053 Y4.217
Y11.007
X11.047 Y11.03
X11.03 Y11.047
X11.007 Y11.053
X7.22
X7.202 Y11.059
X7.189 Y11.074
X7.177 Y11.089
X7.158 Y11.095
X4.071
X4.055 Y11.089
X4.047 Y11.075
X4.049 Y11.058
X4.061 Y11.047
X5.638 Y10.353
G2 X6.169 Y10.046 I-1.199 J-2.685
G1 X7.664 Y8.958
G2 X8.122 Y8.544 I-1.73 J-2.377
G1 X9.364 Y7.161
G2 X9.726 Y6.661 I-2.188 J-1.964
G1 X10.652 Y5.048
G2 X10.878 Y4.532 I-2.257 J-1.296
G3 X11.049 Y3.997 I61.161 J19.232
G1 X11.059 Y3.984
X11.075 Y3.981
X11.089 Y3.989
X11.095 Y4.004
Y11.025
X11.089 Y11.052
X11.074 Y11.074
X11.052 Y11.089
X11.025 Y11.095
X7.158
X7.142 Y11.099
X7.132 Y11.112
X7.122 Y11.125
X7.106 Y11.129
X3.865
X3.852 Y11.123
X3.849 Y11.109
X3.858 Y11.098
X5.623 Y10.318
G2 X6.147 Y10.015 I-1.183 J-2.65
G1 X7.642 Y8.927
G2 X8.094 Y8.519 I-1.708 J-2.346
G1 X9.335 Y7.136
G2 X9.693 Y6.642 I-2.159 J-1.939
G1 X10.619 Y5.029
G2 X10.893 Y4.391 I-2.611 J-1.499
G3 X11.099 Y3.729 I28.597 J8.539
G1 X11.109 Y3.719
X11.123 Y3.721
X11.13 Y3.733
Y11.083
X11.123 Y11.106
X11.106 Y11.123
X11.083 Y11.129
X7.106
X7.087 Y11.135
X7.075 Y11.15
X7.062 Y11.165
X7.044 Y11.171
X3.678
X3.663 Y11.165
X3.655 Y11.151
X3.658 Y11.135
X3.67 Y11.125
X3.91 Y11.039
X5.607 Y10.283
G2 X6.124 Y9.984 I-1.168 J-2.615
G1 X7.619 Y8.896
G2 X8.065 Y8.493 I-1.685 J-2.315
G1 X9.307 Y7.11
G2 X9.659 Y6.623 I-2.131 J-1.913
G1 X10.586 Y5.01
G2 X10.894 Y4.275 I-2.808 J-1.612
G3 X11.125 Y3.513 I19.766 J5.57
G1 X11.135 Y3.501
X11.151 Y3.497
X11.165 Y3.505
X11.171 Y3.521
Y11.101
X11.166 Y11.128
X11.151 Y11.151
X11.128 Y11.166
X11.101 Y11.171
X7.044
X7.028 Y11.176
X7.018 Y11.188
X7.008 Y11.2
X6.993 Y11.205
X3.362
X3.351 Y11.199
X3.349 Y11.186
X3.359 Y11.178
G2 X3.632 Y11.105 I-0.786 J-3.51
X3.896 Y11.006 I-0.684 J-2.221
G1 X5.592 Y10.249
G2 X6.102 Y9.953 I-1.152 J-2.58
G1 X7.597 Y8.865
G2 X8.037 Y8.468 I-1.663 J-2.285
G1 X9.279 Y7.085
G2 X9.627 Y6.604 I-2.103 J-1.888
G1 X10.553 Y4.991
G2 X10.791 Y4.455 I-2.451 J-1.407
G1 X11.177 Y3.245
X11.186 Y3.236
X11.199 Y3.238
X11.205 Y3.249
Y11.162
X11.199 Y11.183
X11.183 Y11.199
X11.162 Y11.205
X6.993
X6.975 Y11.21
X6.963 Y11.225
X6.951 Y11.239
X6.933 Y11.245
X3.039
X3.026 Y11.24
X3.02 Y11.227
X3.023 Y11.214
X3.035 Y11.206
X3.324 Y11.154
G2 X3.88 Y10.973 I-0.581 J-2.728
G1 X5.577 Y10.215
G2 X6.08 Y9.924 I-1.137 J-2.547
G1 X7.576 Y8.836
G2 X8.01 Y8.444 I-1.641 J-2.255
G1 X9.251 Y7.061
G2 X9.595 Y6.586 I-2.075 J-1.863
G1 X10.521 Y4.972
G2 X10.756 Y4.444 I-2.419 J-1.389
X10.979 Y3.74 I-56.88 J-18.436
G3 X11.202 Y3.036 I57.103 J17.732
G1 X11.212 Y3.024
X11.226 Y3.021
X11.24 Y3.028
X11.245 Y3.043
Y11.18
X11.24 Y11.205
X11.226 Y11.226
X11.205 Y11.24
X11.18 Y11.245
X6.933
X6.918 Y11.249
X6.907 Y11.262
X6.897 Y11.274
X6.882 Y11.279
X2.656
X2.645 Y11.273
X2.644 Y11.261
X2.653 Y11.253
G3 X3.268 Y11.128 I7.218 J33.87
G2 X3.865 Y10.939 I-0.525 J-2.703
G1 X5.562 Y10.181
G2 X6.059 Y9.894 I-1.122 J-2.513
G1 X7.554 Y8.806
G2 X7.982 Y8.419 I-1.619 J-2.225
G1 X9.224 Y7.036
G2 X9.563 Y6.568 I-2.048 J-1.839
G1 X10.489 Y4.954
G2 X10.72 Y4.432 I-2.387 J-1.37
G1 X11.25 Y2.778
X11.26 Y2.769
X11.273 Y2.771
X11.279 Y2.782
Y11.235
X11.273 Y11.257
X11.257 Y11.273
X11.235 Y11.279
X6.882
X6.864 Y11.284
X6.852 Y11.299
X6.84 Y11.313
X6.822 Y11.319
X2.339
X2.325 Y11.314
X2.319 Y11.301
X2.323 Y11.288
X2.334 Y11.28
G3 X3.102 Y11.132 I4.046 J18.985
G2 X3.85 Y10.905 I-0.529 J-3.086
G1 X5.546 Y10.148
G2 X6.037 Y9.864 I-1.107 J-2.479
G1 X7.532 Y8.776
G2 X7.955 Y8.394 I-1.598 J-2.195
G1 X9.196 Y7.011
G2 X9.531 Y6.549 I-2.021 J-1.814
G1 X10.457 Y4.936
G2 X10.685 Y4.421 I-2.355 J-1.352
G3 X10.991 Y3.492 I94.878 J30.752
G2 X11.277 Y2.558 I-17.373 J-5.82
G1 X11.286 Y2.546
X11.3 Y2.542
X11.313 Y2.549
X11.319 Y2.563
Y11.254
X11.314 Y11.279
X11.3 Y11.3
X11.279 Y11.314
X11.254 Y11.319
X6.822
X6.807 Y11.323
X6.797 Y11.335
X6.788 Y11.347
X6.773 Y11.352
X1.955
X1.952 Y11.328
X3.301 Y11.046
G2 X3.836 Y10.872 I-0.558 J-2.62
G1 X5.532 Y10.114
G2 X6.016 Y9.834 I-1.092 J-2.446
G1 X7.511 Y8.746
G2 X7.928 Y8.37 I-1.576 J-2.166
G1 X9.169 Y6.987
G2 X9.499 Y6.531 I-1.993 J-1.79
G1 X10.426 Y4.918
G2 X10.651 Y4.41 I-2.323 J-1.334
G1 X11.217 Y2.662
G2 X11.287 Y2.39 I-2.141 J-0.694
X11.328 Y2.111 I-3.242 J-0.618
G1 X11.352 Y2.112
Y11.312
X11.346 Y11.332
X11.332 Y11.346
X11.312 Y11.352
X6.773
X6.755 Y11.357
X6.744 Y11.371
X6.732 Y11.385
X6.715 Y11.39
X1.647
X1.635 Y11.385
X1.629 Y11.374
X1.633 Y11.361
X1.644 Y11.354
X3.294 Y11.011
G2 X3.821 Y10.839 I-0.551 J-2.585
G1 X5.517 Y10.082
G2 X5.995 Y9.806 I-1.078 J-2.414
G1 X7.49 Y8.718
G2 X7.901 Y8.346 I-1.555 J-2.137
G1 X9.143 Y6.963
G2 X9.468 Y6.513 I-1.967 J-1.766
G1 X10.395 Y4.9
G2 X10.617 Y4.399 I-2.292 J-1.316
G1 X11.183 Y2.651
G2 X11.3 Y2.068 I-2.443 J-0.792
G3 X11.354 Y1.476 I28.402 J2.316
G1 X11.361 Y1.464
X11.373 Y1.46
X11.385 Y1.465
X11.39 Y1.478
Y11.33
X11.385 Y11.353
X11.372 Y11.372
X11.353 Y11.385
X11.33 Y11.39
X6.715
X6.702 Y11.394
X6.694 Y11.404
X6.685 Y11.415
X6.672 Y11.418
X1.214
X1.213 Y11.403
X1.283 Y11.396
X1.344 Y11.388
X1.413 Y11.376
X1.473 Y11.365
X3.287 Y10.979
G2 X3.807 Y10.809 I-0.544 J-2.553
G1 X5.504 Y10.052
G2 X5.975 Y9.779 I-1.064 J-2.383
G1 X7.47 Y8.691
G2 X7.877 Y8.324 I-1.536 J-2.11
G1 X9.118 Y6.941
G2 X9.439 Y6.497 I-1.942 J-1.744
G1 X10.366 Y4.883
G2 X10.585 Y4.388 I-2.263 J-1.3
G1 X11.152 Y2.641
G2 X11.265 Y2.102 I-2.483 J-0.805
G1 X11.403 Y0.72
X11.418
Y11.393
X11.411 Y11.411
X11.393 Y11.418
X6.672
X6.655 Y11.424
X6.643 Y11.438
X6.632 Y11.452
X6.614 Y11.457
X-11.407
X-11.432 Y11.451
X-11.451 Y11.432
X-11.457 Y11.407
Y-11.407
X-11.451 Y-11.432
X-11.432 Y-11.451
X-11.407 Y-11.457
X11.407
X11.432 Y-11.451
X11.451 Y-11.432
X11.457 Y-11.407
Y11.407
X11.451 Y11.432
X11.432 Y11.451
X11.407 Y11.457
X6.614
X6.594 Y11.463
X6.581 Y11.479
X6.568 Y11.495
X6.548 Y11.501
X-11.424
X-11.454 Y11.495
X-11.479 Y11.479
X-11.495 Y11.454
X-11.501 Y11.424
Y-11.424
X-11.495 Y-11.454
X-11.479 Y-11.479
X-11.454 Y-11.496
X-11.424 Y-11.501
X11.424
X11.454 Y-11.495
X11.479 Y-11.479
X11.495 Y-11.454
X11.501 Y-11.424
Y11.424
X11.495 Y11.454
X11.479 Y11.479
X11.454 Y11.495
X11.424 Y11.501
X6.548
X6.528 Y11.507
X6.514 Y11.524
X6.501 Y11.54
X6.48 Y11.547
X-11.466
X-11.497 Y11.54
X-11.523 Y11.523
X-11.54 Y11.497
X-11.547 Y11.466
Y-11.466
X-11.54 Y-11.497
X-11.523 Y-11.523
X-11.497 Y-11.541
X-11.466 Y-11.547
X11.466
X11.497 Y-11.54
X11.523 Y-11.523
X11.54 Y-11.497
X11.547 Y-11.466
Y11.466
X11.54 Y11.497
X11.523 Y11.523
X11.497 Y11.54
X11.466 Y11.547
X6.48
X6.454 Y11.554
X6.437 Y11.575
X6.42 Y11.596
X6.394 Y11.604
X-11.483
X-11.52 Y11.598
X-11.554 Y11.581
X-11.581 Y11.554
X-11.598 Y11.52
X-11.604 Y11.483
Y-11.483
X-11.598 Y-11.52
X-11.581 Y-11.554
X-11.554 Y-11.581
X-11.52 Y-11.598
X-11.483 Y-11.604
X11.483
X11.52 Y-11.598
X11.554 Y-11.581
X11.581 Y-11.554
X11.598 Y-11.52
X11.604 Y-11.483
Y11.483
X11.598 Y11.52
X11.581 Y11.554
X11.554 Y11.581
X11.52 Y11.598
X11.483 Y11.604
X6.394
X6.374 Y11.61
X6.36 Y11.627
X6.346 Y11.643
X6.325 Y11.65
X-11.569
X-11.6 Y11.644
X-11.626 Y11.626
X-11.644 Y11.6
X-11.65 Y11.569
Y-11.569
X-11.644 Y-11.6
X-11.626 Y-11.626
X-11.6 Y-11.644
X-11.569 Y-11.65
X11.569
X11.6 Y-11.644
X11.626 Y-11.626
X11.644 Y-11.6
X11.65 Y-11.569
Y11.569
X11.644 Y11.6
X11.626 Y11.626
X11.6 Y11.644
X11.569 Y11.65
X6.325
X6.3 Y11.658
X6.282 Y11.678
X6.265 Y11.699
X6.239 Y11.707
X-11.586
X-11.623 Y11.701
X-11.657 Y11.684
X-11.684 Y11.657
X-11.701 Y11.623
X-11.707 Y11.586
Y-11.586
X-11.701 Y-11.624
X-11.684 Y-11.657
X-11.657 Y-11.684
X-11.623 Y-11.701
X-11.586 Y-11.707
X11.586
X11.623 Y-11.701
X11.657 Y-11.684
X11.684 Y-11.657
X11.701 Y-11.623
X11.707 Y-11.586
Y11.586
X11.701 Y11.623
X11.684 Y11.657
X11.657 Y11.684
X11.623 Y11.701
X11.586 Y11.707
X6.239
X6.219 Y11.713
X6.205 Y11.73
X6.191 Y11.747
X6.171 Y11.753
X-11.672
X-11.703 Y11.747
X-11.729 Y11.729
X-11.747 Y11.703
X-11.753 Y11.672
Y-11.672
X-11.747 Y-11.703
X-11.729 Y-11.729
X-11.703 Y-11.747
X-11.672 Y-11.753
X11.672
X11.703 Y-11.747
X11.729 Y-11.729
X11.747 Y-11.703
X11.753 Y-11.672
Y11.672
X11.747 Y11.703
X11.729 Y11.729
X11.703 Y11.747
X11.672 Y11.753
X6.171
X6.145 Y11.761
X6.128 Y11.782
X6.11 Y11.802
X6.085 Y11.81
X-11.689
X-11.727 Y11.804
X-11.76 Y11.787
X-11.787 Y11.76
X-11.804 Y11.727
X-11.81 Y11.689
Y-11.689
X-11.804 Y-11.727
X-11.787 Y-11.761
X-11.76 Y-11.787
X-11.727 Y-11.805
X-11.689 Y-11.81
X11.689
X11.727 Y-11.804
X11.76 Y-11.787
X11.787 Y-11.76
X11.804 Y-11.727
X11.81 Y-11.689
Y11.689
X11.804 Y11.727
X11.787 Y11.76
X11.76 Y11.787
X11.727 Y11.804
X11.689 Y11.81
X6.085
X6.064 Y11.817
X6.05 Y11.833
X6.036 Y11.85
X6.016 Y11.856
X-11.775
X-11.806 Y11.85
X-11.833 Y11.833
X-11.85 Y11.806
X-11.856 Y11.775
Y-11.776
X-11.85 Y-11.807
X-11.833 Y-11.833
X-11.806 Y-11.85
X-11.775 Y-11.856
X11.775
X11.806 Y-11.85
X11.833 Y-11.833
X11.85 Y-11.806
X11.856 Y-11.775
Y11.775
X11.85 Y11.806
X11.833 Y11.833
X11.806 Y11.85
X11.775 Y11.856
X6.016
X5.99 Y11.864
X5.973 Y11.885
X5.956 Y11.906
X5.93 Y11.914
X-11.792
X-11.83 Y11.908
X-11.864 Y11.89
X-11.89 Y11.864
X-11.908 Y11.83
X-11.914 Y11.792
Y-11.793
X-11.908 Y-11.83
X-11.89 Y-11.864
X-11.864 Y-11.891
X-11.83 Y-11.908
X-11.792 Y-11.914
X11.792
X11.83 Y-11.908
X11.864 Y-11.89
X11.89 Y-11.864
X11.908 Y-11.83
X11.914 Y-11.792
Y11.792
X11.908 Y11.83
X11.89 Y11.864
X11.864 Y11.89
X11.83 Y11.908
X11.792 Y11.914
X5.93
X5.909 Y11.92
X5.895 Y11.936
X5.882 Y11.953
X5.861 Y11.959
X-11.879
X-11.91 Y11.953
X-11.936 Y11.936
X-11.953 Y11.91
X-11.959 Y11.879
Y-11.879
X-11.953 Y-11.91
X-11.936 Y-11.936
X-11.91 Y-11.953
X-11.879 Y-11.96
X11.879 Y-11.959
X11.91 Y-11.953
X11.936 Y-11.936
X11.953 Y-11.91
X11.959 Y-11.879
Y11.879
X11.953 Y11.91
X11.936 Y11.936
X11.91 Y11.953
X11.879 Y11.959
X5.861
X5.835 Y11.967
X5.818 Y11.988
X5.801 Y12.009
X5.775 Y12.017
X-11.896
X-11.933 Y12.011
X-11.967 Y11.994
X-11.994 Y11.967
X-12.011 Y11.933
X-12.017 Y11.896
Y-11.896
X-12.011 Y-11.933
X-11.994 Y-11.967
X-11.967 Y-11.994
X-11.933 Y-12.011
X-11.896 Y-12.017
X11.896
X11.933 Y-12.011
X11.967 Y-11.994
X11.994 Y-11.967
X12.011 Y-11.933
X12.017 Y-11.896
Y11.896
X12.011 Y11.933
X11.994 Y11.967
X11.967 Y11.994
X11.933 Y12.011
X11.896 Y12.017
X5.775
X5.754 Y12.023
X5.741 Y12.04
X5.727 Y12.056
X5.706 Y12.063
X-11.982
X-12.013 Y12.057
X-12.039 Y12.039
X-12.057 Y12.013
X-12.063 Y11.982
Y-11.982
X-12.057 Y-12.013
X-12.039 Y-12.039
X-12.013 Y-12.057
X-11.982 Y-12.063
X11.982
X12.013 Y-12.057
X12.039 Y-12.039
X12.057 Y-12.013
X12.063 Y-11.982
Y11.982
X12.057 Y12.013
X12.039 Y12.039
X12.013 Y12.057
X11.982 Y12.063
X5.706
X5.68 Y12.07
X5.663 Y12.091
X5.646 Y12.112
X5.62 Y12.12
X-11.999
X-12.036 Y12.114
X-12.07 Y12.097
X-12.097 Y12.07
X-12.114 Y12.036
X-12.12 Y11.999
Y-11.999
X-12.114 Y-12.036
X-12.097 Y-12.07
X-12.07 Y-12.097
X-12.036 Y-12.114
X-11.999 Y-12.12
X11.999
X12.036 Y-12.114
X12.07 Y-12.097
X12.097 Y-12.07
X12.114 Y-12.036
X12.12 Y-11.999
Y11.999
X12.114 Y12.036
X12.097 Y12.07
X12.07 Y12.097
X12.036 Y12.114
X11.999 Y12.12
X5.62
X5.599 Y12.126
X5.586 Y12.143
X5.572 Y12.16
X5.551 Y12.166
X-12.085
X-12.116 Y12.16
X-12.142 Y12.142
X-12.16 Y12.116
X-12.166 Y12.085
Y-12.085
X-12.16 Y-12.116
X-12.142 Y-12.142
X-12.116 Y-12.16
X-12.085 Y-12.166
X12.085
X12.116 Y-12.16
X12.142 Y-12.142
X12.16 Y-12.116
X12.166 Y-12.085
Y12.085
X12.16 Y12.116
X12.142 Y12.142
X12.116 Y12.16
X12.085 Y12.166
X5.551
X5.525 Y12.174
X5.508 Y12.195
X5.491 Y12.215
X5.465 Y12.223
X-12.102
X-12.139 Y12.217
X-12.173 Y12.2
X-12.2 Y12.173
X-12.217 Y12.139
X-12.223 Y12.102
Y-12.102
X-12.217 Y-12.14
X-12.2 Y-12.173
X-12.173 Y-12.2
X-12.139 Y-12.217
X-12.102 Y-12.223
X12.102
X12.139 Y-12.217
X12.173 Y-12.2
X12.2 Y-12.173
X12.217 Y-12.139
X12.223 Y-12.102
Y12.102
X12.217 Y12.139
X12.2 Y12.173
X12.173 Y12.2
X12.139 Y12.217
X12.102 Y12.223
X5.465
X5.445 Y12.229
X5.431 Y12.246
X5.417 Y12.263
X5.396 Y12.269
X-12.188
X-12.219 Y12.263
X-12.245 Y12.245
X-12.263 Y12.219
X-12.269 Y12.188
Y-12.188
X-12.263 Y-12.219
X-12.245 Y-12.246
X-12.219 Y-12.263
X-12.188 Y-12.269
X12.188
X12.219 Y-12.263
X12.245 Y-12.245
X12.263 Y-12.219
X12.269 Y-12.188
Y12.188
X12.263 Y12.219
X12.245 Y12.245
X12.219 Y12.263
X12.188 Y12.269
X5.396
X5.371 Y12.277
X5.353 Y12.298
X5.336 Y12.319
X5.31 Y12.326
X-12.205
X-12.243 Y12.32
X-12.276 Y12.303
X-12.303 Y12.276
X-12.32 Y12.243
X-12.326 Y12.205
Y-12.205
X-12.32 Y-12.243
X-12.303 Y-12.277
X-12.276 Y-12.303
X-12.243 Y-12.321
X-12.205 Y-12.327
X12.205 Y-12.326
X12.243 Y-12.32
X12.276 Y-12.303
X12.303 Y-12.276
X12.32 Y-12.243
X12.326 Y-12.205
Y12.205
X12.32 Y12.243
X12.303 Y12.276
X12.276 Y12.303
X12.243 Y12.32
X12.205 Y12.326
X5.31
X5.29 Y12.333
X5.276 Y12.349
X5.262 Y12.366
X5.242 Y12.372
X-12.292
X-12.322 Y12.366
X-12.349 Y12.349
X-12.366 Y12.322
X-12.372 Y12.292
Y-12.292
X-12.366 Y-12.323
X-12.349 Y-12.349
X-12.322 Y-12.366
X-12.292 Y-12.372
X12.292
X12.322 Y-12.366
X12.349 Y-12.349
X12.366 Y-12.322
X12.372 Y-12.292
Y12.292
X12.366 Y12.322
X12.349 Y12.349
X12.322 Y12.366
X12.292 Y12.372
X5.242
X5.216 Y12.38
X5.199 Y12.401
X5.181 Y12.422
X5.156 Y12.43
X-12.308
X-12.346 Y12.424
X-12.38 Y12.406
X-12.406 Y12.38
X-12.424 Y12.346
X-12.43 Y12.308
Y-12.309
X-12.424 Y-12.346
X-12.406 Y-12.38
X-12.38 Y-12.407
X-12.346 Y-12.424
X-12.308 Y-12.43
X12.308
X12.346 Y-12.424
X12.38 Y-12.406
X12.406 Y-12.38
X12.424 Y-12.346
X12.43 Y-12.308
Y12.308
X12.424 Y12.346
X12.406 Y12.38
X12.38 Y12.406
X12.346 Y12.424
X12.308 Y12.43
X5.156
X5.135 Y12.436
X5.121 Y12.453
X5.107 Y12.469
X5.087 Y12.476
X-12.395
X-12.426 Y12.469
X-12.452 Y12.452
X-12.469 Y12.426
X-12.476 Y12.395
Y-12.395
X-12.469 Y-12.426
X-12.452 Y-12.452
X-12.426 Y-12.47
X-12.395 Y-12.476
X12.395
X12.426 Y-12.469
X12.452 Y-12.452
X12.469 Y-12.426
X12.476 Y-12.395
Y12.395
X12.469 Y12.426
X12.452 Y12.452
X12.426 Y12.469
X12.395 Y12.476
X5.087
X5.061 Y12.483
X5.044 Y12.504
X5.027 Y12.525
X5.001 Y12.533
X-12.412
X-12.449 Y12.527
X-12.483 Y12.51
X-12.51 Y12.483
X-12.527 Y12.449
X-12.533 Y12.412
Y-12.412
X-12.527 Y-12.449
X-12.51 Y-12.483
X-12.483 Y-12.51
X-12.449 Y-12.527
X-12.412 Y-12.533
X12.412
X12.449 Y-12.527
X12.483 Y-12.51
X12.51 Y-12.483
X12.527 Y-12.449
X12.533 Y-12.412
Y12.412
X12.527 Y12.449
X12.51 Y12.483
X12.483 Y12.51
X12.449 Y12.527
X12.412 Y12.533
X5.001
X4.98 Y12.539
X4.966 Y12.556
X4.953 Y12.572
X4.932 Y12.579
X-12.498
X-12.529 Y12.573
X-12.555 Y12.555
X-12.573 Y12.529
X-12.579 Y12.498
Y-12.498
X-12.573 Y-12.529
X-12.555 Y-12.555
X-12.529 Y-12.573
X-12.498 Y-12.579
X12.498
X12.529 Y-12.573
X12.555 Y-12.555
X12.573 Y-12.529
X12.579 Y-12.498
Y12.498
X12.573 Y12.529
X12.555 Y12.555
X12.529 Y12.573
X12.498 Y12.579
X4.932
X4.906 Y12.587
X4.889 Y12.607
X4.872 Y12.628
X4.846 Y12.636
X-12.515
X-12.552 Y12.63
X-12.586 Y12.613
X-12.613 Y12.586
X-12.63 Y12.552
X-12.636 Y12.515
Y-12.515
X-12.63 Y-12.553
X-12.613 Y-12.586
X-12.586 Y-12.613
X-12.552 Y-12.63
X-12.515 Y-12.636
X12.515
X12.552 Y-12.63
X12.586 Y-12.613
X12.613 Y-12.586
X12.63 Y-12.552
X12.636 Y-12.515
Y12.515
X12.63 Y12.552
X12.613 Y12.586
X12.586 Y12.613
X12.552 Y12.63
X12.515 Y12.636
X4.846
X4.825 Y12.642
X4.812 Y12.659
X4.798 Y12.676
X4.777 Y12.682
X-12.601
X-12.632 Y12.676
X-12.658 Y12.658
X-12.676 Y12.632
X-12.682 Y12.601
Y-12.601
X-12.676 Y-12.632
X-12.658 Y-12.658
X-12.632 Y-12.676
X-12.601 Y-12.682
X12.601
X12.632 Y-12.676
X12.658 Y-12.658
X12.676 Y-12.632
X12.682 Y-12.601
Y12.601
X12.676 Y12.632
X12.658 Y12.658
X12.632 Y12.676
X12.601 Y12.682
X4.777
X4.751 Y12.69
X4.734 Y12.711
X4.717 Y12.731
X4.691 Y12.739
X-12.618
X-12.656 Y12.733
X-12.689 Y12.716
X-12.716 Y12.689
X-12.733 Y12.656
X-12.739 Y12.618
Y-12.618
X-12.733 Y-12.656
