%
(1001)
(T1  D=3 CR=0 TAPER=20deg - ZMIN=-2 - chamfer mill)
G90 G94
G17
G21
G28 G91 Z0
G90

(Contour1)
M9
T1 M6
S500 M3
G54
M8
G0 X14.571 Y7.947
Z11
Z0.083
G1 Z-1.025 F1000
G3 X14.059 Y7.735 I-0.212 J-0.212
G1 Y-13.988 F80
Y-14.004
X14.058 Y-14.008
Y-14.013
X14.057 Y-14.017
X14.055 Y-14.021
X14.053 Y-14.025
X14.051 Y-14.03
X14.049 Y-14.032
X14.048 Y-14.035
X14.046 Y-14.037
X14.044 Y-14.039
X14.042 Y-14.042
X14.039 Y-14.044
X14.036 Y-14.047
X14.032 Y-14.05
X14.029 Y-14.052
X14.025 Y-14.053
X14.021 Y-14.055
X14.017 Y-14.057
X14.013 Y-14.058
X14.008
X14.004 Y-14.059
X13.988
X-13.988
X-14.004
X-14.008 Y-14.058
X-14.013
X-14.017 Y-14.057
X-14.021 Y-14.055
X-14.025 Y-14.053
X-14.029 Y-14.052
X-14.032 Y-14.05
X-14.036 Y-14.047
X-14.039 Y-14.044
X-14.042 Y-14.042
X-14.044 Y-14.039
X-14.046 Y-14.037
X-14.048 Y-14.035
X-14.049 Y-14.032
X-14.051 Y-14.03
X-14.053 Y-14.025
X-14.055 Y-14.021
X-14.057 Y-14.017
X-14.058 Y-14.013
Y-14.008
X-14.059 Y-14.004
Y-13.988
Y13.988
Y14.004
X-14.058 Y14.008
Y14.013
X-14.057 Y14.017
X-14.055 Y14.021
X-14.053 Y14.025
X-14.051 Y14.03
X-14.049 Y14.032
X-14.048 Y14.035
X-14.046 Y14.037
X-14.044 Y14.039
X-14.042 Y14.042
X-14.039 Y14.044
X-14.036 Y14.047
X-14.032 Y14.05
X-14.029 Y14.052
X-14.025 Y14.053
X-14.021 Y14.055
X-14.017 Y14.057
X-14.013 Y14.058
X-14.008
X-14.004 Y14.059
X-13.988
X13.988
X14.004
X14.008 Y14.058
X14.013
X14.017 Y14.057
X14.021 Y14.055
X14.025 Y14.053
X14.029 Y14.052
X14.032 Y14.05
X14.036 Y14.047
X14.039 Y14.044
X14.042 Y14.042
X14.044 Y14.039
X14.046 Y14.037
X14.048 Y14.035
X14.049 Y14.032
X14.051 Y14.03
X14.053 Y14.025
X14.055 Y14.021
X14.057 Y14.017
X14.058 Y14.013
Y14.008
X14.059 Y14.004
Y13.988
Y7.735
Y-13.988
Y-14.004
X14.058 Y-14.008
Y-14.013
X14.057 Y-14.017
X14.055 Y-14.021
X14.053 Y-14.025
X14.051 Y-14.03
X14.049 Y-14.032
X14.048 Y-14.035
X14.046 Y-14.037
X14.044 Y-14.039
X14.042 Y-14.042
X14.039 Y-14.044
X14.036 Y-14.047
X14.032 Y-14.05
X14.029 Y-14.052
X14.025 Y-14.053
X14.021 Y-14.055
X14.017 Y-14.057
X14.013 Y-14.058
X14.008
X14.004 Y-14.059
X13.988
X-13.988
X-14.004
X-14.008 Y-14.058
X-14.013
X-14.017 Y-14.057
X-14.021 Y-14.055
X-14.025 Y-14.053
X-14.029 Y-14.052
X-14.032 Y-14.05
X-14.036 Y-14.047
X-14.039 Y-14.044
X-14.042 Y-14.042
X-14.044 Y-14.039
X-14.046 Y-14.037
X-14.048 Y-14.035
X-14.049 Y-14.032
X-14.051 Y-14.03
X-14.053 Y-14.025
X-14.055 Y-14.021
X-14.057 Y-14.017
X-14.058 Y-14.013
Y-14.008
X-14.059 Y-14.004
Y-13.988
Y13.988
Y14.004
X-14.058 Y14.008
Y14.013
X-14.057 Y14.017
X-14.055 Y14.021
X-14.053 Y14.025
X-14.051 Y14.03
X-14.049 Y14.032
X-14.048 Y14.035
X-14.046 Y14.037
X-14.044 Y14.039
X-14.042 Y14.042
X-14.039 Y14.044
X-14.036 Y14.047
X-14.032 Y14.05
X-14.029 Y14.052
X-14.025 Y14.053
X-14.021 Y14.055
X-14.017 Y14.057
X-14.013 Y14.058
X-14.008
X-14.004 Y14.059
X-13.988
X13.988
X14.004
X14.008 Y14.058
X14.013
X14.017 Y14.057
X14.021 Y14.055
X14.025 Y14.053
X14.029 Y14.052
X14.032 Y14.05
X14.036 Y14.047
X14.039 Y14.044
X14.042 Y14.042
X14.044 Y14.039
X14.046 Y14.037
X14.048 Y14.035
X14.049 Y14.032
X14.051 Y14.03
X14.053 Y14.025
X14.055 Y14.021
X14.057 Y14.017
X14.058 Y14.013
Y14.008
X14.059 Y14.004
Y13.988
Y7.735
Y7.713
Y7.691
Y7.648
Y7.605
Y7.562 Z-1.026
X14.06 Y7.518
Y7.475 Z-1.027
Y7.432
Y7.388 Z-1.028
Y7.345 Z-1.029
X14.061 Y7.302 Z-1.03
Y7.258 Z-1.031
Y7.215 Z-1.032
X14.062 Y7.172 Z-1.033
Y7.128 Z-1.034
X14.063 Y7.085 Z-1.035
Y7.042 Z-1.036
X14.064 Y6.998 Z-1.037
Y6.955 Z-1.039
X14.065 Y6.912 Z-1.04
Y6.869 Z-1.041
X14.066 Y6.825 Z-1.043
Y6.782 Z-1.044
X14.079 Y5.742 Z-1.081
X14.08 Y5.699 Z-1.082
Y5.656 Z-1.084
X14.081 Y5.612 Z-1.085
Y5.569 Z-1.086
X14.082 Y5.526 Z-1.088
Y5.483 Z-1.089
X14.083 Y5.439 Z-1.09
Y5.396 Z-1.091
X14.084 Y5.353 Z-1.093
Y5.309 Z-1.094
Y5.266 Z-1.095
X14.085 Y5.223
Y5.179 Z-1.096
Y5.136 Z-1.097
X14.086 Y5.093 Z-1.098
Y5.049
Y5.006 Z-1.099
Y4.963
Y4.919 Z-1.1
Y4.876
Y4.833
Y4.799
Y4.794
Y-13.988
Y-14.006
X14.085 Y-14.013
X14.084 Y-14.021
X14.083 Y-14.025
X14.081 Y-14.029
X14.08 Y-14.033
X14.078 Y-14.037
X14.076 Y-14.041
X14.074 Y-14.045
X14.071 Y-14.049
X14.068 Y-14.053
X14.064 Y-14.057
X14.061 Y-14.062
X14.057 Y-14.065
X14.053 Y-14.068
X14.049 Y-14.071
X14.045 Y-14.074
X14.041 Y-14.076
X14.037 Y-14.078
X14.033 Y-14.08
X14.029 Y-14.081
X14.025 Y-14.083
X14.021 Y-14.084
X14.013 Y-14.085
X14.006 Y-14.086
X13.988
X-13.988
X-14.006
X-14.013 Y-14.085
X-14.021 Y-14.084
X-14.025 Y-14.083
X-14.029 Y-14.081
X-14.033 Y-14.08
X-14.037 Y-14.078
X-14.041 Y-14.076
X-14.045 Y-14.074
X-14.049 Y-14.071
X-14.053 Y-14.068
X-14.057 Y-14.065
X-14.061 Y-14.062
X-14.064 Y-14.057
X-14.068 Y-14.053
X-14.071 Y-14.049
X-14.074 Y-14.045
X-14.076 Y-14.041
X-14.078 Y-14.037
X-14.08 Y-14.033
X-14.081 Y-14.029
X-14.083 Y-14.025
X-14.084 Y-14.021
X-14.085 Y-14.013
X-14.086 Y-14.006
Y-13.988
Y13.988
Y14.006
X-14.085 Y14.013
X-14.084 Y14.021
X-14.083 Y14.025
X-14.081 Y14.029
X-14.08 Y14.033
X-14.078 Y14.037
X-14.076 Y14.041
X-14.074 Y14.045
X-14.071 Y14.049
X-14.068 Y14.053
X-14.064 Y14.057
X-14.061 Y14.062
X-14.057 Y14.065
X-14.053 Y14.068
X-14.049 Y14.071
X-14.045 Y14.074
X-14.041 Y14.076
X-14.037 Y14.078
X-14.033 Y14.08
X-14.029 Y14.081
X-14.025 Y14.083
X-14.021 Y14.084
X-14.013 Y14.085
X-14.006 Y14.086
X-13.988
X13.988
X14.006
X14.013 Y14.085
X14.021 Y14.084
X14.025 Y14.083
X14.029 Y14.081
X14.033 Y14.08
X14.037 Y14.078
X14.041 Y14.076
X14.045 Y14.074
X14.049 Y14.071
X14.053 Y14.068
X14.057 Y14.065
X14.061 Y14.062
X14.064 Y14.057
X14.068 Y14.053
X14.071 Y14.049
X14.074 Y14.045
X14.076 Y14.041
X14.078 Y14.037
X14.08 Y14.033
X14.081 Y14.029
X14.083 Y14.025
X14.084 Y14.021
X14.085 Y14.013
X14.086 Y14.006
Y13.988
Y7.735
Y4.794
Y-13.988
Y-14.006
X14.085 Y-14.013
X14.084 Y-14.021
X14.083 Y-14.025
X14.081 Y-14.029
X14.08 Y-14.033
X14.078 Y-14.037
X14.076 Y-14.041
X14.074 Y-14.045
X14.071 Y-14.049
X14.068 Y-14.053
X14.064 Y-14.057
X14.061 Y-14.062
X14.057 Y-14.065
X14.053 Y-14.068
X14.049 Y-14.071
X14.045 Y-14.074
X14.041 Y-14.076
X14.037 Y-14.078
X14.033 Y-14.08
X14.029 Y-14.081
X14.025 Y-14.083
X14.021 Y-14.084
X14.013 Y-14.085
X14.006 Y-14.086
X13.988
X-13.988
X-14.006
X-14.013 Y-14.085
X-14.021 Y-14.084
X-14.025 Y-14.083
X-14.029 Y-14.081
X-14.033 Y-14.08
X-14.037 Y-14.078
X-14.041 Y-14.076
X-14.045 Y-14.074
X-14.049 Y-14.071
X-14.053 Y-14.068
X-14.057 Y-14.065
X-14.061 Y-14.062
X-14.064 Y-14.057
X-14.068 Y-14.053
X-14.071 Y-14.049
X-14.074 Y-14.045
X-14.076 Y-14.041
X-14.078 Y-14.037
X-14.08 Y-14.033
X-14.081 Y-14.029
X-14.083 Y-14.025
X-14.084 Y-14.021
X-14.085 Y-14.013
X-14.086 Y-14.006
Y-13.988
Y13.988
Y14.006
X-14.085 Y14.013
X-14.084 Y14.021
X-14.083 Y14.025
X-14.081 Y14.029
X-14.08 Y14.033
X-14.078 Y14.037
X-14.076 Y14.041
X-14.074 Y14.045
X-14.071 Y14.049
X-14.068 Y14.053
X-14.064 Y14.057
X-14.061 Y14.062
X-14.057 Y14.065
X-14.053 Y14.068
X-14.049 Y14.071
X-14.045 Y14.074
X-14.041 Y14.076
X-14.037 Y14.078
X-14.033 Y14.08
X-14.029 Y14.081
X-14.025 Y14.083
X-14.021 Y14.084
X-14.013 Y14.085
X-14.006 Y14.086
X-13.988
X13.988
X14.006
X14.013 Y14.085
X14.021 Y14.084
X14.025 Y14.083
X14.029 Y14.081
X14.033 Y14.08
X14.037 Y14.078
X14.041 Y14.076
X14.045 Y14.074
X14.049 Y14.071
X14.053 Y14.068
X14.057 Y14.065
X14.061 Y14.062
X14.064 Y14.057
X14.068 Y14.053
X14.071 Y14.049
X14.074 Y14.045
X14.076 Y14.041
X14.078 Y14.037
X14.08 Y14.033
X14.081 Y14.029
X14.083 Y14.025
X14.084 Y14.021
X14.085 Y14.013
X14.086 Y14.006
Y13.988
Y7.735
Y4.794
Y4.773
Y4.751
Y4.708
X14.087 Y4.664
Y4.621 Z-1.101
Y4.578
Y4.534
Y4.491 Z-1.102
Y4.448
Y4.405 Z-1.103
X14.088 Y4.361 Z-1.104
Y4.318
Y4.275 Z-1.105
X14.089 Y4.231 Z-1.106
Y4.188 Z-1.107
Y4.145 Z-1.108
X14.09 Y4.101 Z-1.109
Y4.058 Z-1.11
Y4.015 Z-1.111
X14.091 Y3.971 Z-1.112
Y3.928 Z-1.113
X14.092 Y3.885 Z-1.114
Y3.841 Z-1.116
X14.093 Y3.798 Z-1.117
Y3.755 Z-1.118
X14.094 Y3.712 Z-1.12
Y3.668 Z-1.121
X14.095 Y3.625 Z-1.122
Y3.582 Z-1.124
X14.096 Y3.538 Z-1.125
X14.114 Y2.109 Z-1.175
Y2.066 Z-1.177
X14.115 Y2.022 Z-1.178
Y1.979 Z-1.18
X14.116 Y1.936 Z-1.181
Y1.892 Z-1.182
X14.117 Y1.849 Z-1.184
Y1.806 Z-1.185
X14.118 Y1.762 Z-1.186
Y1.719 Z-1.187
X14.119 Y1.676 Z-1.189
Y1.633 Z-1.19
Y1.589 Z-1.191
X14.12 Y1.546 Z-1.192
Y1.503 Z-1.193
Y1.459 Z-1.194
X14.121 Y1.416 Z-1.195
Y1.373
Y1.329 Z-1.196
X14.122 Y1.286 Z-1.197
Y1.243
Y1.199 Z-1.198
Y1.156
Y1.113 Z-1.199
X14.123 Y1.069
Y1.026 Z-1.2
Y0.983
Y0.94
Y0.885
Y0.874
Y-13.988
Y-14.004
X14.122 Y-14.013
X14.121 Y-14.021
X14.119 Y-14.03
X14.117 Y-14.036
X14.115 Y-14.042
X14.113 Y-14.048
X14.111 Y-14.053
X14.106 Y-14.062
X14.101 Y-14.07
X14.095 Y-14.078
X14.087 Y-14.086
X14.086 Y-14.087
X14.078 Y-14.095
X14.07 Y-14.101
X14.062 Y-14.106
X14.053 Y-14.111
X14.048 Y-14.113
X14.042 Y-14.115
X14.036 Y-14.117
X14.03 Y-14.119
X14.021 Y-14.121
X14.013 Y-14.122
X14.004 Y-14.123
X13.988
X-13.988
X-14.004
X-14.013 Y-14.122
X-14.021 Y-14.121
X-14.03 Y-14.119
X-14.036 Y-14.117
X-14.042 Y-14.115
X-14.048 Y-14.113
X-14.053 Y-14.111
X-14.062 Y-14.106
X-14.07 Y-14.101
X-14.078 Y-14.095
X-14.086 Y-14.087
X-14.087 Y-14.086
X-14.095 Y-14.078
X-14.101 Y-14.07
X-14.106 Y-14.062
X-14.111 Y-14.053
X-14.113 Y-14.048
X-14.115 Y-14.042
X-14.117 Y-14.036
X-14.119 Y-14.03
X-14.121 Y-14.021
X-14.122 Y-14.013
X-14.123 Y-14.004
Y-13.988
Y13.988
Y14.004
X-14.122 Y14.013
X-14.121 Y14.021
X-14.119 Y14.03
X-14.117 Y14.036
X-14.115 Y14.042
X-14.113 Y14.048
X-14.111 Y14.053
X-14.106 Y14.062
X-14.101 Y14.07
X-14.095 Y14.078
X-14.087 Y14.086
X-14.086 Y14.087
X-14.078 Y14.095
X-14.07 Y14.101
X-14.062 Y14.106
X-14.053 Y14.111
X-14.048 Y14.113
X-14.042 Y14.115
X-14.036 Y14.117
X-14.03 Y14.119
X-14.021 Y14.121
X-14.013 Y14.122
X-14.004 Y14.123
X-13.988
X13.988
X14.004
X14.013 Y14.122
X14.021 Y14.121
X14.03 Y14.119
X14.036 Y14.117
X14.042 Y14.115
X14.048 Y14.113
X14.053 Y14.111
X14.062 Y14.106
X14.07 Y14.101
X14.078 Y14.095
X14.086 Y14.087
X14.087 Y14.086
X14.095 Y14.078
X14.101 Y14.07
X14.106 Y14.062
X14.111 Y14.053
X14.113 Y14.048
X14.115 Y14.042
X14.117 Y14.036
X14.119 Y14.03
X14.121 Y14.021
X14.122 Y14.013
X14.123 Y14.004
Y13.988
Y7.735
Y0.874
Y-13.988
Y-14.004
X14.122 Y-14.013
X14.121 Y-14.021
X14.119 Y-14.03
X14.117 Y-14.036
X14.115 Y-14.042
X14.113 Y-14.048
X14.111 Y-14.053
X14.106 Y-14.062
X14.101 Y-14.07
X14.095 Y-14.078
X14.087 Y-14.086
X14.086 Y-14.087
X14.078 Y-14.095
X14.07 Y-14.101
X14.062 Y-14.106
X14.053 Y-14.111
X14.048 Y-14.113
X14.042 Y-14.115
X14.036 Y-14.117
X14.03 Y-14.119
X14.021 Y-14.121
X14.013 Y-14.122
X14.004 Y-14.123
X13.988
X-13.988
X-14.004
X-14.013 Y-14.122
X-14.021 Y-14.121
X-14.03 Y-14.119
X-14.036 Y-14.117
X-14.042 Y-14.115
X-14.048 Y-14.113
X-14.053 Y-14.111
X-14.062 Y-14.106
X-14.07 Y-14.101
X-14.078 Y-14.095
X-14.086 Y-14.087
X-14.087 Y-14.086
X-14.095 Y-14.078
X-14.101 Y-14.07
X-14.106 Y-14.062
X-14.111 Y-14.053
X-14.113 Y-14.048
X-14.115 Y-14.042
X-14.117 Y-14.036
X-14.119 Y-14.03
X-14.121 Y-14.021
X-14.122 Y-14.013
X-14.123 Y-14.004
Y-13.988
Y13.988
Y14.004
X-14.122 Y14.013
X-14.121 Y14.021
X-14.119 Y14.03
X-14.117 Y14.036
X-14.115 Y14.042
X-14.113 Y14.048
X-14.111 Y14.053
X-14.106 Y14.062
X-14.101 Y14.07
X-14.095 Y14.078
X-14.087 Y14.086
X-14.086 Y14.087
X-14.078 Y14.095
X-14.07 Y14.101
X-14.062 Y14.106
X-14.053 Y14.111
X-14.048 Y14.113
X-14.042 Y14.115
X-14.036 Y14.117
X-14.03 Y14.119
X-14.021 Y14.121
X-14.013 Y14.122
X-14.004 Y14.123
X-13.988
X13.988
X14.004
X14.013 Y14.122
X14.021 Y14.121
X14.03 Y14.119
X14.036 Y14.117
X14.042 Y14.115
X14.048 Y14.113
X14.053 Y14.111
X14.062 Y14.106
X14.07 Y14.101
X14.078 Y14.095
X14.086 Y14.087
X14.087 Y14.086
X14.095 Y14.078
X14.101 Y14.07
X14.106 Y14.062
X14.111 Y14.053
X14.113 Y14.048
X14.115 Y14.042
X14.117 Y14.036
X14.119 Y14.03
X14.121 Y14.021
X14.122 Y14.013
X14.123 Y14.004
Y13.988
Y0.874
Y0.852
Y0.831
Y0.787
Y0.744
Y0.701 Z-1.201
Y0.657
Y0.614
Y0.571 Z-1.202
X14.124 Y0.527
Y0.484 Z-1.203
Y0.441 Z-1.204
Y0.397
X14.125 Y0.354 Z-1.205
Y0.311 Z-1.206
Y0.267 Z-1.207
X14.126 Y0.224 Z-1.208
Y0.181 Z-1.209
Y0.138 Z-1.21
X14.127 Y0.094 Z-1.211
Y0.051 Z-1.212
X14.128 Y0.008 Z-1.213
Y-0.036 Z-1.214
Y-0.079 Z-1.216
X14.129 Y-0.122 Z-1.217
Y-0.166 Z-1.218
X14.13 Y-0.209 Z-1.22
Y-0.252 Z-1.221
X14.131 Y-0.296 Z-1.222
X14.132 Y-0.339 Z-1.224
Y-0.382 Z-1.225
X14.15 Y-1.812 Z-1.275
X14.151 Y-1.855 Z-1.277
Y-1.898 Z-1.278
X14.152 Y-1.941 Z-1.28
Y-1.985 Z-1.281
X14.153 Y-2.028 Z-1.282
Y-2.071 Z-1.284
X14.154 Y-2.115 Z-1.285
Y-2.158 Z-1.286
X14.155 Y-2.201 Z-1.287
Y-2.245 Z-1.289
Y-2.288 Z-1.29
X14.156 Y-2.331 Z-1.291
Y-2.375 Z-1.292
X14.157 Y-2.418 Z-1.293
Y-2.461 Z-1.294
Y-2.505 Z-1.295
Y-2.548
X14.158 Y-2.591 Z-1.296
Y-2.634 Z-1.297
Y-2.678
Y-2.721 Z-1.298
X14.159 Y-2.764
Y-2.808 Z-1.299
Y-2.851
Y-2.894 Z-1.3
Y-2.938
Y-2.981
Y-3.035
Y-3.047
Y-13.988
Y-14.004
Y-14.013
X14.158 Y-14.021
X14.155 Y-14.034
X14.152 Y-14.048
X14.15 Y-14.053
X14.147 Y-14.062
X14.143 Y-14.07
X14.139 Y-14.078
X14.134 Y-14.086
X14.127 Y-14.096
X14.119 Y-14.106
X14.112 Y-14.113
X14.106 Y-14.119
X14.096 Y-14.127
X14.086 Y-14.134
X14.078 Y-14.139
X14.07 Y-14.143
X14.062 Y-14.147
X14.053 Y-14.15
X14.048 Y-14.152
X14.034 Y-14.155
X14.021 Y-14.158
X14.013 Y-14.159
X14.004
X13.988
X-13.988
X-14.004
X-14.013
X-14.021 Y-14.158
X-14.034 Y-14.155
X-14.048 Y-14.152
X-14.053 Y-14.15
X-14.062 Y-14.147
X-14.07 Y-14.143
X-14.078 Y-14.139
X-14.086 Y-14.134
X-14.096 Y-14.127
X-14.106 Y-14.119
X-14.112 Y-14.113
X-14.119 Y-14.106
X-14.127 Y-14.096
X-14.134 Y-14.086
X-14.139 Y-14.078
X-14.143 Y-14.07
X-14.147 Y-14.062
X-14.15 Y-14.053
X-14.152 Y-14.048
X-14.155 Y-14.034
X-14.158 Y-14.021
X-14.159 Y-14.013
Y-14.004
Y-13.988
Y13.988
Y14.004
Y14.013
X-14.158 Y14.021
X-14.155 Y14.034
X-14.152 Y14.048
X-14.15 Y14.053
X-14.147 Y14.062
X-14.143 Y14.07
X-14.139 Y14.078
X-14.134 Y14.086
X-14.127 Y14.096
X-14.119 Y14.106
X-14.112 Y14.113
X-14.106 Y14.119
X-14.096 Y14.127
X-14.086 Y14.134
X-14.078 Y14.139
X-14.07 Y14.143
X-14.062 Y14.147
X-14.053 Y14.15
X-14.048 Y14.152
X-14.034 Y14.155
X-14.021 Y14.158
X-14.013 Y14.159
X-14.004
X-13.988
X13.988
X14.004
X14.013
X14.021 Y14.158
X14.034 Y14.155
X14.048 Y14.152
X14.053 Y14.15
X14.062 Y14.147
X14.07 Y14.143
X14.078 Y14.139
X14.086 Y14.134
X14.096 Y14.127
X14.106 Y14.119
X14.112 Y14.113
X14.119 Y14.106
X14.127 Y14.096
X14.134 Y14.086
X14.139 Y14.078
X14.143 Y14.07
X14.147 Y14.062
X14.15 Y14.053
X14.152 Y14.048
X14.155 Y14.034
X14.158 Y14.021
X14.159 Y14.013
Y14.004
Y13.988
Y0.874
Y-3.047
Y-13.988
Y-14.004
Y-14.013
X14.158 Y-14.021
X14.155 Y-14.034
X14.152 Y-14.048
X14.15 Y-14.053
X14.147 Y-14.062
X14.143 Y-14.07
X14.139 Y-14.078
X14.134 Y-14.086
X14.127 Y-14.096
X14.119 Y-14.106
X14.112 Y-14.113
X14.106 Y-14.119
X14.096 Y-14.127
X14.086 Y-14.134
X14.078 Y-14.139
X14.07 Y-14.143
X14.062 Y-14.147
X14.053 Y-14.15
X14.048 Y-14.152
X14.034 Y-14.155
X14.021 Y-14.158
X14.013 Y-14.159
X14.004
X13.988
X-13.988
X-14.004
X-14.013
X-14.021 Y-14.158
X-14.034 Y-14.155
X-14.048 Y-14.152
X-14.053 Y-14.15
X-14.062 Y-14.147
X-14.07 Y-14.143
X-14.078 Y-14.139
X-14.086 Y-14.134
X-14.096 Y-14.127
X-14.106 Y-14.119
X-14.112 Y-14.113
X-14.119 Y-14.106
X-14.127 Y-14.096
X-14.134 Y-14.086
X-14.139 Y-14.078
X-14.143 Y-14.07
X-14.147 Y-14.062
X-14.15 Y-14.053
X-14.152 Y-14.048
X-14.155 Y-14.034
X-14.158 Y-14.021
X-14.159 Y-14.013
Y-14.004
Y-13.988
Y13.988
Y14.004
Y14.013
X-14.158 Y14.021
X-14.155 Y14.034
X-14.152 Y14.048
X-14.15 Y14.053
X-14.147 Y14.062
X-14.143 Y14.07
X-14.139 Y14.078
X-14.134 Y14.086
X-14.127 Y14.096
X-14.119 Y14.106
X-14.112 Y14.113
X-14.106 Y14.119
X-14.096 Y14.127
X-14.086 Y14.134
X-14.078 Y14.139
X-14.07 Y14.143
X-14.062 Y14.147
X-14.053 Y14.15
X-14.048 Y14.152
X-14.034 Y14.155
X-14.021 Y14.158
X-14.013 Y14.159
X-14.004
X-13.988
X13.988
X14.004
X14.013
X14.021 Y14.158
X14.034 Y14.155
X14.048 Y14.152
X14.053 Y14.15
X14.062 Y14.147
X14.07 Y14.143
X14.078 Y14.139
X14.086 Y14.134
X14.096 Y14.127
X14.106 Y14.119
X14.112 Y14.113
X14.119 Y14.106
X14.127 Y14.096
X14.134 Y14.086
X14.139 Y14.078
X14.143 Y14.07
X14.147 Y14.062
X14.15 Y14.053
X14.152 Y14.048
X14.155 Y14.034
X14.158 Y14.021
X14.159 Y14.013
Y14.004
Y13.988
Y-3.047
Y-3.068
Y-3.09
Y-3.133
Y-3.177
Y-3.22 Z-1.301
X14.16 Y-3.263
Y-3.307
Y-3.35 Z-1.302
Y-3.393
Y-3.437 Z-1.303
Y-3.48 Z-1.304
X14.161 Y-3.523
Y-3.566 Z-1.305
Y-3.61 Z-1.306
X14.162 Y-3.653 Z-1.307
Y-3.696 Z-1.308
Y-3.74 Z-1.309
X14.163 Y-3.783 Z-1.31
Y-3.826 Z-1.311
X14.164 Y-3.87 Z-1.312
Y-3.913 Z-1.313
Y-3.956 Z-1.314
X14.165 Y-4 Z-1.316
Y-4.043 Z-1.317
X14.166 Y-4.086 Z-1.318
Y-4.13 Z-1.32
X14.167 Y-4.173 Z-1.321
Y-4.216 Z-1.322
X14.168 Y-4.259 Z-1.324
Y-4.303 Z-1.325
X14.187 Y-5.732 Z-1.375
Y-5.775 Z-1.377
X14.188 Y-5.819 Z-1.378
Y-5.862 Z-1.38
X14.189 Y-5.905 Z-1.381
Y-5.949 Z-1.382
X14.19 Y-5.992 Z-1.384
Y-6.035 Z-1.385
X14.191 Y-6.079 Z-1.386
Y-6.122 Z-1.387
Y-6.165 Z-1.389
X14.192 Y-6.208 Z-1.39
Y-6.252 Z-1.391
X14.193 Y-6.295 Z-1.392
Y-6.338 Z-1.393
Y-6.382 Z-1.394
X14.194 Y-6.425 Z-1.395
Y-6.468
Y-6.512 Z-1.396
Y-6.555 Z-1.397
X14.195 Y-6.598
Y-6.642 Z-1.398
Y-6.685
Y-6.728 Z-1.399
Y-6.772
Y-6.815 Z-1.4
Y-6.858
X14.196 Y-6.901
Y-6.956
Y-6.967
Y-13.988
Y-14.004
X14.194 Y-14.021
X14.192 Y-14.037
X14.188 Y-14.053
X14.184 Y-14.065
X14.18 Y-14.076
X14.176 Y-14.086
X14.171 Y-14.094
X14.167 Y-14.103
X14.161 Y-14.111
X14.155 Y-14.119
X14.152 Y-14.123
X14.145 Y-14.131
X14.138 Y-14.139
X14.13 Y-14.146
X14.123 Y-14.152
X14.119 Y-14.155
X14.111 Y-14.161
X14.103 Y-14.167
X14.094 Y-14.171
X14.086 Y-14.176
X14.076 Y-14.18
X14.065 Y-14.184
X14.053 Y-14.188
X14.037 Y-14.192
X14.021 Y-14.194
X14.004 Y-14.196
X13.988
X-13.988
X-14.004
X-14.021 Y-14.194
X-14.037 Y-14.192
X-14.053 Y-14.188
X-14.065 Y-14.184
X-14.076 Y-14.18
X-14.086 Y-14.176
X-14.094 Y-14.171
X-14.103 Y-14.167
X-14.111 Y-14.161
X-14.119 Y-14.155
X-14.123 Y-14.152
X-14.13 Y-14.146
X-14.138 Y-14.139
X-14.145 Y-14.131
X-14.152 Y-14.123
X-14.155 Y-14.119
X-14.161 Y-14.111
X-14.167 Y-14.103
X-14.171 Y-14.094
X-14.176 Y-14.086
X-14.18 Y-14.076
X-14.184 Y-14.065
X-14.188 Y-14.053
X-14.192 Y-14.037
X-14.194 Y-14.021
X-14.196 Y-14.004
Y-13.988
Y13.988
Y14.004
X-14.194 Y14.021
X-14.192 Y14.037
X-14.188 Y14.053
X-14.184 Y14.065
X-14.18 Y14.076
X-14.176 Y14.086
X-14.171 Y14.094
X-14.167 Y14.103
X-14.161 Y14.111
X-14.155 Y14.119
X-14.152 Y14.123
X-14.145 Y14.131
X-14.138 Y14.139
X-14.13 Y14.146
X-14.123 Y14.152
X-14.119 Y14.155
X-14.111 Y14.161
X-14.103 Y14.167
X-14.094 Y14.171
X-14.086 Y14.176
X-14.076 Y14.18
X-14.065 Y14.184
X-14.053 Y14.188
X-14.037 Y14.192
X-14.021 Y14.194
X-14.004 Y14.196
X-13.988
X13.988
X14.004
X14.021 Y14.194
X14.037 Y14.192
X14.053 Y14.188
X14.065 Y14.184
X14.076 Y14.18
X14.086 Y14.176
X14.094 Y14.171
X14.103 Y14.167
X14.111 Y14.161
X14.119 Y14.155
X14.123 Y14.152
X14.13 Y14.146
X14.138 Y14.139
X14.145 Y14.131
X14.152 Y14.123
X14.155 Y14.119
X14.161 Y14.111
X14.167 Y14.103
X14.171 Y14.094
X14.176 Y14.086
X14.18 Y14.076
X14.184 Y14.065
X14.188 Y14.053
X14.192 Y14.037
X14.194 Y14.021
X14.196 Y14.004
Y13.988
Y-3.047
Y-6.967
Y-13.988
Y-14.004
X14.194 Y-14.021
X14.192 Y-14.037
X14.188 Y-14.053
X14.184 Y-14.065
X14.18 Y-14.076
X14.176 Y-14.086
X14.171 Y-14.094
X14.167 Y-14.103
X14.161 Y-14.111
X14.155 Y-14.119
X14.152 Y-14.123
X14.145 Y-14.131
X14.138 Y-14.139
X14.13 Y-14.146
X14.123 Y-14.152
X14.119 Y-14.155
X14.111 Y-14.161
X14.103 Y-14.167
X14.094 Y-14.171
X14.086 Y-14.176
X14.076 Y-14.18
X14.065 Y-14.184
X14.053 Y-14.188
X14.037 Y-14.192
X14.021 Y-14.194
X14.004 Y-14.196
X13.988
X-13.988
X-14.004
X-14.021 Y-14.194
X-14.037 Y-14.192
X-14.053 Y-14.188
X-14.065 Y-14.184
X-14.076 Y-14.18
X-14.086 Y-14.176
X-14.094 Y-14.171
X-14.103 Y-14.167
X-14.111 Y-14.161
X-14.119 Y-14.155
X-14.123 Y-14.152
X-14.13 Y-14.146
X-14.138 Y-14.139
X-14.145 Y-14.131
X-14.152 Y-14.123
X-14.155 Y-14.119
X-14.161 Y-14.111
X-14.167 Y-14.103
X-14.171 Y-14.094
X-14.176 Y-14.086
X-14.18 Y-14.076
X-14.184 Y-14.065
X-14.188 Y-14.053
X-14.192 Y-14.037
X-14.194 Y-14.021
X-14.196 Y-14.004
Y-13.988
Y13.988
Y14.004
X-14.194 Y14.021
X-14.192 Y14.037
X-14.188 Y14.053
X-14.184 Y14.065
X-14.18 Y14.076
X-14.176 Y14.086
X-14.171 Y14.094
X-14.167 Y14.103
X-14.161 Y14.111
X-14.155 Y14.119
X-14.152 Y14.123
X-14.145 Y14.131
X-14.138 Y14.139
X-14.13 Y14.146
X-14.123 Y14.152
X-14.119 Y14.155
X-14.111 Y14.161
X-14.103 Y14.167
X-14.094 Y14.171
X-14.086 Y14.176
X-14.076 Y14.18
X-14.065 Y14.184
X-14.053 Y14.188
X-14.037 Y14.192
X-14.021 Y14.194
X-14.004 Y14.196
X-13.988
X13.988
X14.004
X14.021 Y14.194
X14.037 Y14.192
X14.053 Y14.188
X14.065 Y14.184
X14.076 Y14.18
X14.086 Y14.176
X14.094 Y14.171
X14.103 Y14.167
X14.111 Y14.161
X14.119 Y14.155
X14.123 Y14.152
X14.13 Y14.146
X14.138 Y14.139
X14.145 Y14.131
X14.152 Y14.123
X14.155 Y14.119
X14.161 Y14.111
X14.167 Y14.103
X14.171 Y14.094
X14.176 Y14.086
X14.18 Y14.076
X14.184 Y14.065
X14.188 Y14.053
X14.192 Y14.037
X14.194 Y14.021
X14.196 Y14.004
Y13.988
Y-6.967
Y-6.989
Y-7.011
Y-7.054
Y-7.097
Y-7.14 Z-1.401
Y-7.184
Y-7.227
Y-7.27 Z-1.402
Y-7.314
X14.197 Y-7.357 Z-1.403
Y-7.4 Z-1.404
Y-7.444
Y-7.487 Z-1.405
X14.198 Y-7.53 Z-1.406
Y-7.574 Z-1.407
Y-7.617 Z-1.408
X14.199 Y-7.66 Z-1.409
Y-7.704 Z-1.41
X14.2 Y-7.747 Z-1.411
Y-7.79 Z-1.412
Y-7.833 Z-1.413
X14.201 Y-7.877 Z-1.414
Y-7.92 Z-1.416
X14.202 Y-7.963 Z-1.417
Y-8.007 Z-1.418
X14.203 Y-8.05 Z-1.42
Y-8.093 Z-1.421
X14.204 Y-8.137 Z-1.422
Y-8.18 Z-1.424
X14.205 Y-8.223 Z-1.425
X14.223 Y-9.653 Z-1.475
X14.224 Y-9.696 Z-1.477
Y-9.739 Z-1.478
X14.225 Y-9.783 Z-1.48
Y-9.826 Z-1.481
X14.226 Y-9.869 Z-1.482
Y-9.912 Z-1.484
X14.227 Y-9.956 Z-1.485
Y-9.999 Z-1.486
Y-10.042 Z-1.487
X14.228 Y-10.086 Z-1.489
Y-10.129 Z-1.49
X14.229 Y-10.172 Z-1.491
Y-10.216 Z-1.492
Y-10.259 Z-1.493
X14.23 Y-10.302 Z-1.494
Y-10.346 Z-1.495
Y-10.389
X14.231 Y-10.432 Z-1.496
Y-10.476 Z-1.497
Y-10.519
Y-10.562 Z-1.498
Y-10.605
X14.232 Y-10.649 Z-1.499
Y-10.692
Y-10.735 Z-1.5
Y-10.779
Y-10.822
Y-10.877
Y-10.888
Y-13.988
X14.231 Y-14.021
X14.229 Y-14.037
X14.226 Y-14.053
X14.222 Y-14.067
X14.217 Y-14.081
X14.215 Y-14.086
X14.208 Y-14.103
X14.199 Y-14.119
X14.192 Y-14.13
X14.184 Y-14.141
X14.175 Y-14.152
X14.164 Y-14.164
X14.152 Y-14.175
X14.141 Y-14.184
X14.13 Y-14.192
X14.119 Y-14.199
X14.103 Y-14.208
X14.086 Y-14.215
X14.081 Y-14.217
X14.067 Y-14.222
X14.053 Y-14.226
X14.037 Y-14.229
X14.021 Y-14.231
X13.988 Y-14.232
X-13.988
X-14.021 Y-14.231
X-14.037 Y-14.229
X-14.053 Y-14.226
X-14.067 Y-14.222
X-14.081 Y-14.217
X-14.086 Y-14.215
X-14.103 Y-14.208
X-14.119 Y-14.199
X-14.13 Y-14.192
X-14.141 Y-14.184
X-14.152 Y-14.175
X-14.164 Y-14.164
X-14.175 Y-14.152
X-14.184 Y-14.141
X-14.192 Y-14.13
X-14.199 Y-14.119
X-14.208 Y-14.103
X-14.215 Y-14.086
X-14.217 Y-14.081
X-14.222 Y-14.067
X-14.226 Y-14.053
X-14.229 Y-14.037
X-14.231 Y-14.021
X-14.232 Y-13.988
Y13.988
X-14.231 Y14.021
X-14.229 Y14.037
X-14.226 Y14.053
X-14.222 Y14.067
X-14.217 Y14.081
X-14.215 Y14.086
X-14.208 Y14.103
X-14.199 Y14.119
X-14.192 Y14.13
X-14.184 Y14.141
X-14.175 Y14.152
X-14.164 Y14.164
X-14.152 Y14.175
X-14.141 Y14.184
X-14.13 Y14.192
X-14.119 Y14.199
X-14.103 Y14.208
X-14.086 Y14.215
X-14.081 Y14.217
X-14.067 Y14.222
X-14.053 Y14.226
X-14.037 Y14.229
X-14.021 Y14.231
X-13.988 Y14.232
X13.988
X14.021 Y14.231
X14.037 Y14.229
X14.053 Y14.226
X14.067 Y14.222
X14.081 Y14.217
X14.086 Y14.215
X14.103 Y14.208
X14.119 Y14.199
X14.13 Y14.192
X14.141 Y14.184
X14.152 Y14.175
X14.164 Y14.164
X14.175 Y14.152
X14.184 Y14.141
X14.192 Y14.13
X14.199 Y14.119
X14.208 Y14.103
X14.215 Y14.086
X14.217 Y14.081
X14.222 Y14.067
X14.226 Y14.053
X14.229 Y14.037
X14.231 Y14.021
X14.232 Y13.988
Y-6.967
Y-10.888
Y-13.988
X14.231 Y-14.021
X14.229 Y-14.037
X14.226 Y-14.053
X14.222 Y-14.067
X14.217 Y-14.081
X14.215 Y-14.086
X14.208 Y-14.103
X14.199 Y-14.119
X14.192 Y-14.13
X14.184 Y-14.141
X14.175 Y-14.152
X14.164 Y-14.164
X14.152 Y-14.175
X14.141 Y-14.184
X14.13 Y-14.192
X14.119 Y-14.199
X14.103 Y-14.208
X14.086 Y-14.215
X14.081 Y-14.217
X14.067 Y-14.222
X14.053 Y-14.226
X14.037 Y-14.229
X14.021 Y-14.231
X13.988 Y-14.232
X-13.988
X-14.021 Y-14.231
X-14.037 Y-14.229
X-14.053 Y-14.226
X-14.067 Y-14.222
X-14.081 Y-14.217
X-14.086 Y-14.215
X-14.103 Y-14.208
X-14.119 Y-14.199
X-14.13 Y-14.192
X-14.141 Y-14.184
X-14.152 Y-14.175
X-14.164 Y-14.164
X-14.175 Y-14.152
X-14.184 Y-14.141
X-14.192 Y-14.13
X-14.199 Y-14.119
X-14.208 Y-14.103
X-14.215 Y-14.086
X-14.217 Y-14.081
X-14.222 Y-14.067
X-14.226 Y-14.053
X-14.229 Y-14.037
X-14.231 Y-14.021
X-14.232 Y-13.988
Y13.988
X-14.231 Y14.021
X-14.229 Y14.037
X-14.226 Y14.053
X-14.222 Y14.067
X-14.217 Y14.081
X-14.215 Y14.086
X-14.208 Y14.103
X-14.199 Y14.119
X-14.192 Y14.13
X-14.184 Y14.141
X-14.175 Y14.152
X-14.164 Y14.164
X-14.152 Y14.175
X-14.141 Y14.184
X-14.13 Y14.192
X-14.119 Y14.199
X-14.103 Y14.208
X-14.086 Y14.215
X-14.081 Y14.217
X-14.067 Y14.222
X-14.053 Y14.226
X-14.037 Y14.229
X-14.021 Y14.231
X-13.988 Y14.232
X13.988
X14.021 Y14.231
X14.037 Y14.229
X14.053 Y14.226
X14.067 Y14.222
X14.081 Y14.217
X14.086 Y14.215
X14.103 Y14.208
X14.119 Y14.199
X14.13 Y14.192
X14.141 Y14.184
X14.152 Y14.175
X14.164 Y14.164
X14.175 Y14.152
X14.184 Y14.141
X14.192 Y14.13
X14.199 Y14.119
X14.208 Y14.103
X14.215 Y14.086
X14.217 Y14.081
X14.222 Y14.067
X14.226 Y14.053
X14.229 Y14.037
X14.231 Y14.021
X14.232 Y13.988
Y-10.888
Y-10.909
Y-10.931
Y-10.974
Y-11.018
Y-11.061 Z-1.501
Y-11.104
Y-11.148
X14.233 Y-11.191 Z-1.502
Y-11.234
Y-11.278 Z-1.503
Y-11.321 Z-1.504
X14.234 Y-11.364
Y-11.407 Z-1.505
Y-11.451 Z-1.506
Y-11.494 Z-1.507
X14.235 Y-11.537 Z-1.508
Y-11.581 Z-1.509
X14.236 Y-11.624 Z-1.51
Y-11.667 Z-1.511
Y-11.711 Z-1.512
X14.237 Y-11.754 Z-1.513
Y-11.797 Z-1.514
X14.238 Y-11.841 Z-1.516
Y-11.884 Z-1.517
X14.239 Y-11.927 Z-1.518
Y-11.971 Z-1.52
X14.24 Y-12.014 Z-1.521
Y-12.057 Z-1.522
X14.241 Y-12.1 Z-1.524
Y-12.144 Z-1.525
X14.242 Y-12.211 Z-1.528
Y-12.534 Z-1.539
Y-13.573 Z-1.575
Y-13.616 Z-1.577
Y-13.66 Z-1.578
Y-13.703 Z-1.58
Y-13.746 Z-1.581
Y-13.79 Z-1.582
Y-13.833 Z-1.584
Y-13.876 Z-1.585
Y-13.92 Z-1.586
Y-13.963 Z-1.587
Y-14.006 Z-1.589
X14.241 Y-14.017
X14.24 Y-14.028
X14.239 Y-14.039
X14.237 Y-14.049 Z-1.59
X14.235 Y-14.06
X14.232 Y-14.07
X14.228 Y-14.08
X14.224 Y-14.091 Z-1.591
X14.22 Y-14.101
X14.215 Y-14.11
X14.21 Y-14.12
X14.205 Y-14.129 Z-1.592
X14.199 Y-14.138
X14.192 Y-14.147
X14.186 Y-14.155
X14.179 Y-14.164 Z-1.593
X14.171 Y-14.171
X14.163 Y-14.179
X14.155 Y-14.186
X14.147 Y-14.193 Z-1.594
X14.138 Y-14.199
X14.129 Y-14.205
X14.119 Y-14.211
X14.11 Y-14.216
X14.1 Y-14.22 Z-1.595
X14.09 Y-14.225
X14.08 Y-14.228
X14.07 Y-14.232
X14.059 Y-14.235
X14.049 Y-14.237 Z-1.596
X14.038 Y-14.239
X14.027 Y-14.241
X14.017 Y-14.242
X14.006
X13.984 Z-1.597
X13.941
X13.898 Z-1.598
X13.854
X13.811 Z-1.599
X13.768
X13.724 Z-1.6
X13.681
X13.638
X13.582
X13.569
X-13.988
X-14.021 Y-14.241
X-14.037 Y-14.239
X-14.053 Y-14.236
X-14.07 Y-14.232
X-14.086 Y-14.226
X-14.097 Y-14.222
X-14.107 Y-14.217
X-14.119 Y-14.211
X-14.135 Y-14.201
X-14.152 Y-14.189
X-14.157 Y-14.184
X-14.171 Y-14.172
X-14.184 Y-14.157
X-14.189 Y-14.152
X-14.201 Y-14.135
X-14.211 Y-14.119
X-14.217 Y-14.107
X-14.222 Y-14.097
X-14.226 Y-14.086
X-14.232 Y-14.07
X-14.236 Y-14.053
X-14.239 Y-14.037
X-14.241 Y-14.021
X-14.242 Y-13.988
Y13.988
X-14.241 Y14.021
X-14.239 Y14.037
X-14.236 Y14.053
X-14.232 Y14.07
X-14.226 Y14.086
X-14.222 Y14.097
X-14.217 Y14.107
X-14.211 Y14.119
X-14.201 Y14.135
X-14.189 Y14.152
X-14.184 Y14.157
X-14.171 Y14.172
X-14.157 Y14.184
X-14.152 Y14.189
X-14.135 Y14.201
X-14.119 Y14.211
X-14.107 Y14.217
X-14.097 Y14.222
X-14.086 Y14.226
X-14.07 Y14.232
X-14.053 Y14.236
X-14.037 Y14.239
X-14.021 Y14.241
X-13.988 Y14.242
X13.988
X14.021 Y14.241
X14.037 Y14.239
X14.053 Y14.236
X14.07 Y14.232
X14.086 Y14.226
X14.097 Y14.222
X14.107 Y14.217
X14.119 Y14.211
X14.135 Y14.201
X14.152 Y14.189
X14.157 Y14.184
X14.171 Y14.172
X14.184 Y14.157
X14.189 Y14.152
X14.201 Y14.135
X14.211 Y14.119
X14.217 Y14.107
X14.222 Y14.097
X14.226 Y14.086
X14.232 Y14.07
X14.236 Y14.053
X14.239 Y14.037
X14.241 Y14.021
X14.242 Y13.988
Y-10.888
Y-13.988
X14.241 Y-14.021
X14.239 Y-14.037
X14.236 Y-14.053
X14.232 Y-14.07
X14.226 Y-14.086
X14.222 Y-14.097
X14.217 Y-14.107
X14.211 Y-14.119
X14.201 Y-14.135
X14.189 Y-14.152
X14.184 Y-14.157
X14.171 Y-14.172
X14.157 Y-14.184
X14.152 Y-14.189
X14.135 Y-14.201
X14.119 Y-14.211
X14.107 Y-14.217
X14.097 Y-14.222
X14.086 Y-14.226
X14.07 Y-14.232
X14.053 Y-14.236
X14.037 Y-14.239
X14.021 Y-14.241
X13.988 Y-14.242
X13.569
X-13.988
X-14.021 Y-14.241
X-14.037 Y-14.239
X-14.053 Y-14.236
X-14.07 Y-14.232
X-14.086 Y-14.226
X-14.097 Y-14.222
X-14.107 Y-14.217
X-14.119 Y-14.211
X-14.135 Y-14.201
X-14.152 Y-14.189
X-14.157 Y-14.184
X-14.171 Y-14.172
X-14.184 Y-14.157
X-14.189 Y-14.152
X-14.201 Y-14.135
X-14.211 Y-14.119
X-14.217 Y-14.107
X-14.222 Y-14.097
X-14.226 Y-14.086
X-14.232 Y-14.07
X-14.236 Y-14.053
X-14.239 Y-14.037
X-14.241 Y-14.021
X-14.242 Y-13.988
Y13.988
X-14.241 Y14.021
X-14.239 Y14.037
X-14.236 Y14.053
X-14.232 Y14.07
X-14.226 Y14.086
X-14.222 Y14.097
X-14.217 Y14.107
X-14.211 Y14.119
X-14.201 Y14.135
X-14.189 Y14.152
X-14.184 Y14.157
X-14.171 Y14.172
X-14.157 Y14.184
X-14.152 Y14.189
X-14.135 Y14.201
X-14.119 Y14.211
X-14.107 Y14.217
X-14.097 Y14.222
X-14.086 Y14.226
X-14.07 Y14.232
X-14.053 Y14.236
X-14.037 Y14.239
X-14.021 Y14.241
X-13.988 Y14.242
X13.988
X14.021 Y14.241
X14.037 Y14.239
X14.053 Y14.236
X14.07 Y14.232
X14.086 Y14.226
X14.097 Y14.222
X14.107 Y14.217
X14.119 Y14.211
X14.135 Y14.201
X14.152 Y14.189
X14.157 Y14.184
X14.171 Y14.172
X14.184 Y14.157
X14.189 Y14.152
X14.201 Y14.135
X14.211 Y14.119
X14.217 Y14.107
X14.222 Y14.097
X14.226 Y14.086
X14.232 Y14.07
X14.236 Y14.053
X14.239 Y14.037
X14.241 Y14.021
X14.242 Y13.988
Y-13.988
X14.241 Y-14.021
X14.239 Y-14.037
X14.236 Y-14.053
X14.232 Y-14.07
X14.226 Y-14.086
X14.222 Y-14.097
X14.217 Y-14.107
X14.211 Y-14.119
X14.201 Y-14.135
X14.189 Y-14.152
X14.184 Y-14.157
X14.171 Y-14.172
X14.157 Y-14.184
X14.152 Y-14.189
X14.135 Y-14.201
X14.119 Y-14.211
X14.107 Y-14.217
X14.097 Y-14.222
X14.086 Y-14.226
X14.07 Y-14.232
X14.053 Y-14.236
X14.037 Y-14.239
X14.021 Y-14.241
X13.988 Y-14.242
X13.569
X13.547
X13.526
X13.483
X13.439
X13.396 Z-1.601
X13.353
X13.309
X13.266 Z-1.602
X13.223
X13.179 Z-1.603
X13.136 Z-1.604
X13.093
X13.049 Z-1.605
X13.006 Z-1.606
X12.963 Z-1.607
X12.919 Z-1.608
X12.876 Z-1.609
X12.833 Z-1.61
X12.79 Z-1.611
X12.746 Z-1.612
X12.703 Z-1.613
X12.66 Z-1.614
X12.616 Z-1.616
X12.573 Z-1.617
X12.53 Z-1.618
X12.486 Z-1.62
X12.443 Z-1.621
X12.4 Z-1.622
X12.356 Z-1.624
X12.313 Z-1.625
X10.884 Z-1.675
X10.84 Z-1.677
X10.797 Z-1.678
X10.754 Z-1.68
X10.711 Z-1.681
X10.667 Z-1.682
X10.624 Z-1.684
X10.581 Z-1.685
X10.537 Z-1.686
X10.494 Z-1.687
X10.451 Z-1.689
X10.407 Z-1.69
X10.364 Z-1.691
X10.321 Z-1.692
X10.277 Z-1.693
X10.234 Z-1.694
X10.191 Z-1.695
X10.147
X10.104 Z-1.696
X10.061 Z-1.697
X10.018
X9.974 Z-1.698
X9.931
X9.888 Z-1.699
X9.844
X9.801 Z-1.7
X9.758
X9.714
X9.66
X9.648
X-13.988
X-14.021 Y-14.241
X-14.037 Y-14.239
X-14.053 Y-14.236
X-14.07 Y-14.232
X-14.086 Y-14.226
X-14.097 Y-14.222
X-14.107 Y-14.217
X-14.119 Y-14.211
X-14.135 Y-14.201
X-14.152 Y-14.189
X-14.157 Y-14.184
X-14.171 Y-14.172
X-14.184 Y-14.157
X-14.189 Y-14.152
X-14.201 Y-14.135
X-14.211 Y-14.119
X-14.217 Y-14.107
X-14.222 Y-14.097
X-14.226 Y-14.086
X-14.232 Y-14.07
X-14.236 Y-14.053
X-14.239 Y-14.037
X-14.241 Y-14.021
X-14.242 Y-13.988
Y13.988
X-14.241 Y14.021
X-14.239 Y14.037
X-14.236 Y14.053
X-14.232 Y14.07
X-14.226 Y14.086
X-14.222 Y14.097
X-14.217 Y14.107
X-14.211 Y14.119
X-14.201 Y14.135
X-14.189 Y14.152
X-14.184 Y14.157
X-14.171 Y14.172
X-14.157 Y14.184
X-14.152 Y14.189
X-14.135 Y14.201
X-14.119 Y14.211
X-14.107 Y14.217
X-14.097 Y14.222
X-14.086 Y14.226
X-14.07 Y14.232
X-14.053 Y14.236
X-14.037 Y14.239
X-14.021 Y14.241
X-13.988 Y14.242
X13.988
X14.021 Y14.241
X14.037 Y14.239
X14.053 Y14.236
X14.07 Y14.232
X14.086 Y14.226
X14.097 Y14.222
X14.107 Y14.217
X14.119 Y14.211
X14.135 Y14.201
X14.152 Y14.189
X14.157 Y14.184
X14.171 Y14.172
X14.184 Y14.157
X14.189 Y14.152
X14.201 Y14.135
X14.211 Y14.119
X14.217 Y14.107
X14.222 Y14.097
X14.226 Y14.086
X14.232 Y14.07
X14.236 Y14.053
X14.239 Y14.037
X14.241 Y14.021
X14.242 Y13.988
Y-13.988
X14.241 Y-14.021
X14.239 Y-14.037
X14.236 Y-14.053
X14.232 Y-14.07
X14.226 Y-14.086
X14.222 Y-14.097
X14.217 Y-14.107
X14.211 Y-14.119
X14.201 Y-14.135
X14.189 Y-14.152
X14.184 Y-14.157
X14.171 Y-14.172
X14.157 Y-14.184
X14.152 Y-14.189
X14.135 Y-14.201
X14.119 Y-14.211
X14.107 Y-14.217
X14.097 Y-14.222
X14.086 Y-14.226
X14.07 Y-14.232
X14.053 Y-14.236
X14.037 Y-14.239
X14.021 Y-14.241
X13.988 Y-14.242
X9.648
X-13.988
X-14.021 Y-14.241
X-14.037 Y-14.239
X-14.053 Y-14.236
X-14.07 Y-14.232
X-14.086 Y-14.226
X-14.097 Y-14.222
X-14.107 Y-14.217
X-14.119 Y-14.211
X-14.135 Y-14.201
X-14.152 Y-14.189
X-14.157 Y-14.184
X-14.171 Y-14.172
X-14.184 Y-14.157
X-14.189 Y-14.152
X-14.201 Y-14.135
X-14.211 Y-14.119
X-14.217 Y-14.107
X-14.222 Y-14.097
X-14.226 Y-14.086
X-14.232 Y-14.07
X-14.236 Y-14.053
X-14.239 Y-14.037
X-14.241 Y-14.021
X-14.242 Y-13.988
Y13.988
X-14.241 Y14.021
X-14.239 Y14.037
X-14.236 Y14.053
X-14.232 Y14.07
X-14.226 Y14.086
X-14.222 Y14.097
X-14.217 Y14.107
X-14.211 Y14.119
X-14.201 Y14.135
X-14.189 Y14.152
X-14.184 Y14.157
X-14.171 Y14.172
X-14.157 Y14.184
X-14.152 Y14.189
X-14.135 Y14.201
X-14.119 Y14.211
X-14.107 Y14.217
X-14.097 Y14.222
X-14.086 Y14.226
X-14.07 Y14.232
X-14.053 Y14.236
X-14.037 Y14.239
X-14.021 Y14.241
X-13.988 Y14.242
X13.988
X14.021 Y14.241
X14.037 Y14.239
X14.053 Y14.236
X14.07 Y14.232
X14.086 Y14.226
X14.097 Y14.222
X14.107 Y14.217
X14.119 Y14.211
X14.135 Y14.201
X14.152 Y14.189
X14.157 Y14.184
X14.171 Y14.172
X14.184 Y14.157
X14.189 Y14.152
X14.201 Y14.135
X14.211 Y14.119
X14.217 Y14.107
X14.222 Y14.097
X14.226 Y14.086
X14.232 Y14.07
X14.236 Y14.053
X14.239 Y14.037
X14.241 Y14.021
X14.242 Y13.988
Y-13.988
X14.241 Y-14.021
X14.239 Y-14.037
X14.236 Y-14.053
X14.232 Y-14.07
X14.226 Y-14.086
X14.222 Y-14.097
X14.217 Y-14.107
X14.211 Y-14.119
X14.201 Y-14.135
X14.189 Y-14.152
X14.184 Y-14.157
X14.171 Y-14.172
X14.157 Y-14.184
X14.152 Y-14.189
X14.135 Y-14.201
X14.119 Y-14.211
X14.107 Y-14.217
X14.097 Y-14.222
X14.086 Y-14.226
X14.07 Y-14.232
X14.053 Y-14.236
X14.037 Y-14.239
X14.021 Y-14.241
X13.988 Y-14.242
X9.648
X9.627
X9.605
X9.562
X9.519
X9.475 Z-1.701
X9.432
X9.389
X9.345 Z-1.702
X9.302
X9.259 Z-1.703
X9.215 Z-1.704
X9.172
X9.129 Z-1.705
X9.085 Z-1.706
X9.042 Z-1.707
X8.999 Z-1.708
X8.955 Z-1.709
X8.912 Z-1.71
X8.869 Z-1.711
X8.826 Z-1.712
X8.782 Z-1.713
X8.739 Z-1.714
X8.696 Z-1.716
X8.652 Z-1.717
X8.609 Z-1.718
X8.566 Z-1.72
X8.522 Z-1.721
X8.479 Z-1.722
X8.436 Z-1.724
X8.392 Z-1.725
X6.963 Z-1.775
X6.92 Z-1.777
X6.876 Z-1.778
X6.833 Z-1.78
X6.79 Z-1.781
X6.747 Z-1.782
X6.703 Z-1.784
X6.66 Z-1.785
X6.617 Z-1.786
X6.573 Z-1.787
X6.53 Z-1.789
X6.487 Z-1.79
X6.443 Z-1.791
X6.4 Z-1.792
X6.357 Z-1.793
X6.313 Z-1.794
X6.27 Z-1.795
X6.227
X6.183 Z-1.796
X6.14 Z-1.797
X6.097
X6.054 Z-1.798
X6.01
X5.967 Z-1.799
X5.924
X5.88 Z-1.8
X5.837
X5.794
X5.739
X5.728
X-13.988
X-14.021 Y-14.241
X-14.037 Y-14.239
X-14.053 Y-14.236
X-14.07 Y-14.232
X-14.086 Y-14.226
X-14.097 Y-14.222
X-14.107 Y-14.217
X-14.119 Y-14.211
X-14.135 Y-14.201
X-14.152 Y-14.189
X-14.157 Y-14.184
X-14.171 Y-14.172
X-14.184 Y-14.157
X-14.189 Y-14.152
X-14.201 Y-14.135
X-14.211 Y-14.119
X-14.217 Y-14.107
X-14.222 Y-14.097
X-14.226 Y-14.086
X-14.232 Y-14.07
X-14.236 Y-14.053
X-14.239 Y-14.037
X-14.241 Y-14.021
X-14.242 Y-13.988
Y13.988
X-14.241 Y14.021
X-14.239 Y14.037
X-14.236 Y14.053
X-14.232 Y14.07
X-14.226 Y14.086
X-14.222 Y14.097
X-14.217 Y14.107
X-14.211 Y14.119
X-14.201 Y14.135
X-14.189 Y14.152
X-14.184 Y14.157
X-14.171 Y14.172
X-14.157 Y14.184
X-14.152 Y14.189
X-14.135 Y14.201
X-14.119 Y14.211
X-14.107 Y14.217
X-14.097 Y14.222
X-14.086 Y14.226
X-14.07 Y14.232
X-14.053 Y14.236
X-14.037 Y14.239
X-14.021 Y14.241
X-13.988 Y14.242
X13.988
X14.021 Y14.241
X14.037 Y14.239
X14.053 Y14.236
X14.07 Y14.232
X14.086 Y14.226
X14.097 Y14.222
X14.107 Y14.217
X14.119 Y14.211
X14.135 Y14.201
X14.152 Y14.189
X14.157 Y14.184
X14.171 Y14.172
X14.184 Y14.157
X14.189 Y14.152
X14.201 Y14.135
X14.211 Y14.119
X14.217 Y14.107
X14.222 Y14.097
X14.226 Y14.086
X14.232 Y14.07
X14.236 Y14.053
X14.239 Y14.037
X14.241 Y14.021
X14.242 Y13.988
Y-13.988
X14.241 Y-14.021
X14.239 Y-14.037
X14.236 Y-14.053
X14.232 Y-14.07
X14.226 Y-14.086
X14.222 Y-14.097
X14.217 Y-14.107
X14.211 Y-14.119
X14.201 Y-14.135
X14.189 Y-14.152
X14.184 Y-14.157
X14.171 Y-14.172
X14.157 Y-14.184
X14.152 Y-14.189
X14.135 Y-14.201
X14.119 Y-14.211
X14.107 Y-14.217
X14.097 Y-14.222
X14.086 Y-14.226
X14.07 Y-14.232
X14.053 Y-14.236
X14.037 Y-14.239
X14.021 Y-14.241
X13.988 Y-14.242
X9.648
X5.728
X-13.988
X-14.021 Y-14.241
X-14.037 Y-14.239
X-14.053 Y-14.236
X-14.07 Y-14.232
X-14.086 Y-14.226
X-14.097 Y-14.222
X-14.107 Y-14.217
X-14.119 Y-14.211
X-14.135 Y-14.201
X-14.152 Y-14.189
X-14.157 Y-14.184
X-14.171 Y-14.172
X-14.184 Y-14.157
X-14.189 Y-14.152
X-14.201 Y-14.135
X-14.211 Y-14.119
X-14.217 Y-14.107
X-14.222 Y-14.097
X-14.226 Y-14.086
X-14.232 Y-14.07
X-14.236 Y-14.053
X-14.239 Y-14.037
X-14.241 Y-14.021
X-14.242 Y-13.988
Y13.988
X-14.241 Y14.021
X-14.239 Y14.037
X-14.236 Y14.053
X-14.232 Y14.07
X-14.226 Y14.086
X-14.222 Y14.097
X-14.217 Y14.107
X-14.211 Y14.119
X-14.201 Y14.135
X-14.189 Y14.152
X-14.184 Y14.157
X-14.171 Y14.172
X-14.157 Y14.184
X-14.152 Y14.189
X-14.135 Y14.201
X-14.119 Y14.211
X-14.107 Y14.217
X-14.097 Y14.222
X-14.086 Y14.226
X-14.07 Y14.232
X-14.053 Y14.236
X-14.037 Y14.239
X-14.021 Y14.241
X-13.988 Y14.242
X13.988
X14.021 Y14.241
X14.037 Y14.239
X14.053 Y14.236
X14.07 Y14.232
X14.086 Y14.226
X14.097 Y14.222
X14.107 Y14.217
X14.119 Y14.211
X14.135 Y14.201
X14.152 Y14.189
X14.157 Y14.184
X14.171 Y14.172
X14.184 Y14.157
X14.189 Y14.152
X14.201 Y14.135
X14.211 Y14.119
X14.217 Y14.107
X14.222 Y14.097
X14.226 Y14.086
X14.232 Y14.07
X14.236 Y14.053
X14.239 Y14.037
X14.241 Y14.021
X14.242 Y13.988
Y-13.988
X14.241 Y-14.021
X14.239 Y-14.037
X14.236 Y-14.053
X14.232 Y-14.07
X14.226 Y-14.086
X14.222 Y-14.097
X14.217 Y-14.107
X14.211 Y-14.119
X14.201 Y-14.135
X14.189 Y-14.152
X14.184 Y-14.157
X14.171 Y-14.172
X14.157 Y-14.184
X14.152 Y-14.189
X14.135 Y-14.201
X14.119 Y-14.211
X14.107 Y-14.217
X14.097 Y-14.222
X14.086 Y-14.226
X14.07 Y-14.232
X14.053 Y-14.236
X14.037 Y-14.239
X14.021 Y-14.241
X13.988 Y-14.242
X5.728
X5.706
X5.685
X5.641
X5.598
X5.555 Z-1.801
X5.511
X5.468
X5.425 Z-1.802
X5.381
X5.338 Z-1.803
X5.295 Z-1.804
X5.251
X5.208 Z-1.805
X5.165 Z-1.806
X5.121 Z-1.807
X5.078 Z-1.808
X5.035 Z-1.809
X4.992 Z-1.81
X4.948 Z-1.811
X4.905 Z-1.812
X4.862 Z-1.813
X4.818 Z-1.814
X4.775 Z-1.816
X4.732 Z-1.817
X4.688 Z-1.818
X4.645 Z-1.82
X4.602 Z-1.821
X4.558 Z-1.822
X4.515 Z-1.824
X4.472 Z-1.825
X3.042 Z-1.875
X2.999 Z-1.877
X2.956 Z-1.878
X2.913 Z-1.88
X2.869 Z-1.881
X2.826 Z-1.882
X2.783 Z-1.884
X2.739 Z-1.885
X2.696 Z-1.886
X2.653 Z-1.887
X2.609 Z-1.889
X2.566 Z-1.89
X2.523 Z-1.891
X2.479 Z-1.892
X2.436 Z-1.893
X2.393 Z-1.894
X2.349 Z-1.895
X2.306
X2.263 Z-1.896
X2.22 Z-1.897
X2.176
X2.133 Z-1.898
X2.09
X2.046 Z-1.899
X2.003
X1.96 Z-1.9
X1.916
X1.873
X1.818
X1.807
X-13.988
X-14.021 Y-14.241
X-14.037 Y-14.239
X-14.053 Y-14.236
X-14.07 Y-14.232
X-14.086 Y-14.226
X-14.097 Y-14.222
X-14.107 Y-14.217
X-14.119 Y-14.211
X-14.135 Y-14.201
X-14.152 Y-14.189
X-14.157 Y-14.184
X-14.171 Y-14.172
X-14.184 Y-14.157
X-14.189 Y-14.152
X-14.201 Y-14.135
X-14.211 Y-14.119
X-14.217 Y-14.107
X-14.222 Y-14.097
X-14.226 Y-14.086
X-14.232 Y-14.07
X-14.236 Y-14.053
X-14.239 Y-14.037
X-14.241 Y-14.021
X-14.242 Y-13.988
Y13.988
X-14.241 Y14.021
X-14.239 Y14.037
X-14.236 Y14.053
X-14.232 Y14.07
X-14.226 Y14.086
X-14.222 Y14.097
X-14.217 Y14.107
X-14.211 Y14.119
X-14.201 Y14.135
X-14.189 Y14.152
X-14.184 Y14.157
X-14.171 Y14.172
X-14.157 Y14.184
X-14.152 Y14.189
X-14.135 Y14.201
X-14.119 Y14.211
X-14.107 Y14.217
X-14.097 Y14.222
X-14.086 Y14.226
X-14.07 Y14.232
X-14.053 Y14.236
X-14.037 Y14.239
X-14.021 Y14.241
X-13.988 Y14.242
X13.988
X14.021 Y14.241
X14.037 Y14.239
X14.053 Y14.236
X14.07 Y14.232
X14.086 Y14.226
X14.097 Y14.222
X14.107 Y14.217
X14.119 Y14.211
X14.135 Y14.201
X14.152 Y14.189
X14.157 Y14.184
X14.171 Y14.172
X14.184 Y14.157
X14.189 Y14.152
X14.201 Y14.135
X14.211 Y14.119
X14.217 Y14.107
X14.222 Y14.097
X14.226 Y14.086
X14.232 Y14.07
X14.236 Y14.053
X14.239 Y14.037
X14.241 Y14.021
X14.242 Y13.988
Y-13.988
X14.241 Y-14.021
X14.239 Y-14.037
X14.236 Y-14.053
X14.232 Y-14.07
X14.226 Y-14.086
X14.222 Y-14.097
X14.217 Y-14.107
X14.211 Y-14.119
X14.201 Y-14.135
X14.189 Y-14.152
X14.184 Y-14.157
X14.171 Y-14.172
X14.157 Y-14.184
X14.152 Y-14.189
X14.135 Y-14.201
X14.119 Y-14.211
X14.107 Y-14.217
X14.097 Y-14.222
X14.086 Y-14.226
X14.07 Y-14.232
X14.053 Y-14.236
X14.037 Y-14.239
X14.021 Y-14.241
X13.988 Y-14.242
X5.728
X1.807
X-13.988
X-14.021 Y-14.241
X-14.037 Y-14.239
X-14.053 Y-14.236
X-14.07 Y-14.232
X-14.086 Y-14.226
X-14.097 Y-14.222
X-14.107 Y-14.217
X-14.119 Y-14.211
X-14.135 Y-14.201
X-14.152 Y-14.189
X-14.157 Y-14.184
X-14.171 Y-14.172
X-14.184 Y-14.157
X-14.189 Y-14.152
X-14.201 Y-14.135
X-14.211 Y-14.119
X-14.217 Y-14.107
X-14.222 Y-14.097
X-14.226 Y-14.086
X-14.232 Y-14.07
X-14.236 Y-14.053
X-14.239 Y-14.037
X-14.241 Y-14.021
X-14.242 Y-13.988
Y13.988
X-14.241 Y14.021
X-14.239 Y14.037
X-14.236 Y14.053
X-14.232 Y14.07
X-14.226 Y14.086
X-14.222 Y14.097
X-14.217 Y14.107
X-14.211 Y14.119
X-14.201 Y14.135
X-14.189 Y14.152
X-14.184 Y14.157
X-14.171 Y14.172
X-14.157 Y14.184
X-14.152 Y14.189
X-14.135 Y14.201
X-14.119 Y14.211
X-14.107 Y14.217
X-14.097 Y14.222
X-14.086 Y14.226
X-14.07 Y14.232
X-14.053 Y14.236
X-14.037 Y14.239
X-14.021 Y14.241
X-13.988 Y14.242
X13.988
X14.021 Y14.241
X14.037 Y14.239
X14.053 Y14.236
X14.07 Y14.232
X14.086 Y14.226
X14.097 Y14.222
X14.107 Y14.217
X14.119 Y14.211
X14.135 Y14.201
X14.152 Y14.189
X14.157 Y14.184
X14.171 Y14.172
X14.184 Y14.157
X14.189 Y14.152
X14.201 Y14.135
X14.211 Y14.119
X14.217 Y14.107
X14.222 Y14.097
X14.226 Y14.086
X14.232 Y14.07
X14.236 Y14.053
X14.239 Y14.037
X14.241 Y14.021
X14.242 Y13.988
Y-13.988
X14.241 Y-14.021
X14.239 Y-14.037
X14.236 Y-14.053
X14.232 Y-14.07
X14.226 Y-14.086
X14.222 Y-14.097
X14.217 Y-14.107
X14.211 Y-14.119
X14.201 Y-14.135
X14.189 Y-14.152
X14.184 Y-14.157
X14.171 Y-14.172
X14.157 Y-14.184
X14.152 Y-14.189
X14.135 Y-14.201
X14.119 Y-14.211
X14.107 Y-14.217
X14.097 Y-14.222
X14.086 Y-14.226
X14.07 Y-14.232
X14.053 Y-14.236
X14.037 Y-14.239
X14.021 Y-14.241
X13.988 Y-14.242
X1.807
X1.786
X1.764
X1.721
X1.677
X1.634 Z-1.901
X1.591
X1.547
X1.504 Z-1.902
X1.461
X1.417 Z-1.903
X1.374 Z-1.904
X1.331
X1.287 Z-1.905
X1.244 Z-1.906
X1.201 Z-1.907
X1.158 Z-1.908
X1.114 Z-1.909
X1.071 Z-1.91
X1.028 Z-1.911
X0.984 Z-1.912
X0.941 Z-1.913
X0.898 Z-1.914
X0.854 Z-1.916
X0.811 Z-1.917
X0.768 Z-1.918
X0.724 Z-1.92
X0.681 Z-1.921
X0.638 Z-1.922
X0.594 Z-1.924
X0.551 Z-1.925
X-0.878 Z-1.975
X-0.921 Z-1.977
X-0.965 Z-1.978
X-1.008 Z-1.98
X-1.051 Z-1.981
X-1.095 Z-1.982
X-1.138 Z-1.984
X-1.181 Z-1.985
X-1.225 Z-1.986
X-1.268 Z-1.987
X-1.311 Z-1.989
X-1.355 Z-1.99
X-1.398 Z-1.991
X-1.441 Z-1.992
X-1.485 Z-1.993
X-1.528 Z-1.994
X-1.571 Z-1.995
X-1.614
X-1.658 Z-1.996
X-1.701 Z-1.997
X-1.744
X-1.788 Z-1.998
X-1.831
X-1.874 Z-1.999
X-1.918
X-1.961 Z-2
X-2.004
X-2.048
X-2.102
X-2.113
X-13.988
X-14.021 Y-14.241
X-14.037 Y-14.239
X-14.053 Y-14.236
X-14.07 Y-14.232
X-14.086 Y-14.226
X-14.097 Y-14.222
X-14.107 Y-14.217
X-14.119 Y-14.211
X-14.135 Y-14.201
X-14.152 Y-14.189
X-14.157 Y-14.184
X-14.171 Y-14.172
X-14.184 Y-14.157
X-14.189 Y-14.152
X-14.201 Y-14.135
X-14.211 Y-14.119
X-14.217 Y-14.107
X-14.222 Y-14.097
X-14.226 Y-14.086
X-14.232 Y-14.07
X-14.236 Y-14.053
X-14.239 Y-14.037
X-14.241 Y-14.021
X-14.242 Y-13.988
Y13.988
X-14.241 Y14.021
X-14.239 Y14.037
X-14.236 Y14.053
X-14.232 Y14.07
X-14.226 Y14.086
X-14.222 Y14.097
X-14.217 Y14.107
X-14.211 Y14.119
X-14.201 Y14.135
X-14.189 Y14.152
X-14.184 Y14.157
X-14.171 Y14.172
X-14.157 Y14.184
X-14.152 Y14.189
X-14.135 Y14.201
X-14.119 Y14.211
X-14.107 Y14.217
X-14.097 Y14.222
X-14.086 Y14.226
X-14.07 Y14.232
X-14.053 Y14.236
X-14.037 Y14.239
X-14.021 Y14.241
X-13.988 Y14.242
X13.988
X14.021 Y14.241
X14.037 Y14.239
X14.053 Y14.236
X14.07 Y14.232
X14.086 Y14.226
X14.097 Y14.222
X14.107 Y14.217
X14.119 Y14.211
X14.135 Y14.201
X14.152 Y14.189
X14.157 Y14.184
X14.171 Y14.172
X14.184 Y14.157
X14.189 Y14.152
X14.201 Y14.135
X14.211 Y14.119
X14.217 Y14.107
X14.222 Y14.097
X14.226 Y14.086
X14.232 Y14.07
X14.236 Y14.053
X14.239 Y14.037
X14.241 Y14.021
X14.242 Y13.988
Y-13.988
X14.241 Y-14.021
X14.239 Y-14.037
X14.236 Y-14.053
X14.232 Y-14.07
X14.226 Y-14.086
X14.222 Y-14.097
X14.217 Y-14.107
X14.211 Y-14.119
X14.201 Y-14.135
X14.189 Y-14.152
X14.184 Y-14.157
X14.171 Y-14.172
X14.157 Y-14.184
X14.152 Y-14.189
X14.135 Y-14.201
X14.119 Y-14.211
X14.107 Y-14.217
X14.097 Y-14.222
X14.086 Y-14.226
X14.07 Y-14.232
X14.053 Y-14.236
X14.037 Y-14.239
X14.021 Y-14.241
X13.988 Y-14.242
X1.807
X-2.113
X-13.988
X-14.021 Y-14.241
X-14.037 Y-14.239
X-14.053 Y-14.236
X-14.07 Y-14.232
X-14.086 Y-14.226
X-14.097 Y-14.222
X-14.107 Y-14.217
X-14.119 Y-14.211
X-14.135 Y-14.201
X-14.152 Y-14.189
X-14.157 Y-14.184
X-14.171 Y-14.172
X-14.184 Y-14.157
X-14.189 Y-14.152
X-14.201 Y-14.135
X-14.211 Y-14.119
X-14.217 Y-14.107
X-14.222 Y-14.097
X-14.226 Y-14.086
X-14.232 Y-14.07
X-14.236 Y-14.053
X-14.239 Y-14.037
X-14.241 Y-14.021
X-14.242 Y-13.988
Y13.988
X-14.241 Y14.021
X-14.239 Y14.037
X-14.236 Y14.053
X-14.232 Y14.07
X-14.226 Y14.086
X-14.222 Y14.097
X-14.217 Y14.107
X-14.211 Y14.119
X-14.201 Y14.135
X-14.189 Y14.152
X-14.184 Y14.157
X-14.171 Y14.172
X-14.157 Y14.184
X-14.152 Y14.189
X-14.135 Y14.201
X-14.119 Y14.211
X-14.107 Y14.217
X-14.097 Y14.222
X-14.086 Y14.226
X-14.07 Y14.232
X-14.053 Y14.236
X-14.037 Y14.239
X-14.021 Y14.241
X-13.988 Y14.242
X13.988
X14.021 Y14.241
X14.037 Y14.239
X14.053 Y14.236
X14.07 Y14.232
X14.086 Y14.226
X14.097 Y14.222
X14.107 Y14.217
X14.119 Y14.211
X14.135 Y14.201
X14.152 Y14.189
X14.157 Y14.184
X14.171 Y14.172
X14.184 Y14.157
X14.189 Y14.152
X14.201 Y14.135
X14.211 Y14.119
X14.217 Y14.107
X14.222 Y14.097
X14.226 Y14.086
X14.232 Y14.07
X14.236 Y14.053
X14.239 Y14.037
X14.241 Y14.021
X14.242 Y13.988
Y-13.988
X14.241 Y-14.021
X14.239 Y-14.037
X14.236 Y-14.053
X14.232 Y-14.07
X14.226 Y-14.086
X14.222 Y-14.097
X14.217 Y-14.107
X14.211 Y-14.119
X14.201 Y-14.135
X14.189 Y-14.152
X14.184 Y-14.157
X14.171 Y-14.172
X14.157 Y-14.184
X14.152 Y-14.189
X14.135 Y-14.201
X14.119 Y-14.211
X14.107 Y-14.217
X14.097 Y-14.222
X14.086 Y-14.226
X14.07 Y-14.232
X14.053 Y-14.236
X14.037 Y-14.239
X14.021 Y-14.241
X13.988 Y-14.242
X-2.113
G3 X-2.399 Y-14.635 J-0.3 F1000
G1 X-2.241 Y-15.122
X-2.22 Y-15.186 Z-1.992
X-2.201 Y-15.246 Z-1.97
X-2.183 Y-15.3 Z-1.935
X-2.169 Y-15.346 Z-1.887
X-2.158 Y-15.38 Z-1.83
X-2.151 Y-15.401 Z-1.767
X-2.148 Y-15.408 Z-1.7
G0 Z3
X8.091 Y4.753
Z1.081
G1 Z-0.1 F1000
G3 X7.762 Y4.316 I-0.066 J-0.293
G1 X7.928 Y4.015 F80
X7.937 Y3.997
X8.18 Y3.472
X8.19 Y3.447
X8.386 Y2.937
X8.395 Y2.916
X8.405 Y2.883
X8.567 Y2.359
X8.576 Y2.326
X8.701 Y1.802
X8.709 Y1.769
X8.714 Y1.736
X8.802 Y1.212
X8.808 Y1.179
X8.864 Y0.622
X8.867 Y0.59
X8.885 Y0.033
X8.886 Y0
X8.885 Y-0.033
X8.867 Y-0.59
X8.864 Y-0.622
X8.808 Y-1.179
X8.802 Y-1.212
X8.714 Y-1.738
X8.709 Y-1.769
X8.701 Y-1.802
X8.576 Y-2.326
X8.567 Y-2.359
X8.405 Y-2.883
X8.395 Y-2.916
X8.386 Y-2.937
X8.19 Y-3.447
X8.18 Y-3.472
X7.937 Y-3.997
X7.928 Y-4.015
X7.65 Y-4.521
X7.633 Y-4.549
X7.337 Y-5.012
X7.315 Y-5.045
X6.977 Y-5.503
X6.95 Y-5.536
X6.617 Y-5.929
X6.589 Y-5.962
X6.584 Y-5.967
X6.191 Y-6.374
X6.178 Y-6.388
X6.159 Y-6.405
X5.743 Y-6.781
X5.733 Y-6.79
X5.274 Y-7.152
X5.242 Y-7.174
X4.813 Y-7.469
X4.783 Y-7.49
X4.762 Y-7.502
X4.291 Y-7.781
X4.264 Y-7.797
X3.745 Y-8.059
X3.734 Y-8.063
X3.205 Y-8.288
X3.178 Y-8.298
X2.641 Y-8.484
X2.621 Y-8.491
X2.064 Y-8.643
X2.041 Y-8.648
X1.507 Y-8.757
X1.474 Y-8.763
X0.917 Y-8.838
X0.884 Y-8.842
X0.328 Y-8.879
X0.295 Y-8.881
X-0.295
X-0.328 Y-8.879
X-0.884 Y-8.842
X-0.917 Y-8.838
X-1.378 Y-8.776
X-1.474 Y-8.763
X-1.507 Y-8.757
X-2.041 Y-8.648
X-2.064 Y-8.643
X-2.621 Y-8.491
X-2.641 Y-8.484
X-3.178 Y-8.298
X-3.205 Y-8.288
X-3.734 Y-8.063
X-3.745 Y-8.059
X-4.264 Y-7.797
X-4.291 Y-7.781
X-4.762 Y-7.502
X-4.783 Y-7.49
X-4.816 Y-7.467
X-5.242 Y-7.174
X-5.274 Y-7.152
X-5.733 Y-6.79
X-5.743 Y-6.781
X-6.159 Y-6.405
X-6.178 Y-6.388
X-6.191 Y-6.374
X-6.584 Y-5.967
X-6.589 Y-5.962
X-6.617 Y-5.929
X-6.95 Y-5.536
X-6.977 Y-5.503
X-7.315 Y-5.045
X-7.337 Y-5.012
X-7.633 Y-4.549
X-7.65 Y-4.521
X-7.928 Y-4.015
X-7.937 Y-3.997
X-8.18 Y-3.472
X-8.19 Y-3.447
X-8.386 Y-2.937
X-8.395 Y-2.916
X-8.405 Y-2.883
X-8.567 Y-2.359
X-8.576 Y-2.326
X-8.701 Y-1.802
X-8.709 Y-1.769
X-8.714 Y-1.736
X-8.802 Y-1.212
X-8.808 Y-1.179
X-8.864 Y-0.622
X-8.867 Y-0.59
X-8.878 Y-0.265
X-8.885 Y-0.033
X-8.886 Y0
X-8.885 Y0.033
X-8.867 Y0.59
X-8.864 Y0.622
X-8.808 Y1.179
X-8.802 Y1.212
X-8.714 Y1.738
X-8.709 Y1.769
X-8.701 Y1.802
X-8.576 Y2.326
X-8.567 Y2.359
X-8.405 Y2.883
X-8.395 Y2.916
X-8.386 Y2.937
X-8.19 Y3.447
X-8.18 Y3.472
X-7.937 Y3.997
X-7.928 Y4.015
X-7.65 Y4.521
X-7.633 Y4.549
X-7.337 Y5.012
X-7.315 Y5.045
X-6.977 Y5.503
X-6.95 Y5.536
X-6.617 Y5.929
X-6.589 Y5.962
X-6.584 Y5.967
X-6.191 Y6.374
X-6.178 Y6.388
X-6.159 Y6.405
X-5.743 Y6.781
X-5.733 Y6.79
X-5.274 Y7.152
X-5.242 Y7.174
X-4.813 Y7.469
X-4.783 Y7.49
X-4.762 Y7.502
X-4.291 Y7.781
X-4.264 Y7.797
X-3.745 Y8.059
X-3.734 Y8.063
X-3.205 Y8.288
X-3.178 Y8.298
X-2.641 Y8.484
X-2.621 Y8.491
X-2.064 Y8.643
X-2.041 Y8.648
X-1.507 Y8.757
X-1.474 Y8.763
X-0.917 Y8.838
X-0.884 Y8.842
X-0.328 Y8.879
X-0.295 Y8.881
X0.295
X0.328 Y8.879
X0.884 Y8.842
X0.917 Y8.838
X1.474 Y8.763
X1.507 Y8.757
X2.041 Y8.648
X2.064 Y8.643
X2.621 Y8.491
X2.641 Y8.484
X3.178 Y8.298
X3.205 Y8.288
X3.734 Y8.063
X3.745 Y8.059
X4.264 Y7.797
X4.291 Y7.781
X4.762 Y7.502
X4.783 Y7.49
X4.816 Y7.467
X5.242 Y7.174
X5.274 Y7.152
X5.733 Y6.79
X5.743 Y6.781
X6.159 Y6.405
X6.178 Y6.388
X6.191 Y6.374
X6.584 Y5.967
X6.589 Y5.962
X6.617 Y5.929
X6.95 Y5.536
X6.977 Y5.503
X7.315 Y5.045
X7.337 Y5.012
X7.633 Y4.549
X7.65 Y4.521
X7.762 Y4.316
X7.928 Y4.015
X7.937 Y3.997
X8.18 Y3.472
X8.19 Y3.447
X8.386 Y2.937
X8.395 Y2.916
X8.405 Y2.883
X8.567 Y2.359
X8.576 Y2.326
X8.701 Y1.802
X8.709 Y1.769
X8.714 Y1.736
X8.802 Y1.212
X8.808 Y1.179
X8.864 Y0.622
X8.867 Y0.59
X8.885 Y0.033
X8.886 Y0
X8.885 Y-0.033
X8.867 Y-0.59
X8.864 Y-0.622
X8.808 Y-1.179
X8.802 Y-1.212
X8.714 Y-1.738
X8.709 Y-1.769
X8.701 Y-1.802
X8.576 Y-2.326
X8.567 Y-2.359
X8.405 Y-2.883
X8.395 Y-2.916
X8.386 Y-2.937
X8.19 Y-3.447
X8.18 Y-3.472
X7.937 Y-3.997
X7.928 Y-4.015
X7.65 Y-4.521
X7.633 Y-4.549
X7.337 Y-5.012
X7.315 Y-5.045
X6.977 Y-5.503
X6.95 Y-5.536
X6.617 Y-5.929
X6.589 Y-5.962
X6.584 Y-5.967
X6.191 Y-6.374
X6.178 Y-6.388
X6.159 Y-6.405
X5.743 Y-6.781
X5.733 Y-6.79
X5.274 Y-7.152
X5.242 Y-7.174
X4.813 Y-7.469
X4.783 Y-7.49
X4.762 Y-7.502
X4.291 Y-7.781
X4.264 Y-7.797
X3.745 Y-8.059
X3.734 Y-8.063
X3.205 Y-8.288
X3.178 Y-8.298
X2.641 Y-8.484
X2.621 Y-8.491
X2.064 Y-8.643
X2.041 Y-8.648
X1.507 Y-8.757
X1.474 Y-8.763
X0.917 Y-8.838
X0.884 Y-8.842
X0.328 Y-8.879
X0.295 Y-8.881
X-0.295
X-0.328 Y-8.879
X-0.884 Y-8.842
X-0.917 Y-8.838
X-1.474 Y-8.763
X-1.507 Y-8.757
X-2.041 Y-8.648
X-2.064 Y-8.643
X-2.621 Y-8.491
X-2.641 Y-8.484
X-3.178 Y-8.298
X-3.205 Y-8.288
X-3.734 Y-8.063
X-3.745 Y-8.059
X-4.264 Y-7.797
X-4.291 Y-7.781
X-4.762 Y-7.502
X-4.783 Y-7.49
X-4.816 Y-7.467
X-5.242 Y-7.174
X-5.274 Y-7.152
X-5.733 Y-6.79
X-5.743 Y-6.781
X-6.159 Y-6.405
X-6.178 Y-6.388
X-6.191 Y-6.374
X-6.584 Y-5.967
X-6.589 Y-5.962
X-6.617 Y-5.929
X-6.95 Y-5.536
X-6.977 Y-5.503
X-7.315 Y-5.045
X-7.337 Y-5.012
X-7.633 Y-4.549
X-7.65 Y-4.521
X-7.928 Y-4.015
X-7.937 Y-3.997
X-8.18 Y-3.472
X-8.19 Y-3.447
X-8.386 Y-2.937
X-8.395 Y-2.916
X-8.405 Y-2.883
X-8.567 Y-2.359
X-8.576 Y-2.326
X-8.701 Y-1.802
X-8.709 Y-1.769
X-8.714 Y-1.736
X-8.802 Y-1.212
X-8.808 Y-1.179
X-8.864 Y-0.622
X-8.867 Y-0.59
X-8.878 Y-0.265
X-8.885 Y-0.033
X-8.886 Y0
X-8.885 Y0.033
X-8.867 Y0.59
X-8.864 Y0.622
X-8.808 Y1.179
X-8.802 Y1.212
X-8.714 Y1.738
X-8.709 Y1.769
X-8.701 Y1.802
X-8.576 Y2.326
X-8.567 Y2.359
X-8.405 Y2.883
X-8.395 Y2.916
X-8.386 Y2.937
X-8.19 Y3.447
X-8.18 Y3.472
X-7.937 Y3.997
X-7.928 Y4.015
X-7.65 Y4.521
X-7.633 Y4.549
X-7.337 Y5.012
X-7.315 Y5.045
X-6.977 Y5.503
X-6.95 Y5.536
X-6.617 Y5.929
X-6.589 Y5.962
X-6.584 Y5.967
X-6.191 Y6.374
X-6.178 Y6.388
X-6.159 Y6.405
X-5.743 Y6.781
X-5.733 Y6.79
X-5.274 Y7.152
X-5.242 Y7.174
X-4.813 Y7.469
X-4.783 Y7.49
X-4.762 Y7.502
X-4.291 Y7.781
X-4.264 Y7.797
X-3.745 Y8.059
X-3.734 Y8.063
X-3.205 Y8.288
X-3.178 Y8.298
X-2.641 Y8.484
X-2.621 Y8.491
X-2.064 Y8.643
X-2.041 Y8.648
X-1.507 Y8.757
X-1.474 Y8.763
X-0.917 Y8.838
X-0.884 Y8.842
X-0.328 Y8.879
X-0.295 Y8.881
X0.295
X0.328 Y8.879
X0.884 Y8.842
X0.917 Y8.838
X1.474 Y8.763
X1.507 Y8.757
X2.041 Y8.648
X2.064 Y8.643
X2.621 Y8.491
X2.641 Y8.484
X3.178 Y8.298
X3.205 Y8.288
X3.734 Y8.063
X3.745 Y8.059
X4.264 Y7.797
X4.291 Y7.781
X4.762 Y7.502
X4.783 Y7.49
X4.816 Y7.467
X5.242 Y7.174
X5.274 Y7.152
X5.733 Y6.79
X5.743 Y6.781
X6.159 Y6.405
X6.178 Y6.388
X6.191 Y6.374
X6.584 Y5.967
X6.589 Y5.962
X6.617 Y5.929
X6.95 Y5.536
X6.977 Y5.503
X7.315 Y5.045
X7.337 Y5.012
X7.633 Y4.549
X7.65 Y4.521
X7.762 Y4.316
X7.773 Y4.297
X7.783 Y4.278
X7.804 Y4.24
X7.825 Y4.202
X7.846 Y4.165 Z-0.101
X7.867 Y4.127
X7.888 Y4.089
X7.909 Y4.051 Z-0.102
X7.929 Y4.013
X7.947 Y3.976 Z-0.103
X7.966 Y3.937 Z-0.104
X7.984 Y3.898
X8.003 Y3.859 Z-0.105
X8.021 Y3.819 Z-0.106
X8.04 Y3.78 Z-0.107
X8.058 Y3.741 Z-0.108
X8.077 Y3.702 Z-0.109
X8.095 Y3.663 Z-0.11
X8.114 Y3.624 Z-0.111
X8.133 Y3.585 Z-0.112
X8.151 Y3.545 Z-0.113
X8.17 Y3.506 Z-0.114
X8.188 Y3.468 Z-0.116
X8.203 Y3.429 Z-0.117
X8.219 Y3.389 Z-0.118
X8.235 Y3.348 Z-0.119
X8.252 Y3.308 Z-0.121
X8.268 Y3.268 Z-0.122
X8.284 Y3.228 Z-0.124
X8.3 Y3.187 Z-0.125
X8.396 Y2.946 Z-0.134
X8.411 Y2.907 Z-0.136
X8.585 Y2.371 Z-0.155
X8.596 Y2.331 Z-0.157
X8.723 Y1.827 Z-0.175
X8.734 Y1.785 Z-0.177
X8.742 Y1.743 Z-0.178
X8.749 Y1.7 Z-0.179
X8.757 Y1.657 Z-0.181
X8.765 Y1.615 Z-0.182
X8.773 Y1.572 Z-0.183
X8.78 Y1.53 Z-0.185
X8.788 Y1.487 Z-0.186
X8.796 Y1.444 Z-0.187
X8.803 Y1.402 Z-0.188
X8.811 Y1.359 Z-0.19
X8.818 Y1.316 Z-0.191
X8.826 Y1.274 Z-0.192
X8.833 Y1.231 Z-0.193
X8.841 Y1.188
X8.846 Y1.145 Z-0.194
X8.85 Y1.102 Z-0.195
X8.855 Y1.059 Z-0.196
X8.859 Y1.016 Z-0.197
X8.864 Y0.973
X8.869 Y0.93 Z-0.198
X8.873 Y0.887
X8.878 Y0.844 Z-0.199
X8.882 Y0.801
X8.886 Y0.758
X8.891 Y0.715 Z-0.2
X8.895 Y0.672
X8.9 Y0.629
X8.902 Y0.602
X8.903 Y0.598
X8.902
X8.903 Y0.59
X8.922 Y0.033
X8.923 Y0
X8.922 Y-0.033
X8.903 Y-0.59
X8.9 Y-0.622
X8.844 Y-1.179
X8.839 Y-1.212
X8.745 Y-1.769
X8.738 Y-1.802
X8.613 Y-2.326
X8.605 Y-2.359
X8.595 Y-2.391
X8.433 Y-2.916
X8.421 Y-2.948
X8.219 Y-3.472
X8.205 Y-3.505
X7.977 Y-3.997
X7.961 Y-4.029
X7.692 Y-4.521
X7.673 Y-4.553
X7.36 Y-5.045
X7.338 Y-5.075
X7.01 Y-5.52
X6.997 Y-5.536
X6.637 Y-5.962
X6.617 Y-5.986
X6.608 Y-5.995
X6.224 Y-6.392
X6.196 Y-6.421
X5.766 Y-6.81
X5.761 Y-6.814
X5.733 Y-6.836
X5.305 Y-7.174
X5.274 Y-7.196
X4.816 Y-7.511
X4.783 Y-7.532
X4.291 Y-7.823
X4.279 Y-7.829
X3.761 Y-8.091
X3.734 Y-8.103
X3.21 Y-8.325
X3.178 Y-8.337
X2.653 Y-8.519
X2.621 Y-8.529
X2.097 Y-8.672
X2.064 Y-8.681
X1.507 Y-8.794
X1.474 Y-8.8
X0.897 Y-8.878
X0.884 Y-8.879
X0.328 Y-8.916
X0.295 Y-8.918
X-0.295
X-0.328 Y-8.916
X-0.884 Y-8.879
X-0.897 Y-8.878
X-1.474 Y-8.8
X-1.507 Y-8.794
X-2.064 Y-8.681
X-2.097 Y-8.672
X-2.621 Y-8.529
X-2.653 Y-8.519
X-3.178 Y-8.337
X-3.21 Y-8.325
X-3.734 Y-8.103
X-3.761 Y-8.091
X-4.279 Y-7.829
X-4.291 Y-7.823
X-4.783 Y-7.532
X-4.816 Y-7.511
X-5.274 Y-7.196
X-5.305 Y-7.174
X-5.733 Y-6.836
X-5.761 Y-6.814
X-5.766 Y-6.81
X-6.196 Y-6.421
X-6.224 Y-6.392
X-6.608 Y-5.995
X-6.617 Y-5.986
X-6.637 Y-5.962
X-6.997 Y-5.536
X-7.01 Y-5.52
X-7.338 Y-5.075
X-7.36 Y-5.045
X-7.673 Y-4.553
X-7.692 Y-4.521
X-7.961 Y-4.029
X-7.977 Y-3.997
X-8.205 Y-3.505
X-8.219 Y-3.472
X-8.421 Y-2.948
X-8.433 Y-2.916
X-8.595 Y-2.391
X-8.605 Y-2.359
X-8.613 Y-2.326
X-8.738 Y-1.802
X-8.745 Y-1.769
X-8.839 Y-1.212
X-8.844 Y-1.179
X-8.9 Y-0.622
X-8.903 Y-0.59
X-8.922 Y-0.033
X-8.923 Y0
X-8.922 Y0.033
X-8.903 Y0.59
X-8.9 Y0.622
X-8.844 Y1.179
X-8.839 Y1.212
X-8.745 Y1.769
X-8.738 Y1.802
X-8.613 Y2.326
X-8.605 Y2.359
X-8.595 Y2.391
X-8.433 Y2.916
X-8.421 Y2.948
X-8.219 Y3.472
X-8.205 Y3.505
X-7.977 Y3.997
X-7.961 Y4.029
X-7.692 Y4.521
X-7.673 Y4.553
X-7.36 Y5.045
X-7.338 Y5.075
X-7.01 Y5.52
X-6.997 Y5.536
X-6.637 Y5.962
X-6.617 Y5.986
X-6.608 Y5.995
X-6.224 Y6.392
X-6.196 Y6.421
X-5.766 Y6.81
X-5.761 Y6.814
X-5.733 Y6.836
X-5.305 Y7.174
X-5.274 Y7.196
X-4.816 Y7.511
X-4.783 Y7.532
X-4.291 Y7.823
X-4.279 Y7.829
X-3.761 Y8.091
X-3.734 Y8.103
X-3.21 Y8.325
X-3.178 Y8.337
X-2.653 Y8.519
X-2.621 Y8.529
X-2.097 Y8.672
X-2.064 Y8.681
X-1.507 Y8.794
X-1.474 Y8.8
X-0.897 Y8.878
X-0.884 Y8.879
X-0.328 Y8.916
X-0.295 Y8.918
X0.295
X0.328 Y8.916
X0.884 Y8.879
X0.897 Y8.878
X1.474 Y8.8
X1.507 Y8.794
X2.064 Y8.681
X2.097 Y8.672
X2.621 Y8.529
X2.653 Y8.519
X3.178 Y8.337
X3.21 Y8.325
X3.734 Y8.103
X3.761 Y8.091
X4.279 Y7.829
X4.291 Y7.823
X4.783 Y7.532
X4.816 Y7.511
X5.274 Y7.196
X5.305 Y7.174
X5.733 Y6.836
X5.761 Y6.814
X5.766 Y6.81
X6.196 Y6.421
X6.224 Y6.392
X6.608 Y5.995
X6.617 Y5.986
X6.637 Y5.962
X6.997 Y5.536
X7.01 Y5.52
X7.338 Y5.075
X7.36 Y5.045
X7.673 Y4.553
X7.692 Y4.521
X7.794 Y4.334
X7.961 Y4.029
X7.977 Y3.997
X8.205 Y3.505
X8.219 Y3.472
X8.421 Y2.948
X8.433 Y2.916
X8.595 Y2.391
X8.605 Y2.359
X8.613 Y2.326
X8.738 Y1.802
X8.745 Y1.769
X8.839 Y1.212
X8.844 Y1.179
X8.9 Y0.622
X8.902 Y0.598
X8.903 Y0.59
X8.922 Y0.033
X8.923 Y0
X8.922 Y-0.033
X8.903 Y-0.59
X8.9 Y-0.622
X8.844 Y-1.179
X8.839 Y-1.212
X8.745 Y-1.769
X8.738 Y-1.802
X8.613 Y-2.326
X8.605 Y-2.359
X8.595 Y-2.391
X8.433 Y-2.916
X8.421 Y-2.948
X8.219 Y-3.472
X8.205 Y-3.505
X7.977 Y-3.997
X7.961 Y-4.029
X7.692 Y-4.521
X7.673 Y-4.553
X7.36 Y-5.045
X7.338 Y-5.075
X7.01 Y-5.52
X6.997 Y-5.536
X6.637 Y-5.962
X6.617 Y-5.986
X6.608 Y-5.995
X6.224 Y-6.392
X6.196 Y-6.421
X5.766 Y-6.81
X5.761 Y-6.814
X5.733 Y-6.836
X5.305 Y-7.174
X5.274 Y-7.196
X4.816 Y-7.511
X4.783 Y-7.532
X4.291 Y-7.823
X4.279 Y-7.829
X3.761 Y-8.091
X3.734 Y-8.103
X3.21 Y-8.325
X3.178 Y-8.337
X2.653 Y-8.519
X2.621 Y-8.529
X2.097 Y-8.672
X2.064 Y-8.681
X1.507 Y-8.794
X1.474 Y-8.8
X0.897 Y-8.878
X0.884 Y-8.879
X0.328 Y-8.916
X0.295 Y-8.918
X-0.295
X-0.328 Y-8.916
X-0.884 Y-8.879
X-0.897 Y-8.878
X-1.474 Y-8.8
X-1.507 Y-8.794
X-2.064 Y-8.681
X-2.097 Y-8.672
X-2.621 Y-8.529
X-2.653 Y-8.519
X-3.178 Y-8.337
X-3.21 Y-8.325
X-3.734 Y-8.103
X-3.761 Y-8.091
X-4.279 Y-7.829
X-4.291 Y-7.823
X-4.783 Y-7.532
X-4.816 Y-7.511
X-5.274 Y-7.196
X-5.305 Y-7.174
X-5.733 Y-6.836
X-5.761 Y-6.814
X-5.766 Y-6.81
X-6.196 Y-6.421
X-6.224 Y-6.392
X-6.608 Y-5.995
X-6.617 Y-5.986
X-6.637 Y-5.962
X-6.997 Y-5.536
X-7.01 Y-5.52
X-7.338 Y-5.075
X-7.36 Y-5.045
X-7.673 Y-4.553
X-7.692 Y-4.521
X-7.961 Y-4.029
X-7.977 Y-3.997
X-8.205 Y-3.505
X-8.219 Y-3.472
X-8.421 Y-2.948
X-8.433 Y-2.916
X-8.595 Y-2.391
X-8.605 Y-2.359
X-8.613 Y-2.326
X-8.738 Y-1.802
X-8.745 Y-1.769
X-8.839 Y-1.212
X-8.844 Y-1.179
X-8.9 Y-0.622
X-8.903 Y-0.59
X-8.922 Y-0.033
X-8.923 Y0
X-8.922 Y0.033
X-8.903 Y0.59
X-8.9 Y0.622
X-8.844 Y1.179
X-8.839 Y1.212
X-8.745 Y1.769
X-8.738 Y1.802
X-8.613 Y2.326
X-8.605 Y2.359
X-8.595 Y2.391
X-8.433 Y2.916
X-8.421 Y2.948
X-8.219 Y3.472
X-8.205 Y3.505
X-7.977 Y3.997
X-7.961 Y4.029
X-7.692 Y4.521
X-7.673 Y4.553
X-7.36 Y5.045
X-7.338 Y5.075
X-7.01 Y5.52
X-6.997 Y5.536
X-6.637 Y5.962
X-6.617 Y5.986
X-6.608 Y5.995
X-6.224 Y6.392
X-6.196 Y6.421
X-5.766 Y6.81
X-5.761 Y6.814
X-5.733 Y6.836
X-5.305 Y7.174
X-5.274 Y7.196
X-4.816 Y7.511
X-4.783 Y7.532
X-4.291 Y7.823
X-4.279 Y7.829
X-3.761 Y8.091
X-3.734 Y8.103
X-3.21 Y8.325
X-3.178 Y8.337
X-2.653 Y8.519
X-2.621 Y8.529
X-2.097 Y8.672
X-2.064 Y8.681
X-1.507 Y8.794
X-1.474 Y8.8
X-0.897 Y8.878
X-0.884 Y8.879
X-0.328 Y8.916
X-0.295 Y8.918
X0.295
X0.328 Y8.916
X0.884 Y8.879
X0.897 Y8.878
X1.474 Y8.8
X1.507 Y8.794
X2.064 Y8.681
X2.097 Y8.672
X2.621 Y8.529
X2.653 Y8.519
X3.178 Y8.337
X3.21 Y8.325
X3.734 Y8.103
X3.761 Y8.091
X4.279 Y7.829
X4.291 Y7.823
X4.783 Y7.532
X4.816 Y7.511
X5.274 Y7.196
X5.305 Y7.174
X5.733 Y6.836
X5.761 Y6.814
X5.766 Y6.81
X6.196 Y6.421
X6.224 Y6.392
X6.608 Y5.995
X6.617 Y5.986
X6.637 Y5.962
X6.997 Y5.536
X7.01 Y5.52
X7.338 Y5.075
X7.36 Y5.045
X7.673 Y4.553
X7.692 Y4.521
X7.85 Y4.232
X7.961 Y4.029
X7.977 Y3.997
X8.205 Y3.505
X8.219 Y3.472
X8.421 Y2.948
X8.433 Y2.916
X8.595 Y2.391
X8.605 Y2.359
X8.613 Y2.326
X8.738 Y1.802
X8.745 Y1.769
X8.839 Y1.212
X8.844 Y1.179
X8.9 Y0.622
X8.902 Y0.598
X8.903
Y0.596
Y0.593
Y0.588
X8.904 Y0.557
X8.906 Y0.514
X8.907 Y0.47
X8.909 Y0.427 Z-0.201
X8.91 Y0.384
X8.912 Y0.341
X8.914 Y0.297 Z-0.202
X8.915 Y0.254
X8.917 Y0.211 Z-0.203
X8.919 Y0.167 Z-0.204
X8.92 Y0.124
X8.922 Y0.081 Z-0.205
X8.924 Y0.038 Z-0.206
X8.925 Y-0.004 Z-0.207
X8.924 Y-0.047 Z-0.208
X8.923 Y-0.09 Z-0.209
X8.922 Y-0.133 Z-0.21
X8.921 Y-0.177 Z-0.211
X8.92 Y-0.22 Z-0.212
X8.919 Y-0.263 Z-0.213
X8.918 Y-0.307 Z-0.214
X8.917 Y-0.35 Z-0.216
X8.916 Y-0.393 Z-0.217
X8.915 Y-0.436 Z-0.218
X8.914 Y-0.48 Z-0.22
X8.913 Y-0.523 Z-0.221
X8.912 Y-0.566 Z-0.222
X8.91 Y-0.608 Z-0.224
X8.907 Y-0.651 Z-0.225
X8.861 Y-1.169 Z-0.243
X8.856 Y-1.21 Z-0.245
X8.77 Y-1.767 Z-0.264
X8.761 Y-1.808 Z-0.266
X8.704 Y-2.062 Z-0.275
X8.695 Y-2.104 Z-0.277
X8.685 Y-2.146 Z-0.278
X8.676 Y-2.189 Z-0.279
X8.666 Y-2.231 Z-0.281
X8.657 Y-2.273 Z-0.282
X8.647 Y-2.315 Z-0.283
X8.637 Y-2.358 Z-0.285
X8.626 Y-2.399 Z-0.286
X8.613 Y-2.441 Z-0.287
X8.601 Y-2.482 Z-0.288
X8.588 Y-2.524 Z-0.289
X8.576 Y-2.565 Z-0.291
X8.563 Y-2.606 Z-0.292
X8.551 Y-2.648 Z-0.293
X8.538 Y-2.689
X8.526 Y-2.731 Z-0.294
X8.513 Y-2.772 Z-0.295
X8.501 Y-2.814 Z-0.296
X8.488 Y-2.855 Z-0.297
X8.476 Y-2.897
X8.463 Y-2.938 Z-0.298
X8.448 Y-2.979
X8.432 Y-3.019 Z-0.299
X8.417 Y-3.059
X8.401 Y-3.1
X8.386 Y-3.14 Z-0.3
X8.37 Y-3.181
X8.355 Y-3.221
X8.344 Y-3.25
X8.255 Y-3.48
X8.245 Y-3.505
X8.002 Y-4.029
X7.993 Y-4.047
X7.715 Y-4.553
X7.698 Y-4.582
X7.403 Y-5.045
X7.381 Y-5.078
X7.043 Y-5.536
X7.017 Y-5.569
X6.65 Y-6.003
X6.627 Y-6.028
X6.247 Y-6.421
X6.224 Y-6.444
X5.798 Y-6.829
X5.778 Y-6.847
X5.322 Y-7.207
X5.307 Y-7.218
X4.846 Y-7.534
X4.816 Y-7.555
X4.324 Y-7.846
X4.295 Y-7.862
X3.777 Y-8.124
X3.767 Y-8.129
X3.237 Y-8.353
X3.21 Y-8.364
X2.675 Y-8.55
X2.653 Y-8.557
X2.621 Y-8.566
X2.082 Y-8.714
X2.064 Y-8.718
X1.507 Y-8.831
X1.474 Y-8.837
X0.917 Y-8.912
X0.884 Y-8.915
X0.328 Y-8.952
X0.295 Y-8.954
X-0.295
X-0.328 Y-8.952
X-0.884 Y-8.915
X-0.917 Y-8.912
X-1.474 Y-8.837
X-1.507 Y-8.831
X-2.064 Y-8.718
X-2.082 Y-8.714
X-2.621 Y-8.566
X-2.653 Y-8.557
X-2.675 Y-8.55
X-3.21 Y-8.364
X-3.237 Y-8.353
X-3.767 Y-8.129
X-3.777 Y-8.124
X-4.295 Y-7.862
X-4.324 Y-7.846
X-4.816 Y-7.555
X-4.846 Y-7.534
X-5.307 Y-7.218
X-5.322 Y-7.207
X-5.778 Y-6.847
X-5.798 Y-6.829
X-6.224 Y-6.444
X-6.247 Y-6.421
X-6.627 Y-6.028
X-6.65 Y-6.003
X-7.017 Y-5.569
X-7.043 Y-5.536
X-7.381 Y-5.078
X-7.403 Y-5.045
X-7.698 Y-4.582
X-7.715 Y-4.553
X-7.993 Y-4.047
X-8.002 Y-4.029
X-8.245 Y-3.505
X-8.255 Y-3.48
X-8.46 Y-2.948
X-8.471 Y-2.916
X-8.633 Y-2.391
X-8.643 Y-2.359
X-8.776 Y-1.802
X-8.779 Y-1.786
X-8.782 Y-1.769
X-8.878 Y-1.205
X-8.881 Y-1.179
X-8.937 Y-0.622
X-8.94 Y-0.59
X-8.958 Y-0.033
X-8.959 Y0
X-8.958 Y0.033
X-8.94 Y0.59
X-8.937 Y0.622
X-8.881 Y1.179
X-8.878 Y1.205
X-8.782 Y1.769
X-8.779 Y1.786
X-8.776 Y1.802
X-8.643 Y2.359
X-8.633 Y2.391
X-8.471 Y2.916
X-8.46 Y2.948
X-8.255 Y3.48
X-8.245 Y3.505
X-8.002 Y4.029
X-7.993 Y4.047
X-7.715 Y4.553
X-7.698 Y4.582
X-7.403 Y5.045
X-7.381 Y5.078
X-7.043 Y5.536
X-7.017 Y5.569
X-6.65 Y6.003
X-6.627 Y6.028
X-6.247 Y6.421
X-6.224 Y6.444
X-5.798 Y6.829
X-5.778 Y6.847
X-5.322 Y7.207
X-5.307 Y7.218
X-4.846 Y7.534
X-4.816 Y7.555
X-4.324 Y7.846
X-4.295 Y7.862
X-3.777 Y8.124
X-3.767 Y8.129
X-3.237 Y8.353
X-3.21 Y8.364
X-2.675 Y8.55
X-2.653 Y8.557
X-2.621 Y8.566
X-2.082 Y8.714
X-2.064 Y8.718
X-1.507 Y8.831
X-1.474 Y8.837
X-0.917 Y8.912
X-0.884 Y8.915
X-0.328 Y8.952
X-0.295 Y8.954
X0.295
X0.328 Y8.952
X0.884 Y8.915
X0.917 Y8.912
X1.474 Y8.837
X1.507 Y8.831
X2.064 Y8.718
X2.082 Y8.714
X2.621 Y8.566
X2.653 Y8.557
X2.675 Y8.55
X3.21 Y8.364
X3.237 Y8.353
X3.767 Y8.129
X3.777 Y8.124
X4.295 Y7.862
X4.324 Y7.846
X4.816 Y7.555
X4.846 Y7.534
X5.307 Y7.218
X5.322 Y7.207
X5.778 Y6.847
X5.798 Y6.829
X6.224 Y6.444
X6.247 Y6.421
X6.627 Y6.028
X6.65 Y6.003
X7.017 Y5.569
X7.043 Y5.536
X7.381 Y5.078
X7.403 Y5.045
X7.698 Y4.582
X7.715 Y4.553
X7.882 Y4.249
X7.993 Y4.047
X8.002 Y4.029
X8.245 Y3.505
X8.255 Y3.48
X8.46 Y2.948
X8.471 Y2.916
X8.633 Y2.391
X8.643 Y2.359
X8.776 Y1.802
X8.779 Y1.786
X8.782 Y1.769
X8.878 Y1.205
X8.881 Y1.179
X8.937 Y0.622
X8.939 Y0.601
X8.94 Y0.59
X8.958 Y0.033
X8.959 Y0
X8.958 Y-0.033
X8.94 Y-0.59
X8.937 Y-0.622
X8.881 Y-1.179
X8.878 Y-1.205
X8.782 Y-1.769
X8.779 Y-1.786
X8.776 Y-1.802
X8.643 Y-2.359
X8.633 Y-2.391
X8.471 Y-2.916
X8.46 Y-2.948
X8.344 Y-3.25
X8.255 Y-3.48
X8.245 Y-3.505
X8.002 Y-4.029
X7.993 Y-4.047
X7.715 Y-4.553
X7.698 Y-4.582
X7.403 Y-5.045
X7.381 Y-5.078
X7.043 Y-5.536
X7.017 Y-5.569
X6.65 Y-6.003
X6.627 Y-6.028
X6.247 Y-6.421
X6.224 Y-6.444
X5.798 Y-6.829
X5.778 Y-6.847
X5.322 Y-7.207
X5.307 Y-7.218
X4.846 Y-7.534
X4.816 Y-7.555
X4.324 Y-7.846
X4.295 Y-7.862
X3.777 Y-8.124
X3.767 Y-8.129
X3.237 Y-8.353
X3.21 Y-8.364
X2.675 Y-8.55
X2.653 Y-8.557
X2.621 Y-8.566
X2.082 Y-8.714
X2.064 Y-8.718
X1.507 Y-8.831
X1.474 Y-8.837
X0.917 Y-8.912
X0.884 Y-8.915
X0.328 Y-8.952
X0.295 Y-8.954
X-0.295
X-0.328 Y-8.952
X-0.884 Y-8.915
X-0.917 Y-8.912
X-1.474 Y-8.837
X-1.507 Y-8.831
X-2.064 Y-8.718
X-2.082 Y-8.714
X-2.621 Y-8.566
X-2.653 Y-8.557
X-2.675 Y-8.55
X-3.21 Y-8.364
X-3.237 Y-8.353
X-3.767 Y-8.129
X-3.777 Y-8.124
X-4.295 Y-7.862
X-4.324 Y-7.846
X-4.816 Y-7.555
X-4.846 Y-7.534
X-5.307 Y-7.218
X-5.322 Y-7.207
X-5.778 Y-6.847
X-5.798 Y-6.829
X-6.224 Y-6.444
X-6.247 Y-6.421
X-6.627 Y-6.028
X-6.65 Y-6.003
X-7.017 Y-5.569
X-7.043 Y-5.536
X-7.381 Y-5.078
X-7.403 Y-5.045
X-7.698 Y-4.582
X-7.715 Y-4.553
X-7.993 Y-4.047
X-8.002 Y-4.029
X-8.245 Y-3.505
X-8.255 Y-3.48
X-8.46 Y-2.948
X-8.471 Y-2.916
X-8.633 Y-2.391
X-8.643 Y-2.359
X-8.776 Y-1.802
X-8.779 Y-1.786
X-8.782 Y-1.769
X-8.878 Y-1.205
X-8.881 Y-1.179
X-8.937 Y-0.622
X-8.94 Y-0.59
X-8.958 Y-0.033
X-8.959 Y0
X-8.958 Y0.033
X-8.94 Y0.59
X-8.937 Y0.622
X-8.881 Y1.179
X-8.878 Y1.205
X-8.782 Y1.769
X-8.779 Y1.786
X-8.776 Y1.802
X-8.643 Y2.359
X-8.633 Y2.391
X-8.471 Y2.916
X-8.46 Y2.948
X-8.255 Y3.48
X-8.245 Y3.505
X-8.002 Y4.029
X-7.993 Y4.047
X-7.715 Y4.553
X-7.698 Y4.582
X-7.403 Y5.045
X-7.381 Y5.078
X-7.043 Y5.536
X-7.017 Y5.569
X-6.65 Y6.003
X-6.627 Y6.028
X-6.247 Y6.421
X-6.224 Y6.444
X-5.798 Y6.829
X-5.778 Y6.847
X-5.322 Y7.207
X-5.307 Y7.218
X-4.846 Y7.534
X-4.816 Y7.555
X-4.324 Y7.846
X-4.295 Y7.862
X-3.777 Y8.124
X-3.767 Y8.129
X-3.237 Y8.353
X-3.21 Y8.364
X-2.675 Y8.55
X-2.653 Y8.557
X-2.621 Y8.566
X-2.082 Y8.714
X-2.064 Y8.718
X-1.507 Y8.831
X-1.474 Y8.837
X-0.917 Y8.912
X-0.884 Y8.915
X-0.328 Y8.952
X-0.295 Y8.954
X0.295
X0.328 Y8.952
X0.884 Y8.915
X0.917 Y8.912
X1.474 Y8.837
X1.507 Y8.831
X2.064 Y8.718
X2.082 Y8.714
X2.621 Y8.566
X2.653 Y8.557
X2.675 Y8.55
X3.21 Y8.364
X3.237 Y8.353
X3.767 Y8.129
X3.777 Y8.124
X4.295 Y7.862
X4.324 Y7.846
X4.816 Y7.555
X4.846 Y7.534
X5.307 Y7.218
X5.322 Y7.207
X5.778 Y6.847
X5.798 Y6.829
X6.224 Y6.444
X6.247 Y6.421
X6.627 Y6.028
X6.65 Y6.003
X7.017 Y5.569
X7.043 Y5.536
X7.381 Y5.078
X7.403 Y5.045
X7.698 Y4.582
X7.715 Y4.553
X7.882 Y4.249
X7.993 Y4.047
X8.002 Y4.029
X8.245 Y3.505
X8.255 Y3.48
X8.46 Y2.948
X8.471 Y2.916
X8.633 Y2.391
X8.643 Y2.359
X8.776 Y1.802
X8.779 Y1.786
X8.782 Y1.769
X8.878 Y1.205
X8.881 Y1.179
X8.937 Y0.622
X8.94 Y0.59
X8.958 Y0.033
X8.959 Y0
X8.958 Y-0.033
X8.94 Y-0.59
X8.937 Y-0.622
X8.881 Y-1.179
X8.878 Y-1.205
X8.782 Y-1.769
X8.779 Y-1.786
X8.776 Y-1.802
X8.643 Y-2.359
X8.633 Y-2.391
X8.471 Y-2.916
X8.46 Y-2.948
X8.344 Y-3.25
X8.336 Y-3.27
X8.328 Y-3.291
X8.313 Y-3.331
X8.297 Y-3.371
X8.282 Y-3.412 Z-0.301
X8.266 Y-3.452
X8.251 Y-3.491
X8.234 Y-3.53 Z-0.302
X8.216 Y-3.57
X8.198 Y-3.609 Z-0.303
X8.18 Y-3.648 Z-0.304
X8.162 Y-3.688
X8.144 Y-3.727 Z-0.305
X8.126 Y-3.767 Z-0.306
X8.108 Y-3.806 Z-0.307
X8.09 Y-3.845 Z-0.308
X8.072 Y-3.885 Z-0.309
X8.054 Y-3.924 Z-0.31
X8.036 Y-3.964 Z-0.311
X8.019 Y-4.003 Z-0.312
X8.001 Y-4.042 Z-0.313
X7.981 Y-4.079 Z-0.314
X7.961 Y-4.117 Z-0.316
X7.94 Y-4.155 Z-0.317
X7.92 Y-4.194 Z-0.318
X7.9 Y-4.232 Z-0.319
X7.879 Y-4.27 Z-0.321
X7.859 Y-4.308 Z-0.322
X7.839 Y-4.347 Z-0.324
X7.818 Y-4.385 Z-0.325
X7.737 Y-4.538 Z-0.331
X7.717 Y-4.575 Z-0.333
X7.694 Y-4.611 Z-0.334
X7.42 Y-5.053 Z-0.352
X7.397 Y-5.089 Z-0.354
X7.069 Y-5.546 Z-0.374
X7.044 Y-5.58 Z-0.375
X7.016 Y-5.614 Z-0.377
X6.989 Y-5.647 Z-0.378
X6.961 Y-5.68 Z-0.379
X6.933 Y-5.714 Z-0.381
X6.906 Y-5.747 Z-0.382
X6.878 Y-5.781 Z-0.383
X6.851 Y-5.814 Z-0.385
X6.823 Y-5.847 Z-0.386
X6.795 Y-5.881 Z-0.387
X6.768 Y-5.914 Z-0.388
X6.74 Y-5.947 Z-0.389
X6.712 Y-5.981 Z-0.391
X6.685 Y-6.014 Z-0.392
X6.656 Y-6.046 Z-0.393
X6.626 Y-6.078
X6.596 Y-6.109 Z-0.394
X6.567 Y-6.14 Z-0.395
X6.537 Y-6.172 Z-0.396
X6.507 Y-6.203 Z-0.397
X6.477 Y-6.234
X6.447 Y-6.266 Z-0.398
X6.417 Y-6.297
X6.387 Y-6.328 Z-0.399
X6.357 Y-6.359
X6.327 Y-6.391
X6.297 Y-6.422 Z-0.4
X6.267 Y-6.453
X6.235 Y-6.483
X6.213 Y-6.503
X5.831 Y-6.849
X5.798 Y-6.877
X5.372 Y-7.213
X5.34 Y-7.239
X5.339 Y-7.24
X5.307 Y-7.262
X4.848 Y-7.577
X4.816 Y-7.597
X4.357 Y-7.869
X4.324 Y-7.888
X4.311 Y-7.895
X3.793 Y-8.157
X3.767 Y-8.168
X3.243 Y-8.39
X3.21 Y-8.403
X2.686 Y-8.585
X2.653 Y-8.595
X2.097 Y-8.748
X2.064 Y-8.755
X1.507 Y-8.868
X1.474 Y-8.873
X0.917 Y-8.948
X0.884 Y-8.952
X0.328 Y-8.989
X0.295 Y-8.991
X-0.295
X-0.328 Y-8.989
X-0.884 Y-8.952
X-0.917 Y-8.948
X-1.474 Y-8.873
X-1.507 Y-8.868
X-2.064 Y-8.755
X-2.097 Y-8.748
X-2.653 Y-8.595
X-2.686 Y-8.585
X-3.21 Y-8.403
X-3.243 Y-8.39
X-3.767 Y-8.168
X-3.793 Y-8.157
X-4.311 Y-7.895
X-4.324 Y-7.888
X-4.357 Y-7.869
X-4.816 Y-7.597
X-4.848 Y-7.577
X-5.307 Y-7.262
X-5.339 Y-7.24
X-5.34 Y-7.239
X-5.405 Y-7.188
X-5.798 Y-6.877
X-5.831 Y-6.849
X-6.232 Y-6.486
X-6.257 Y-6.463
X-6.266 Y-6.453
X-6.65 Y-6.057
X-6.677 Y-6.028
X-7.043 Y-5.595
X-7.064 Y-5.569
X-7.403 Y-5.109
X-7.425 Y-5.078
X-7.731 Y-4.598
X-7.739 Y-4.586
X-7.757 Y-4.553
X-8.026 Y-4.062
X-8.042 Y-4.029
X-8.27 Y-3.538
X-8.284 Y-3.505
X-8.486 Y-2.981
X-8.499 Y-2.948
X-8.509 Y-2.916
X-8.671 Y-2.391
X-8.68 Y-2.359
X-8.813 Y-1.802
X-8.819 Y-1.769
X-8.913 Y-1.212
X-8.917 Y-1.179
X-8.973 Y-0.622
X-8.976 Y-0.593
X-8.995 Y-0.033
X-8.996 Y0
X-8.995 Y0.033
X-8.976 Y0.593
X-8.973 Y0.622
X-8.917 Y1.179
X-8.913 Y1.212
X-8.819 Y1.769
X-8.813 Y1.802
X-8.68 Y2.359
X-8.671 Y2.391
X-8.509 Y2.916
X-8.499 Y2.948
X-8.486 Y2.981
X-8.284 Y3.505
X-8.27 Y3.538
X-8.042 Y4.029
X-8.026 Y4.062
X-7.757 Y4.553
X-7.739 Y4.586
X-7.731 Y4.598
X-7.425 Y5.078
X-7.403 Y5.109
X-7.064 Y5.569
X-7.043 Y5.595
X-6.677 Y6.028
X-6.65 Y6.057
X-6.266 Y6.453
X-6.257 Y6.463
X-6.232 Y6.486
X-5.831 Y6.849
X-5.798 Y6.877
X-5.372 Y7.213
X-5.34 Y7.239
X-5.339 Y7.24
X-5.307 Y7.262
X-4.848 Y7.577
X-4.816 Y7.597
X-4.357 Y7.869
X-4.324 Y7.888
X-4.311 Y7.895
X-3.793 Y8.157
X-3.767 Y8.168
X-3.243 Y8.39
X-3.21 Y8.403
X-2.686 Y8.585
X-2.653 Y8.595
X-2.097 Y8.748
X-2.064 Y8.755
X-1.507 Y8.868
X-1.474 Y8.873
X-0.917 Y8.948
X-0.884 Y8.952
X-0.328 Y8.989
X-0.295 Y8.991
X0.295
X0.328 Y8.989
X0.884 Y8.952
X0.917 Y8.948
X1.474 Y8.873
X1.507 Y8.868
X2.064 Y8.755
X2.097 Y8.748
X2.653 Y8.595
X2.686 Y8.585
X3.21 Y8.403
X3.243 Y8.39
X3.767 Y8.168
X3.793 Y8.157
X4.311 Y7.895
X4.324 Y7.888
X4.357 Y7.869
X4.816 Y7.597
X4.848 Y7.577
X5.307 Y7.262
X5.339 Y7.24
X5.34 Y7.239
X5.405 Y7.188
X5.798 Y6.877
X5.831 Y6.849
X6.232 Y6.486
X6.257 Y6.463
X6.266 Y6.453
X6.65 Y6.057
X6.677 Y6.028
X7.043 Y5.595
X7.064 Y5.569
X7.403 Y5.109
X7.425 Y5.078
X7.731 Y4.598
X7.739 Y4.586
X7.757 Y4.553
X7.914 Y4.267
X8.026 Y4.062
X8.042 Y4.029
X8.27 Y3.538
X8.284 Y3.505
X8.486 Y2.981
X8.499 Y2.948
X8.509 Y2.916
X8.671 Y2.391
X8.68 Y2.359
X8.813 Y1.802
X8.819 Y1.769
X8.913 Y1.212
X8.917 Y1.179
X8.973 Y0.622
X8.976 Y0.593
X8.995 Y0.033
X8.996 Y0
X8.995 Y-0.033
X8.976 Y-0.593
X8.973 Y-0.622
X8.917 Y-1.179
X8.913 Y-1.212
X8.819 Y-1.769
X8.813 Y-1.802
X8.68 Y-2.359
X8.671 Y-2.391
X8.509 Y-2.916
X8.499 Y-2.948
X8.486 Y-2.981
X8.378 Y-3.263
X8.284 Y-3.505
X8.27 Y-3.538
X8.042 Y-4.029
X8.026 Y-4.062
X7.757 Y-4.553
X7.739 Y-4.586
X7.731 Y-4.598
X7.425 Y-5.078
X7.403 Y-5.109
X7.064 Y-5.569
X7.043 Y-5.595
X6.677 Y-6.028
X6.65 Y-6.057
X6.266 Y-6.453
X6.257 Y-6.463
X6.232 Y-6.486
X6.213 Y-6.503
X5.831 Y-6.849
X5.798 Y-6.877
X5.372 Y-7.213
X5.34 Y-7.239
X5.339 Y-7.24
X5.307 Y-7.262
X4.848 Y-7.577
X4.816 Y-7.597
X4.357 Y-7.869
X4.324 Y-7.888
X4.311 Y-7.895
X3.793 Y-8.157
X3.767 Y-8.168
X3.243 Y-8.39
X3.21 Y-8.403
X2.686 Y-8.585
X2.653 Y-8.595
X2.097 Y-8.748
X2.064 Y-8.755
X1.507 Y-8.868
X1.474 Y-8.873
X0.917 Y-8.948
X0.884 Y-8.952
X0.328 Y-8.989
X0.295 Y-8.991
X-0.295
X-0.328 Y-8.989
X-0.884 Y-8.952
X-0.917 Y-8.948
X-1.474 Y-8.873
X-1.507 Y-8.868
X-2.064 Y-8.755
X-2.097 Y-8.748
X-2.653 Y-8.595
X-2.686 Y-8.585
X-3.21 Y-8.403
X-3.243 Y-8.39
X-3.767 Y-8.168
X-3.793 Y-8.157
X-4.311 Y-7.895
X-4.324 Y-7.888
X-4.357 Y-7.869
X-4.816 Y-7.597
X-4.848 Y-7.577
X-5.307 Y-7.262
X-5.339 Y-7.24
X-5.34 Y-7.239
X-5.405 Y-7.188
X-5.798 Y-6.877
X-5.831 Y-6.849
X-6.232 Y-6.486
X-6.257 Y-6.463
X-6.266 Y-6.453
X-6.65 Y-6.057
X-6.677 Y-6.028
X-7.043 Y-5.595
X-7.064 Y-5.569
X-7.403 Y-5.109
X-7.425 Y-5.078
X-7.731 Y-4.598
X-7.739 Y-4.586
X-7.757 Y-4.553
X-8.026 Y-4.062
X-8.042 Y-4.029
X-8.27 Y-3.538
X-8.284 Y-3.505
X-8.486 Y-2.981
X-8.499 Y-2.948
X-8.509 Y-2.916
X-8.671 Y-2.391
X-8.68 Y-2.359
X-8.813 Y-1.802
X-8.819 Y-1.769
X-8.913 Y-1.212
X-8.917 Y-1.179
X-8.973 Y-0.622
X-8.976 Y-0.593
X-8.995 Y-0.033
X-8.996 Y0
X-8.995 Y0.033
X-8.976 Y0.593
X-8.973 Y0.622
X-8.917 Y1.179
X-8.913 Y1.212
X-8.819 Y1.769
X-8.813 Y1.802
X-8.68 Y2.359
X-8.671 Y2.391
X-8.509 Y2.916
X-8.499 Y2.948
X-8.486 Y2.981
X-8.284 Y3.505
X-8.27 Y3.538
X-8.042 Y4.029
X-8.026 Y4.062
X-7.757 Y4.553
X-7.739 Y4.586
X-7.731 Y4.598
X-7.425 Y5.078
X-7.403 Y5.109
X-7.064 Y5.569
X-7.043 Y5.595
X-6.677 Y6.028
X-6.65 Y6.057
X-6.266 Y6.453
X-6.257 Y6.463
X-6.232 Y6.486
X-5.831 Y6.849
X-5.798 Y6.877
X-5.372 Y7.213
X-5.34 Y7.239
X-5.339 Y7.24
X-5.307 Y7.262
X-4.848 Y7.577
X-4.816 Y7.597
X-4.357 Y7.869
X-4.324 Y7.888
X-4.311 Y7.895
X-3.793 Y8.157
X-3.767 Y8.168
X-3.243 Y8.39
X-3.21 Y8.403
X-2.686 Y8.585
X-2.653 Y8.595
X-2.097 Y8.748
X-2.064 Y8.755
X-1.507 Y8.868
X-1.474 Y8.873
X-0.917 Y8.948
X-0.884 Y8.952
X-0.328 Y8.989
X-0.295 Y8.991
X0.295
X0.328 Y8.989
X0.884 Y8.952
X0.917 Y8.948
X1.474 Y8.873
X1.507 Y8.868
X2.064 Y8.755
X2.097 Y8.748
X2.653 Y8.595
X2.686 Y8.585
X3.21 Y8.403
X3.243 Y8.39
X3.767 Y8.168
X3.793 Y8.157
X4.311 Y7.895
X4.324 Y7.888
X4.357 Y7.869
X4.816 Y7.597
X4.848 Y7.577
X5.307 Y7.262
X5.339 Y7.24
X5.34 Y7.239
X5.405 Y7.188
X5.798 Y6.877
X5.831 Y6.849
X6.232 Y6.486
X6.257 Y6.463
X6.266 Y6.453
X6.65 Y6.057
X6.677 Y6.028
X7.043 Y5.595
X7.064 Y5.569
X7.403 Y5.109
X7.425 Y5.078
X7.731 Y4.598
X7.739 Y4.586
X7.757 Y4.553
X7.914 Y4.267
X8.026 Y4.062
X8.042 Y4.029
X8.27 Y3.538
X8.284 Y3.505
X8.486 Y2.981
X8.499 Y2.948
X8.509 Y2.916
X8.671 Y2.391
X8.68 Y2.359
X8.813 Y1.802
X8.819 Y1.769
X8.913 Y1.212
X8.917 Y1.179
X8.973 Y0.622
X8.976 Y0.593
X8.995 Y0.033
X8.996 Y0
X8.995 Y-0.033
X8.976 Y-0.593
X8.973 Y-0.622
X8.917 Y-1.179
X8.913 Y-1.212
X8.819 Y-1.769
X8.813 Y-1.802
X8.68 Y-2.359
X8.671 Y-2.391
X8.509 Y-2.916
X8.499 Y-2.948
X8.486 Y-2.981
X8.284 Y-3.505
X8.27 Y-3.538
X8.042 Y-4.029
X8.026 Y-4.062
X7.757 Y-4.553
X7.739 Y-4.586
X7.731 Y-4.598
X7.425 Y-5.078
X7.403 Y-5.109
X7.064 Y-5.569
X7.043 Y-5.595
X6.677 Y-6.028
X6.65 Y-6.057
X6.266 Y-6.453
X6.257 Y-6.463
X6.232 Y-6.486
X6.213 Y-6.503
X6.197 Y-6.518
X6.181 Y-6.532
X6.149 Y-6.562
X6.116 Y-6.591
X6.084 Y-6.62 Z-0.401
X6.052 Y-6.649
X6.02 Y-6.678
X5.988 Y-6.707 Z-0.402
X5.956 Y-6.736
X5.924 Y-6.766 Z-0.403
X5.892 Y-6.795 Z-0.404
X5.86 Y-6.824
X5.829 Y-6.853 Z-0.405
X5.798 Y-6.88 Z-0.406
X5.764 Y-6.907 Z-0.407
X5.73 Y-6.935 Z-0.408
X5.696 Y-6.962 Z-0.409
X5.663 Y-6.989 Z-0.41
X5.629 Y-7.016 Z-0.411
X5.595 Y-7.043 Z-0.412
X5.561 Y-7.07 Z-0.413
X5.528 Y-7.098 Z-0.414
X5.494 Y-7.125 Z-0.416
X5.46 Y-7.152 Z-0.417
X5.427 Y-7.179 Z-0.418
X5.393 Y-7.206 Z-0.42
X5.359 Y-7.234 Z-0.421
X5.326 Y-7.259 Z-0.422
X5.291 Y-7.284 Z-0.424
X5.255 Y-7.309 Z-0.425
X4.867 Y-7.583 Z-0.442
X4.831 Y-7.606 Z-0.443
X4.35 Y-7.899 Z-0.463
X4.313 Y-7.92 Z-0.465
X4.044 Y-8.06 Z-0.475
X4.006 Y-8.08 Z-0.477
X3.968 Y-8.1 Z-0.478
X3.929 Y-8.12 Z-0.479
X3.891 Y-8.14 Z-0.481
X3.852 Y-8.16 Z-0.482
X3.814 Y-8.18 Z-0.484
X3.775 Y-8.198 Z-0.485
X3.735 Y-8.216 Z-0.486
X3.695 Y-8.233 Z-0.487
X3.656 Y-8.25 Z-0.488
X3.616 Y-8.268 Z-0.49
X3.576 Y-8.285 Z-0.491
X3.537 Y-8.302 Z-0.492
X3.497 Y-8.319 Z-0.493
X3.457 Y-8.337 Z-0.494
X3.417 Y-8.354
X3.378 Y-8.371 Z-0.495
X3.338 Y-8.388 Z-0.496
X3.298 Y-8.405 Z-0.497
X3.258 Y-8.422
X3.218 Y-8.438 Z-0.498
X3.177 Y-8.452
X3.136 Y-8.466 Z-0.499
X3.095 Y-8.481
X3.054 Y-8.495
X3.013 Y-8.509 Z-0.5
X2.973 Y-8.524
X2.932 Y-8.538
X2.904 Y-8.547
X2.686 Y-8.623
X2.653 Y-8.633
X2.118 Y-8.779
X2.097 Y-8.785
X2.064 Y-8.792
X1.54 Y-8.899
X1.507 Y-8.905
X1.474 Y-8.91
X0.917 Y-8.985
X0.884 Y-8.988
X0.328 Y-9.025
X0.295 Y-9.027
X-0.295
X-0.328 Y-9.025
X-0.884 Y-8.988
X-0.917 Y-8.985
X-1.474 Y-8.91
X-1.507 Y-8.905
X-1.54 Y-8.899
X-2.064 Y-8.792
X-2.097 Y-8.785
X-2.118 Y-8.779
X-2.653 Y-8.633
X-2.686 Y-8.623
X-3.21 Y-8.441
X-3.243 Y-8.43
X-3.269 Y-8.419
X-3.767 Y-8.208
X-3.8 Y-8.194
X-3.808 Y-8.19
X-4.327 Y-7.928
X-4.357 Y-7.911
X-4.848 Y-7.62
X-4.879 Y-7.6
X-5.34 Y-7.284
X-5.356 Y-7.272
X-5.372 Y-7.26
X-5.813 Y-6.912
X-5.831 Y-6.898
X-5.851 Y-6.879
X-6.257 Y-6.513
X-6.285 Y-6.486
X-6.683 Y-6.075
X-6.697 Y-6.06
X-6.716 Y-6.039
X-7.076 Y-5.612
X-7.085 Y-5.602
X-7.109 Y-5.57
X-7.436 Y-5.126
X-7.447 Y-5.11
X-7.469 Y-5.076
X-7.764 Y-4.615
X-7.78 Y-4.586
X-8.05 Y-4.095
X-8.059 Y-4.078
X-8.067 Y-4.062
X-8.31 Y-3.538
X-8.321 Y-3.512
X-8.525 Y-2.981
X-8.537 Y-2.948
X-8.699 Y-2.424
X-8.71 Y-2.391
X-8.714 Y-2.375
X-8.845 Y-1.825
X-8.85 Y-1.802
X-8.856 Y-1.769
X-8.95 Y-1.212
X-8.954 Y-1.179
X-9.009 Y-0.636
X-9.01 Y-0.622
X-9.012 Y-0.59
X-9.031 Y-0.033
X-9.032 Y0
X-9.031 Y0.033
X-9.012 Y0.59
X-9.01 Y0.622
X-8.954 Y1.179
X-8.95 Y1.212
X-8.856 Y1.769
X-8.85 Y1.802
X-8.845 Y1.825
X-8.714 Y2.375
X-8.71 Y2.391
X-8.699 Y2.424
X-8.537 Y2.948
X-8.525 Y2.981
X-8.321 Y3.512
X-8.31 Y3.538
X-8.067 Y4.062
X-8.059 Y4.078
X-8.05 Y4.095
X-7.78 Y4.586
X-7.764 Y4.615
X-7.468 Y5.078
X-7.447 Y5.11
X-7.436 Y5.126
X-7.109 Y5.57
X-7.085 Y5.602
X-7.076 Y5.612
X-6.716 Y6.039
X-6.697 Y6.06
X-6.683 Y6.075
X-6.285 Y6.486
X-6.257 Y6.513
X-5.851 Y6.879
X-5.831 Y6.898
X-5.813 Y6.912
X-5.372 Y7.26
X-5.356 Y7.272
X-5.34 Y7.284
X-4.879 Y7.6
X-4.848 Y7.62
X-4.357 Y7.911
X-4.327 Y7.928
X-3.808 Y8.19
X-3.8 Y8.194
X-3.767 Y8.208
X-3.269 Y8.419
X-3.243 Y8.43
X-3.21 Y8.441
X-2.686 Y8.623
X-2.653 Y8.633
X-2.118 Y8.779
X-2.097 Y8.785
X-2.064 Y8.792
X-1.54 Y8.899
X-1.507 Y8.905
X-1.474 Y8.91
X-0.917 Y8.985
X-0.884 Y8.988
X-0.328 Y9.025
X-0.295 Y9.027
X0.295
X0.328 Y9.025
X0.884 Y8.988
X0.917 Y8.985
X1.474 Y8.91
X1.507 Y8.905
X1.54 Y8.899
X2.064 Y8.792
X2.097 Y8.785
X2.118 Y8.779
X2.653 Y8.633
X2.686 Y8.623
X3.21 Y8.441
X3.243 Y8.43
X3.269 Y8.419
X3.767 Y8.208
X3.8 Y8.194
X3.808 Y8.19
X4.327 Y7.928
X4.357 Y7.911
X4.848 Y7.62
X4.879 Y7.6
X5.34 Y7.284
X5.356 Y7.272
X5.372 Y7.26
X5.813 Y6.912
X5.831 Y6.898
X5.851 Y6.879
X6.257 Y6.513
X6.285 Y6.486
X6.683 Y6.075
X6.697 Y6.06
X6.716 Y6.039
X7.076 Y5.612
X7.085 Y5.602
X7.109 Y5.57
X7.436 Y5.126
X7.447 Y5.11
X7.469 Y5.076
X7.764 Y4.615
X7.78 Y4.586
X7.946 Y4.284
X8.05 Y4.095
X8.059 Y4.078
X8.067 Y4.062
X8.31 Y3.538
X8.321 Y3.512
X8.525 Y2.981
X8.537 Y2.948
X8.699 Y2.424
X8.71 Y2.391
X8.714 Y2.375
X8.845 Y1.825
X8.85 Y1.802
X8.856 Y1.769
X8.95 Y1.212
X8.954 Y1.179
X9.01 Y0.622
X9.012 Y0.59
X9.031 Y0.033
X9.032 Y0
X9.031 Y-0.033
X9.012 Y-0.59
X9.01 Y-0.622
X8.954 Y-1.179
X8.95 Y-1.212
X8.856 Y-1.769
X8.85 Y-1.802
X8.845 Y-1.825
X8.714 Y-2.375
X8.71 Y-2.391
X8.699 Y-2.424
X8.537 Y-2.948
X8.525 Y-2.981
X8.321 Y-3.512
X8.31 Y-3.538
X8.067 Y-4.062
X8.059 Y-4.078
X8.05 Y-4.095
X7.78 Y-4.586
X7.764 Y-4.615
X7.468 Y-5.078
X7.447 Y-5.11
X7.436 Y-5.126
X7.109 Y-5.57
X7.085 Y-5.602
X7.076 Y-5.612
X6.716 Y-6.039
X6.697 Y-6.06
X6.683 Y-6.075
X6.285 Y-6.486
X6.257 Y-6.513
X5.851 Y-6.879
X5.831 Y-6.898
X5.813 Y-6.912
X5.372 Y-7.26
X5.356 Y-7.272
X5.34 Y-7.284
X4.879 Y-7.6
X4.848 Y-7.62
X4.357 Y-7.911
X4.327 Y-7.928
X3.808 Y-8.19
X3.8 Y-8.194
X3.767 Y-8.208
X3.269 Y-8.419
X3.243 Y-8.43
X3.21 Y-8.441
X2.904 Y-8.547
X2.686 Y-8.623
X2.653 Y-8.633
X2.118 Y-8.779
X2.097 Y-8.785
X2.064 Y-8.792
X1.54 Y-8.899
X1.507 Y-8.905
X1.474 Y-8.91
X0.917 Y-8.985
X0.884 Y-8.988
X0.328 Y-9.025
X0.295 Y-9.027
X-0.295
X-0.328 Y-9.025
X-0.884 Y-8.988
X-0.917 Y-8.985
X-1.474 Y-8.91
X-1.507 Y-8.905
X-1.54 Y-8.899
X-2.064 Y-8.792
X-2.097 Y-8.785
X-2.118 Y-8.779
X-2.653 Y-8.633
X-2.686 Y-8.623
X-3.21 Y-8.441
X-3.243 Y-8.43
X-3.269 Y-8.419
X-3.767 Y-8.208
X-3.8 Y-8.194
X-3.808 Y-8.19
X-4.327 Y-7.928
X-4.357 Y-7.911
X-4.848 Y-7.62
X-4.879 Y-7.6
X-5.34 Y-7.284
X-5.356 Y-7.272
X-5.372 Y-7.26
X-5.813 Y-6.912
X-5.831 Y-6.898
X-5.851 Y-6.879
X-6.257 Y-6.513
X-6.285 Y-6.486
X-6.683 Y-6.075
X-6.697 Y-6.06
X-6.716 Y-6.039
X-7.076 Y-5.612
X-7.085 Y-5.602
X-7.109 Y-5.57
X-7.436 Y-5.126
X-7.447 Y-5.11
X-7.469 Y-5.076
X-7.764 Y-4.615
X-7.78 Y-4.586
X-8.05 Y-4.095
X-8.059 Y-4.078
X-8.067 Y-4.062
X-8.31 Y-3.538
X-8.321 Y-3.512
X-8.525 Y-2.981
X-8.537 Y-2.948
X-8.699 Y-2.424
X-8.71 Y-2.391
X-8.714 Y-2.375
X-8.845 Y-1.825
X-8.85 Y-1.802
X-8.856 Y-1.769
X-8.95 Y-1.212
X-8.954 Y-1.179
X-9.009 Y-0.636
X-9.01 Y-0.622
X-9.012 Y-0.59
X-9.031 Y-0.033
X-9.032 Y0
X-9.031 Y0.033
X-9.012 Y0.59
X-9.01 Y0.622
X-8.954 Y1.179
X-8.95 Y1.212
X-8.856 Y1.769
X-8.85 Y1.802
X-8.845 Y1.825
X-8.714 Y2.375
X-8.71 Y2.391
X-8.699 Y2.424
X-8.537 Y2.948
X-8.525 Y2.981
X-8.321 Y3.512
X-8.31 Y3.538
X-8.067 Y4.062
X-8.059 Y4.078
X-8.05 Y4.095
X-7.78 Y4.586
X-7.764 Y4.615
X-7.468 Y5.078
X-7.447 Y5.11
X-7.436 Y5.126
X-7.109 Y5.57
X-7.085 Y5.602
X-7.076 Y5.612
X-6.716 Y6.039
X-6.697 Y6.06
X-6.683 Y6.075
X-6.285 Y6.486
X-6.257 Y6.513
X-5.851 Y6.879
X-5.831 Y6.898
X-5.813 Y6.912
X-5.372 Y7.26
X-5.356 Y7.272
X-5.34 Y7.284
X-4.879 Y7.6
X-4.848 Y7.62
X-4.357 Y7.911
X-4.327 Y7.928
X-3.808 Y8.19
X-3.8 Y8.194
X-3.767 Y8.208
X-3.269 Y8.419
X-3.243 Y8.43
X-3.21 Y8.441
X-2.686 Y8.623
X-2.653 Y8.633
X-2.118 Y8.779
X-2.097 Y8.785
X-2.064 Y8.792
X-1.54 Y8.899
X-1.507 Y8.905
X-1.474 Y8.91
X-0.917 Y8.985
X-0.884 Y8.988
X-0.328 Y9.025
X-0.295 Y9.027
X0.295
X0.328 Y9.025
X0.884 Y8.988
X0.917 Y8.985
X1.474 Y8.91
X1.507 Y8.905
X1.54 Y8.899
X2.064 Y8.792
X2.097 Y8.785
X2.118 Y8.779
X2.653 Y8.633
X2.686 Y8.623
X3.21 Y8.441
X3.243 Y8.43
X3.269 Y8.419
X3.767 Y8.208
X3.8 Y8.194
X3.808 Y8.19
X4.327 Y7.928
X4.357 Y7.911
X4.848 Y7.62
X4.879 Y7.6
X5.34 Y7.284
X5.356 Y7.272
X5.372 Y7.26
X5.813 Y6.912
X5.831 Y6.898
X5.851 Y6.879
X6.257 Y6.513
X6.285 Y6.486
X6.683 Y6.075
X6.697 Y6.06
X6.716 Y6.039
X7.076 Y5.612
X7.085 Y5.602
X7.109 Y5.57
X7.436 Y5.126
X7.447 Y5.11
X7.469 Y5.076
X7.764 Y4.615
X7.78 Y4.586
X7.946 Y4.284
X8.05 Y4.095
X8.059 Y4.078
X8.067 Y4.062
X8.31 Y3.538
X8.321 Y3.512
X8.525 Y2.981
X8.537 Y2.948
X8.699 Y2.424
X8.71 Y2.391
X8.714 Y2.375
X8.845 Y1.825
X8.85 Y1.802
X8.856 Y1.769
X8.95 Y1.212
X8.954 Y1.179
X9.01 Y0.622
X9.012 Y0.59
X9.031 Y0.033
X9.032 Y0
X9.031 Y-0.033
X9.012 Y-0.59
X9.01 Y-0.622
X8.954 Y-1.179
X8.95 Y-1.212
X8.856 Y-1.769
X8.85 Y-1.802
X8.845 Y-1.825
X8.714 Y-2.375
X8.71 Y-2.391
X8.699 Y-2.424
X8.537 Y-2.948
X8.525 Y-2.981
X8.321 Y-3.512
X8.31 Y-3.538
X8.067 Y-4.062
X8.059 Y-4.078
X8.05 Y-4.095
X7.78 Y-4.586
X7.764 Y-4.615
X7.468 Y-5.078
X7.447 Y-5.11
X7.436 Y-5.126
X7.109 Y-5.57
X7.085 Y-5.602
X7.076 Y-5.612
X6.716 Y-6.039
X6.697 Y-6.06
X6.683 Y-6.075
X6.285 Y-6.486
X6.257 Y-6.513
X5.851 Y-6.879
X5.831 Y-6.898
X5.813 Y-6.912
X5.372 Y-7.26
X5.356 Y-7.272
X5.34 Y-7.284
X4.879 Y-7.6
X4.848 Y-7.62
X4.357 Y-7.911
X4.327 Y-7.928
X3.808 Y-8.19
X3.8 Y-8.194
X3.767 Y-8.208
X3.269 Y-8.419
X3.243 Y-8.43
X3.21 Y-8.441
X2.904 Y-8.547
X2.884 Y-8.555
X2.863 Y-8.562
X2.822 Y-8.576
X2.781 Y-8.59
X2.74 Y-8.604 Z-0.501
X2.699 Y-8.619
X2.659 Y-8.632
X2.617 Y-8.643 Z-0.502
X2.575 Y-8.655
X2.534 Y-8.667 Z-0.503
X2.492 Y-8.678 Z-0.504
X2.45 Y-8.69
X2.409 Y-8.702 Z-0.505
X2.367 Y-8.713 Z-0.506
X2.325 Y-8.725 Z-0.507
X2.284 Y-8.737 Z-0.508
X2.242 Y-8.749 Z-0.509
X2.2 Y-8.761 Z-0.51
X2.158 Y-8.772 Z-0.511
X2.117 Y-8.784 Z-0.512
X2.075 Y-8.795 Z-0.513
X2.033 Y-8.804 Z-0.514
X1.99 Y-8.813 Z-0.516
X1.948 Y-8.822 Z-0.517
X1.906 Y-8.831 Z-0.518
X1.863 Y-8.84 Z-0.52
X1.821 Y-8.849 Z-0.521
X1.779 Y-8.858 Z-0.522
X1.736 Y-8.868 Z-0.524
X1.694 Y-8.877 Z-0.525
X1.628 Y-8.891 Z-0.528
X1.62 Y-8.893
X1.567 Y-8.903 Z-0.53
X1.524 Y-8.912 Z-0.531
X1.482 Y-8.919 Z-0.533
X0.924 Y-8.994 Z-0.553
X0.881 Y-8.998 Z-0.554
X0.319 Y-9.036 Z-0.574
X0.276 Y-9.037 Z-0.575
X0.232 Z-0.577
X0.189 Z-0.578
X0.146 Z-0.58
X0.102 Z-0.581
X0.059 Z-0.582
X0.016 Z-0.584
X-0.028 Z-0.585
X-0.071 Z-0.586
X-0.114 Z-0.587
X-0.158 Z-0.589
X-0.201 Z-0.59
X-0.244 Z-0.591
X-0.288 Z-0.592
X-0.331 Y-9.035 Z-0.593
X-0.374 Y-9.032 Z-0.594
X-0.417 Y-9.029
X-0.46 Y-9.027 Z-0.595
X-0.504 Y-9.024 Z-0.596
X-0.547 Y-9.021 Z-0.597
X-0.59 Y-9.018
X-0.633 Y-9.015 Z-0.598
X-0.677 Y-9.012
X-0.72 Y-9.009 Z-0.599
X-0.763 Y-9.006
X-0.806 Y-9.003 Z-0.6
X-0.849 Y-9.001
X-0.893 Y-8.998
X-0.936 Y-8.993
X-0.959 Y-8.99
X-1.474 Y-8.92
X-1.507 Y-8.916
X-1.533 Y-8.91
X-2.064 Y-8.802
X-2.097 Y-8.796
X-2.129 Y-8.787
X-2.653 Y-8.643
X-2.686 Y-8.634
X-3.243 Y-8.44
X-3.276 Y-8.427
X-3.8 Y-8.205
X-3.831 Y-8.19
X-4.324 Y-7.94
X-4.349 Y-7.928
X-4.357 Y-7.923
X-4.848 Y-7.632
X-4.881 Y-7.611
X-5.34 Y-7.296
X-5.372 Y-7.273
X-5.831 Y-6.911
X-5.864 Y-6.882
X-6.265 Y-6.519
X-6.29 Y-6.496
X-6.299 Y-6.486
X-6.683 Y-6.09
X-6.71 Y-6.06
X-7.076 Y-5.628
X-7.098 Y-5.602
X-7.109 Y-5.587
X-7.436 Y-5.143
X-7.459 Y-5.11
X-7.773 Y-4.619
X-7.792 Y-4.586
X-8.061 Y-4.095
X-8.078 Y-4.062
X-8.321 Y-3.538
X-8.334 Y-3.505
X-8.536 Y-2.981
X-8.547 Y-2.948
X-8.714 Y-2.412
X-8.72 Y-2.391
X-8.728 Y-2.359
X-8.853 Y-1.834
X-8.861 Y-1.802
X-8.866 Y-1.769
X-8.96 Y-1.212
X-8.964 Y-1.179
X-9.02 Y-0.622
X-9.023 Y-0.59
X-9.041 Y-0.025
X-9.042 Y0
X-9.041 Y0.025
X-9.023 Y0.59
X-9.02 Y0.622
X-8.964 Y1.179
X-8.96 Y1.212
X-8.866 Y1.769
X-8.861 Y1.802
X-8.853 Y1.834
X-8.728 Y2.359
X-8.72 Y2.391
X-8.714 Y2.412
X-8.547 Y2.948
X-8.536 Y2.981
X-8.334 Y3.505
X-8.321 Y3.538
X-8.078 Y4.062
X-8.061 Y4.095
X-7.792 Y4.586
X-7.773 Y4.619
X-7.459 Y5.11
X-7.436 Y5.143
X-7.109 Y5.587
X-7.098 Y5.602
X-7.076 Y5.628
X-6.71 Y6.06
X-6.683 Y6.09
X-6.299 Y6.486
X-6.29 Y6.496
X-6.265 Y6.519
X-5.864 Y6.882
X-5.831 Y6.911
X-5.372 Y7.273
X-5.34 Y7.296
X-4.881 Y7.611
X-4.848 Y7.632
X-4.357 Y7.923
X-4.349 Y7.928
X-4.324 Y7.94
X-3.831 Y8.19
X-3.8 Y8.205
X-3.276 Y8.427
X-3.243 Y8.44
X-2.686 Y8.634
X-2.653 Y8.643
X-2.129 Y8.787
X-2.097 Y8.796
X-2.064 Y8.802
X-1.533 Y8.91
X-1.507 Y8.916
X-1.474 Y8.92
X-0.917 Y8.995
X-0.884 Y8.998
X-0.328 Y9.035
X-0.295 Y9.037
X0.295
X0.328 Y9.035
X0.884 Y8.998
X0.917 Y8.995
X1.474 Y8.92
X1.507 Y8.916
X1.533 Y8.91
X2.064 Y8.802
X2.097 Y8.796
X2.129 Y8.787
X2.653 Y8.643
X2.686 Y8.634
X3.243 Y8.44
X3.276 Y8.427
X3.8 Y8.205
X3.831 Y8.19
X4.324 Y7.94
X4.349 Y7.928
X4.357 Y7.923
X4.848 Y7.632
X4.881 Y7.611
X5.34 Y7.296
X5.372 Y7.273
X5.831 Y6.911
X5.864 Y6.882
X6.265 Y6.519
X6.29 Y6.496
X6.299 Y6.486
X6.683 Y6.09
X6.71 Y6.06
X7.076 Y5.628
X7.098 Y5.602
X7.109 Y5.587
X7.436 Y5.143
X7.459 Y5.11
X7.773 Y4.619
X7.792 Y4.586
X7.955 Y4.289
X8.061 Y4.095
X8.078 Y4.062
X8.321 Y3.538
X8.334 Y3.505
X8.536 Y2.981
X8.547 Y2.948
X8.714 Y2.412
X8.72 Y2.391
X8.728 Y2.359
X8.853 Y1.834
X8.861 Y1.802
X8.866 Y1.769
X8.96 Y1.212
X8.964 Y1.179
X9.02 Y0.622
X9.023 Y0.59
X9.041 Y0.025
X9.042 Y0
X9.041 Y-0.025
X9.023 Y-0.59
X9.02 Y-0.622
X8.964 Y-1.179
X8.96 Y-1.212
X8.866 Y-1.769
X8.861 Y-1.802
X8.853 Y-1.834
X8.728 Y-2.359
X8.72 Y-2.391
X8.714 Y-2.412
X8.547 Y-2.948
X8.536 Y-2.981
X8.334 Y-3.505
X8.321 Y-3.538
X8.078 Y-4.062
X8.061 Y-4.095
X7.792 Y-4.586
X7.773 Y-4.619
X7.459 Y-5.11
X7.436 Y-5.143
X7.109 Y-5.587
X7.098 Y-5.602
X7.076 Y-5.628
X6.71 Y-6.06
X6.683 Y-6.09
X6.299 Y-6.486
X6.29 Y-6.496
X6.265 Y-6.519
X5.864 Y-6.882
X5.831 Y-6.911
X5.372 Y-7.273
X5.34 Y-7.296
X4.881 Y-7.611
X4.848 Y-7.632
X4.357 Y-7.923
X4.349 Y-7.928
X4.324 Y-7.94
X3.831 Y-8.19
X3.8 Y-8.205
X3.276 Y-8.427
X3.243 Y-8.44
X2.907 Y-8.557
X2.686 Y-8.634
X2.653 Y-8.643
X2.129 Y-8.787
X2.097 Y-8.796
X2.064 Y-8.802
X1.533 Y-8.91
X1.507 Y-8.916
X1.474 Y-8.92
X0.917 Y-8.995
X0.884 Y-8.998
X0.328 Y-9.035
X0.295 Y-9.037
X-0.295
X-0.328 Y-9.035
X-0.884 Y-8.998
X-0.917 Y-8.995
X-0.959 Y-8.99
X-1.474 Y-8.92
X-1.507 Y-8.916
X-1.533 Y-8.91
X-2.064 Y-8.802
X-2.097 Y-8.796
X-2.129 Y-8.787
X-2.653 Y-8.643
X-2.686 Y-8.634
X-3.243 Y-8.44
X-3.276 Y-8.427
X-3.8 Y-8.205
X-3.831 Y-8.19
X-4.324 Y-7.94
X-4.349 Y-7.928
X-4.357 Y-7.923
X-4.848 Y-7.632
X-4.881 Y-7.611
X-5.34 Y-7.296
X-5.372 Y-7.273
X-5.831 Y-6.911
X-5.864 Y-6.882
X-6.265 Y-6.519
X-6.29 Y-6.496
X-6.299 Y-6.486
X-6.683 Y-6.09
X-6.71 Y-6.06
X-7.076 Y-5.628
X-7.098 Y-5.602
X-7.109 Y-5.587
X-7.436 Y-5.143
X-7.459 Y-5.11
X-7.773 Y-4.619
X-7.792 Y-4.586
X-8.061 Y-4.095
X-8.078 Y-4.062
X-8.321 Y-3.538
X-8.334 Y-3.505
X-8.536 Y-2.981
X-8.547 Y-2.948
X-8.714 Y-2.412
X-8.72 Y-2.391
X-8.728 Y-2.359
X-8.853 Y-1.834
X-8.861 Y-1.802
X-8.866 Y-1.769
X-8.96 Y-1.212
X-8.964 Y-1.179
X-9.02 Y-0.622
X-9.023 Y-0.59
X-9.041 Y-0.025
X-9.042 Y0
X-9.041 Y0.025
X-9.023 Y0.59
X-9.02 Y0.622
X-8.964 Y1.179
X-8.96 Y1.212
X-8.866 Y1.769
X-8.861 Y1.802
X-8.853 Y1.834
X-8.728 Y2.359
X-8.72 Y2.391
X-8.714 Y2.412
X-8.547 Y2.948
X-8.536 Y2.981
X-8.334 Y3.505
X-8.321 Y3.538
X-8.078 Y4.062
X-8.061 Y4.095
X-7.792 Y4.586
X-7.773 Y4.619
X-7.459 Y5.11
X-7.436 Y5.143
X-7.109 Y5.587
X-7.098 Y5.602
X-7.076 Y5.628
X-6.71 Y6.06
X-6.683 Y6.09
X-6.299 Y6.486
X-6.29 Y6.496
X-6.265 Y6.519
X-5.864 Y6.882
X-5.831 Y6.911
X-5.372 Y7.273
X-5.34 Y7.296
X-4.881 Y7.611
X-4.848 Y7.632
X-4.357 Y7.923
X-4.349 Y7.928
X-4.324 Y7.94
X-3.831 Y8.19
X-3.8 Y8.205
X-3.276 Y8.427
X-3.243 Y8.44
X-2.686 Y8.634
X-2.653 Y8.643
X-2.129 Y8.787
X-2.097 Y8.796
X-2.064 Y8.802
X-1.533 Y8.91
X-1.507 Y8.916
X-1.474 Y8.92
X-0.917 Y8.995
X-0.884 Y8.998
X-0.328 Y9.035
X-0.295 Y9.037
X0.295
X0.328 Y9.035
X0.884 Y8.998
X0.917 Y8.995
X1.474 Y8.92
X1.507 Y8.916
X1.533 Y8.91
X2.064 Y8.802
X2.097 Y8.796
X2.129 Y8.787
X2.653 Y8.643
X2.686 Y8.634
X3.243 Y8.44
X3.276 Y8.427
X3.8 Y8.205
X3.831 Y8.19
X4.324 Y7.94
X4.349 Y7.928
X4.357 Y7.923
X4.848 Y7.632
X4.881 Y7.611
X5.34 Y7.296
X5.372 Y7.273
X5.831 Y6.911
X5.864 Y6.882
X6.265 Y6.519
X6.29 Y6.496
X6.299 Y6.486
X6.683 Y6.09
X6.71 Y6.06
X7.076 Y5.628
X7.098 Y5.602
X7.109 Y5.587
X7.436 Y5.143
X7.459 Y5.11
X7.773 Y4.619
X7.792 Y4.586
X7.955 Y4.289
X8.061 Y4.095
X8.078 Y4.062
X8.321 Y3.538
X8.334 Y3.505
X8.536 Y2.981
X8.547 Y2.948
X8.714 Y2.412
X8.72 Y2.391
X8.728 Y2.359
X8.853 Y1.834
X8.861 Y1.802
X8.866 Y1.769
X8.96 Y1.212
X8.964 Y1.179
X9.02 Y0.622
X9.023 Y0.59
X9.041 Y0.025
X9.042 Y0
X9.041 Y-0.025
X9.023 Y-0.59
X9.02 Y-0.622
X8.964 Y-1.179
X8.96 Y-1.212
X8.866 Y-1.769
X8.861 Y-1.802
X8.853 Y-1.834
X8.728 Y-2.359
X8.72 Y-2.391
X8.714 Y-2.412
X8.547 Y-2.948
X8.536 Y-2.981
X8.334 Y-3.505
X8.321 Y-3.538
X8.078 Y-4.062
X8.061 Y-4.095
X7.792 Y-4.586
X7.773 Y-4.619
X7.459 Y-5.11
X7.436 Y-5.143
X7.109 Y-5.587
X7.098 Y-5.602
X7.076 Y-5.628
X6.71 Y-6.06
X6.683 Y-6.09
X6.299 Y-6.486
X6.29 Y-6.496
X6.265 Y-6.519
X5.864 Y-6.882
X5.831 Y-6.911
X5.372 Y-7.273
X5.34 Y-7.296
X4.881 Y-7.611
X4.848 Y-7.632
X4.357 Y-7.923
X4.349 Y-7.928
X4.324 Y-7.94
X3.831 Y-8.19
X3.8 Y-8.205
X3.276 Y-8.427
X3.243 Y-8.44
X2.686 Y-8.634
X2.653 Y-8.643
X2.129 Y-8.787
X2.097 Y-8.796
X2.064 Y-8.802
X1.533 Y-8.91
X1.507 Y-8.916
X1.474 Y-8.92
X0.917 Y-8.995
X0.884 Y-8.998
X0.328 Y-9.035
X0.295 Y-9.037
X-0.295
X-0.328 Y-9.035
X-0.884 Y-8.998
X-0.917 Y-8.995
X-0.959 Y-8.99
X-0.981 Y-8.987
X-1.002 Y-8.984
X-1.045 Y-8.978
X-1.088 Y-8.972
X-1.131 Y-8.966 Z-0.601
X-1.174 Y-8.961
X-1.217 Y-8.955
X-1.26 Y-8.949 Z-0.602
X-1.303 Y-8.943
X-1.346 Y-8.938 Z-0.603
X-1.389 Y-8.932 Z-0.604
X-1.432 Y-8.926
X-1.475 Y-8.92 Z-0.605
X-1.517 Y-8.914 Z-0.606
X-1.56 Y-8.905 Z-0.607
X-1.602 Y-8.896 Z-0.608
X-1.645 Y-8.888 Z-0.609
X-1.687 Y-8.879 Z-0.61
X-1.73 Y-8.87 Z-0.611
X-1.772 Y-8.862 Z-0.612
X-1.814 Y-8.853 Z-0.613
X-1.857 Y-8.845 Z-0.614
X-1.899 Y-8.836 Z-0.616
X-1.942 Y-8.827 Z-0.617
X-1.984 Y-8.819 Z-0.618
X-2.027 Y-8.81 Z-0.62
X-2.069 Y-8.801 Z-0.621
X-2.111 Y-8.792 Z-0.622
X-2.153 Y-8.78 Z-0.624
X-2.195 Y-8.769 Z-0.625
X-2.654 Y-8.643 Z-0.642
X-2.696 Y-8.63 Z-0.644
X-3.228 Y-8.446 Z-0.663
X-3.268 Y-8.43 Z-0.665
X-3.547 Y-8.312 Z-0.675
X-3.587 Y-8.295 Z-0.677
X-3.627 Y-8.278 Z-0.678
X-3.667 Y-8.261 Z-0.68
X-3.707 Y-8.244 Z-0.681
X-3.747 Y-8.227 Z-0.682
X-3.787 Y-8.21 Z-0.684
X-3.826 Y-8.192 Z-0.685
X-3.864 Y-8.173 Z-0.686
X-3.903 Y-8.153 Z-0.687
X-3.942 Y-8.134 Z-0.689
X-3.98 Y-8.114 Z-0.69
X-4.019 Y-8.095 Z-0.691
X-4.058 Y-8.075 Z-0.692
X-4.096 Y-8.055 Z-0.693
X-4.135 Y-8.036 Z-0.694
X-4.174 Y-8.016 Z-0.695
X-4.212 Y-7.997
X-4.251 Y-7.977 Z-0.696
X-4.29 Y-7.958 Z-0.697
X-4.328 Y-7.938
X-4.366 Y-7.917 Z-0.698
X-4.403 Y-7.895
X-4.441 Y-7.873 Z-0.699
X-4.478 Y-7.851
X-4.515 Y-7.829 Z-0.7
X-4.553 Y-7.807
X-4.59 Y-7.785
X-4.637 Y-7.757
X-4.647 Y-7.751
X-4.848 Y-7.632
X-4.881 Y-7.611
X-5.34 Y-7.296
X-5.372 Y-7.273
X-5.831 Y-6.911
X-5.864 Y-6.882
X-6.265 Y-6.519
X-6.29 Y-6.496
X-6.299 Y-6.486
X-6.683 Y-6.09
X-6.71 Y-6.06
X-7.076 Y-5.628
X-7.098 Y-5.602
X-7.109 Y-5.587
X-7.436 Y-5.143
X-7.459 Y-5.11
X-7.773 Y-4.619
X-7.792 Y-4.586
X-8.061 Y-4.095
X-8.078 Y-4.062
X-8.321 Y-3.538
X-8.334 Y-3.505
X-8.536 Y-2.981
X-8.547 Y-2.948
X-8.714 Y-2.412
X-8.72 Y-2.391
X-8.728 Y-2.359
X-8.853 Y-1.834
X-8.861 Y-1.802
X-8.866 Y-1.769
X-8.96 Y-1.212
X-8.964 Y-1.179
X-9.02 Y-0.622
X-9.023 Y-0.59
X-9.041 Y-0.025
X-9.042 Y0
X-9.041 Y0.025
X-9.023 Y0.59
X-9.02 Y0.622
X-8.964 Y1.179
X-8.96 Y1.212
X-8.866 Y1.769
X-8.861 Y1.802
X-8.853 Y1.834
X-8.728 Y2.359
X-8.72 Y2.391
X-8.714 Y2.412
X-8.547 Y2.948
X-8.536 Y2.981
X-8.334 Y3.505
X-8.321 Y3.538
X-8.078 Y4.062
X-8.061 Y4.095
X-7.792 Y4.586
X-7.773 Y4.619
X-7.459 Y5.11
X-7.436 Y5.143
X-7.109 Y5.587
X-7.098 Y5.602
X-7.076 Y5.628
X-6.71 Y6.06
X-6.683 Y6.09
X-6.299 Y6.486
X-6.29 Y6.496
X-6.265 Y6.519
X-5.864 Y6.882
X-5.831 Y6.911
X-5.372 Y7.273
X-5.34 Y7.296
X-4.881 Y7.611
X-4.848 Y7.632
X-4.357 Y7.923
X-4.349 Y7.928
X-4.324 Y7.94
X-3.831 Y8.19
X-3.8 Y8.205
X-3.276 Y8.427
X-3.243 Y8.44
X-2.686 Y8.634
X-2.653 Y8.643
X-2.129 Y8.787
X-2.097 Y8.796
X-2.064 Y8.802
X-1.533 Y8.91
X-1.507 Y8.916
X-1.474 Y8.92
X-0.917 Y8.995
X-0.884 Y8.998
X-0.328 Y9.035
X-0.295 Y9.037
X0.295
X0.328 Y9.035
X0.884 Y8.998
X0.917 Y8.995
X1.474 Y8.92
X1.507 Y8.916
X1.533 Y8.91
X2.064 Y8.802
X2.097 Y8.796
X2.129 Y8.787
X2.653 Y8.643
X2.686 Y8.634
