%
(1001)
(T1  D=3 CR=0 TAPER=20deg - ZMIN=-2 - chamfer mill)
G90 G94
G17
G21
G28 G91 Z0
G90

(Contour1)
M9
T1 M6
S60 M3
G54
G0 X71.601 Y3.39
Z2
Z1.081
G1 Z-0.1 F1000
G3 X71.111 Y3.148 I-0.19 J-0.232
G1 X71.176 Y1.209 F200
Y1.164
Y-1.164
Y-1.209
X71.098 Y-3.537
X71.096 Y-3.583
X70.94 Y-5.911
X70.937 Y-5.956
X70.702 Y-8.284
X70.697 Y-8.329
X70.384 Y-10.657
X70.377 Y-10.703
X69.991 Y-12.99
X69.984 Y-13.031
X69.51 Y-15.358
X69.499 Y-15.404
X68.965 Y-17.64
X68.954 Y-17.686
X68.328 Y-19.968
X68.314 Y-20.014
X67.634 Y-22.204
X67.62 Y-22.25
X66.841 Y-24.489
X66.825 Y-24.532
X65.998 Y-26.677
X65.98 Y-26.723
X65.05 Y-28.914
X64.986 Y-29.051
X64.053 Y-31.059
X64.031 Y-31.104
X62.992 Y-33.158
X62.968 Y-33.204
X61.841 Y-35.258
X61.821 Y-35.294
X60.624 Y-37.312
X60.596 Y-37.357
X59.341 Y-39.32
X59.311 Y-39.365
X57.987 Y-41.291
X57.961 Y-41.328
X56.572 Y-43.21
X56.545 Y-43.245
X55.101 Y-45.071
X55.066 Y-45.113
X53.546 Y-46.907
X53.544 Y-46.91
X53.541 Y-46.913
X53.535 Y-46.918
X53.53 Y-46.922
X53.525 Y-46.925
X53.519 Y-46.928
X53.514 Y-46.93
X53.508 Y-46.932
X53.503 Y-46.934
X53.497 Y-46.935
X53.491 Y-46.936
X53.486 Y-46.937
X53.48
X53.474 Y-46.936
X53.468
X53.463 Y-46.935
X53.457 Y-46.933
X53.451 Y-46.931
X53.446 Y-46.929
X53.44 Y-46.926
X53.434 Y-46.923
X53.429 Y-46.919
X53.423 Y-46.914
X53.405 Y-46.896
X53.008 Y-46.495
X53.004 Y-46.491
X52.552 Y-46.136
X52.548 Y-46.134
X52.051 Y-45.836
X52.042 Y-45.832
X51.52 Y-45.604
X51.517 Y-45.603
X50.961 Y-45.439
X50.958 Y-45.438
X50.388 Y-45.346
X50.385 Y-45.345
X49.806 Y-45.325
X49.803
X49.227 Y-45.378
X49.224 Y-45.379
X48.659 Y-45.504
X48.656 Y-45.505
X48.115 Y-45.699
X48.11 Y-45.7
X47.592 Y-45.964
X47.114 Y-46.288
X47.11 Y-46.291
X46.675 Y-46.674
X46.671 Y-46.678
X46.291 Y-47.11
X46.288 Y-47.114
X45.964 Y-47.592
X45.7 Y-48.11
X45.699 Y-48.115
X45.505 Y-48.656
X45.504 Y-48.659
X45.379 Y-49.224
X45.378 Y-49.227
X45.325 Y-49.803
Y-49.806
X45.345 Y-50.385
X45.346 Y-50.388
X45.438 Y-50.958
X45.439 Y-50.961
X45.603 Y-51.517
X45.604 Y-51.52
X45.835 Y-52.048
X45.836 Y-52.051
X46.134 Y-52.548
X46.136 Y-52.552
X46.491 Y-53.004
X46.495 Y-53.008
X46.896 Y-53.405
X46.914 Y-53.423
X46.919 Y-53.429
X46.923 Y-53.434
X46.926 Y-53.44
X46.929 Y-53.446
X46.931 Y-53.451
X46.933 Y-53.457
X46.935 Y-53.463
X46.936 Y-53.468
Y-53.474
X46.937 Y-53.48
Y-53.486
X46.936 Y-53.491
X46.935 Y-53.497
X46.934 Y-53.503
X46.932 Y-53.508
X46.93 Y-53.514
X46.928 Y-53.519
X46.925 Y-53.525
X46.922 Y-53.53
X46.918 Y-53.535
X46.913 Y-53.541
X46.91 Y-53.544
X46.907 Y-53.546
X45.113 Y-55.066
X45.071 Y-55.101
X43.245 Y-56.545
X43.21 Y-56.572
X41.328 Y-57.961
X41.291 Y-57.987
X39.365 Y-59.311
X39.32 Y-59.341
X37.357 Y-60.596
X37.312 Y-60.624
X35.294 Y-61.821
X35.258 Y-61.841
X33.204 Y-62.968
X33.158 Y-62.992
X31.104 Y-64.031
X31.059 Y-64.053
X28.959 Y-65.029
X28.914 Y-65.05
X26.723 Y-65.98
X26.677 Y-65.998
X24.532 Y-66.825
X24.489 Y-66.841
X22.25 Y-67.62
X22.204 Y-67.634
X20.014 Y-68.314
X19.968 Y-68.328
X17.686 Y-68.954
X17.64 Y-68.965
X15.404 Y-69.499
X15.358 Y-69.51
X13.031 Y-69.984
X12.99 Y-69.991
X10.703 Y-70.377
X10.657 Y-70.384
X8.329 Y-70.697
X8.284 Y-70.702
X5.956 Y-70.937
X5.911 Y-70.94
X3.583 Y-71.096
X3.537 Y-71.098
X1.209 Y-71.176
X1.164
X-1.164
X-1.209
X-3.537 Y-71.098
X-3.583 Y-71.096
X-5.911 Y-70.94
X-5.956 Y-70.937
X-8.284 Y-70.702
X-8.329 Y-70.697
X-10.657 Y-70.384
X-10.703 Y-70.377
X-12.99 Y-69.991
X-13.031 Y-69.984
X-15.358 Y-69.51
X-15.404 Y-69.499
X-17.64 Y-68.965
X-17.686 Y-68.954
X-19.968 Y-68.328
X-20.014 Y-68.314
X-22.204 Y-67.634
X-22.25 Y-67.62
X-24.489 Y-66.841
X-24.532 Y-66.825
X-26.677 Y-65.998
X-26.723 Y-65.98
X-28.914 Y-65.05
X-29.051 Y-64.986
X-31.059 Y-64.053
X-31.104 Y-64.031
X-33.158 Y-62.992
X-33.204 Y-62.968
X-35.258 Y-61.841
X-35.294 Y-61.821
X-37.312 Y-60.624
X-37.357 Y-60.596
X-39.32 Y-59.341
X-39.365 Y-59.311
X-41.291 Y-57.987
X-41.328 Y-57.961
X-43.21 Y-56.572
X-43.245 Y-56.545
X-45.071 Y-55.101
X-45.113 Y-55.066
X-46.907 Y-53.546
X-46.91 Y-53.544
X-46.913 Y-53.541
X-46.918 Y-53.535
X-46.922 Y-53.53
X-46.925 Y-53.525
X-46.928 Y-53.519
X-46.93 Y-53.514
X-46.932 Y-53.508
X-46.934 Y-53.503
X-46.935 Y-53.497
X-46.936 Y-53.491
X-46.937 Y-53.486
Y-53.48
X-46.936 Y-53.474
Y-53.468
X-46.935 Y-53.463
X-46.933 Y-53.457
X-46.931 Y-53.451
X-46.929 Y-53.446
X-46.926 Y-53.44
X-46.923 Y-53.434
X-46.919 Y-53.429
X-46.914 Y-53.423
X-46.896 Y-53.405
X-46.495 Y-53.008
X-46.491 Y-53.004
X-46.136 Y-52.552
X-46.134 Y-52.548
X-45.836 Y-52.051
X-45.832 Y-52.042
X-45.604 Y-51.52
X-45.603 Y-51.517
X-45.439 Y-50.961
X-45.438 Y-50.958
X-45.346 Y-50.388
X-45.345 Y-50.385
X-45.325 Y-49.806
Y-49.803
X-45.378 Y-49.227
X-45.379 Y-49.224
X-45.504 Y-48.659
X-45.505 Y-48.656
X-45.699 Y-48.115
X-45.7 Y-48.11
X-45.964 Y-47.592
X-46.288 Y-47.114
X-46.291 Y-47.11
X-46.671 Y-46.678
X-46.675 Y-46.674
X-47.11 Y-46.291
X-47.114 Y-46.288
X-47.592 Y-45.964
X-48.11 Y-45.7
X-48.115 Y-45.699
X-48.656 Y-45.505
X-48.659 Y-45.504
X-49.224 Y-45.379
X-49.227 Y-45.378
X-49.803 Y-45.325
X-49.806
X-50.385 Y-45.345
X-50.388 Y-45.346
X-50.958 Y-45.438
X-50.961 Y-45.439
X-51.517 Y-45.603
X-51.52 Y-45.604
X-52.048 Y-45.835
X-52.051 Y-45.836
X-52.548 Y-46.134
X-52.552 Y-46.136
X-53.004 Y-46.491
X-53.008 Y-46.495
X-53.405 Y-46.896
X-53.423 Y-46.914
X-53.429 Y-46.919
X-53.434 Y-46.923
X-53.44 Y-46.926
X-53.446 Y-46.929
X-53.451 Y-46.931
X-53.457 Y-46.933
X-53.463 Y-46.935
X-53.468 Y-46.936
X-53.474
X-53.48 Y-46.937
X-53.486
X-53.491 Y-46.936
X-53.497 Y-46.935
X-53.503 Y-46.934
X-53.508 Y-46.932
X-53.514 Y-46.93
X-53.519 Y-46.928
X-53.525 Y-46.925
X-53.53 Y-46.922
X-53.535 Y-46.918
X-53.541 Y-46.913
X-53.544 Y-46.91
X-53.546 Y-46.907
X-55.066 Y-45.113
X-55.101 Y-45.071
X-56.545 Y-43.245
X-56.572 Y-43.21
X-57.961 Y-41.328
X-57.987 Y-41.291
X-59.311 Y-39.365
X-59.341 Y-39.32
X-60.596 Y-37.357
X-60.624 Y-37.312
X-61.821 Y-35.294
X-61.841 Y-35.258
X-62.968 Y-33.204
X-62.992 Y-33.158
X-64.031 Y-31.104
X-64.053 Y-31.059
X-65.029 Y-28.959
X-65.05 Y-28.914
X-65.98 Y-26.723
X-65.998 Y-26.677
X-66.825 Y-24.532
X-66.841 Y-24.489
X-67.62 Y-22.25
X-67.634 Y-22.204
X-68.314 Y-20.014
X-68.328 Y-19.968
X-68.954 Y-17.686
X-68.965 Y-17.64
X-69.499 Y-15.404
X-69.51 Y-15.358
X-69.984 Y-13.031
X-69.991 Y-12.99
X-70.377 Y-10.703
X-70.384 Y-10.657
X-70.697 Y-8.329
X-70.702 Y-8.284
X-70.937 Y-5.956
X-70.94 Y-5.911
X-71.096 Y-3.583
X-71.098 Y-3.537
X-71.176 Y-1.209
Y-1.164
Y1.164
Y1.209
X-71.098 Y3.537
X-71.096 Y3.583
X-70.94 Y5.911
X-70.937 Y5.956
X-70.702 Y8.284
X-70.697 Y8.329
X-70.384 Y10.657
X-70.377 Y10.703
X-69.991 Y12.99
X-69.984 Y13.031
X-69.51 Y15.358
X-69.499 Y15.404
X-68.965 Y17.64
X-68.954 Y17.686
X-68.328 Y19.968
X-68.314 Y20.014
X-67.634 Y22.204
X-67.62 Y22.25
X-66.841 Y24.489
X-66.825 Y24.532
X-65.998 Y26.677
X-65.98 Y26.723
X-65.05 Y28.914
X-64.986 Y29.051
X-64.053 Y31.059
X-64.031 Y31.104
X-62.992 Y33.158
X-62.968 Y33.204
X-61.841 Y35.258
X-61.821 Y35.294
X-60.624 Y37.312
X-60.596 Y37.357
X-59.341 Y39.32
X-59.311 Y39.365
X-57.987 Y41.291
X-57.961 Y41.328
X-56.572 Y43.21
X-56.545 Y43.245
X-55.101 Y45.071
X-55.066 Y45.113
X-53.546 Y46.907
X-53.544 Y46.91
X-53.541 Y46.913
X-53.535 Y46.918
X-53.53 Y46.922
X-53.525 Y46.925
X-53.519 Y46.928
X-53.514 Y46.93
X-53.508 Y46.932
X-53.503 Y46.934
X-53.497 Y46.935
X-53.491 Y46.936
X-53.486 Y46.937
X-53.48
X-53.474 Y46.936
X-53.468
X-53.463 Y46.935
X-53.457 Y46.933
X-53.451 Y46.931
X-53.446 Y46.929
X-53.44 Y46.926
X-53.434 Y46.923
X-53.429 Y46.919
X-53.423 Y46.914
X-53.405 Y46.896
X-53.008 Y46.495
X-53.004 Y46.491
X-52.552 Y46.136
X-52.548 Y46.134
X-52.051 Y45.836
X-52.042 Y45.832
X-51.52 Y45.604
X-51.517 Y45.603
X-50.961 Y45.439
X-50.958 Y45.438
X-50.388 Y45.346
X-50.385 Y45.345
X-49.806 Y45.325
X-49.803
X-49.227 Y45.378
X-49.224 Y45.379
X-48.659 Y45.504
X-48.656 Y45.505
X-48.115 Y45.699
X-48.11 Y45.7
X-47.592 Y45.964
X-47.114 Y46.288
X-47.11 Y46.291
X-46.675 Y46.674
X-46.671 Y46.678
X-46.291 Y47.11
X-46.288 Y47.114
X-45.964 Y47.592
X-45.7 Y48.11
X-45.699 Y48.115
X-45.505 Y48.656
X-45.504 Y48.659
X-45.379 Y49.224
X-45.378 Y49.227
X-45.325 Y49.803
Y49.806
X-45.345 Y50.385
X-45.346 Y50.388
X-45.438 Y50.958
X-45.439 Y50.961
X-45.603 Y51.517
X-45.604 Y51.52
X-45.835 Y52.048
X-45.836 Y52.051
X-46.134 Y52.548
X-46.136 Y52.552
X-46.491 Y53.004
X-46.495 Y53.008
X-46.896 Y53.405
X-46.914 Y53.423
X-46.919 Y53.429
X-46.923 Y53.434
X-46.926 Y53.44
X-46.929 Y53.446
X-46.931 Y53.451
X-46.933 Y53.457
X-46.935 Y53.463
X-46.936 Y53.468
Y53.474
X-46.937 Y53.48
Y53.486
X-46.936 Y53.491
X-46.935 Y53.497
X-46.934 Y53.503
X-46.932 Y53.508
X-46.93 Y53.514
X-46.928 Y53.519
X-46.925 Y53.525
X-46.922 Y53.53
X-46.918 Y53.535
X-46.913 Y53.541
X-46.91 Y53.544
X-46.907 Y53.546
X-45.113 Y55.066
X-45.071 Y55.101
X-43.245 Y56.545
X-43.21 Y56.572
X-41.328 Y57.961
X-41.291 Y57.987
X-39.365 Y59.311
X-39.32 Y59.341
X-37.357 Y60.596
X-37.312 Y60.624
X-35.294 Y61.821
X-35.258 Y61.841
X-33.204 Y62.968
X-33.158 Y62.992
X-31.104 Y64.031
X-31.059 Y64.053
X-28.959 Y65.029
X-28.914 Y65.05
X-26.723 Y65.98
X-26.677 Y65.998
X-24.532 Y66.825
X-24.489 Y66.841
X-22.25 Y67.62
X-22.204 Y67.634
X-20.014 Y68.314
X-19.968 Y68.328
X-17.686 Y68.954
X-17.64 Y68.965
X-15.404 Y69.499
X-15.358 Y69.51
X-13.031 Y69.984
X-12.99 Y69.991
X-10.703 Y70.377
X-10.657 Y70.384
X-8.329 Y70.697
X-8.284 Y70.702
X-5.956 Y70.937
X-5.911 Y70.94
X-3.583 Y71.096
X-3.537 Y71.098
X-1.209 Y71.176
X-1.164
X1.164
X1.209
X3.537 Y71.098
X3.583 Y71.096
X5.911 Y70.94
X5.956 Y70.937
X8.284 Y70.702
X8.329 Y70.697
X10.657 Y70.384
X10.703 Y70.377
X12.99 Y69.991
X13.031 Y69.984
X15.358 Y69.51
X15.404 Y69.499
X17.64 Y68.965
X17.686 Y68.954
X19.968 Y68.328
X20.014 Y68.314
X22.204 Y67.634
X22.25 Y67.62
X24.489 Y66.841
X24.532 Y66.825
X26.677 Y65.998
X26.723 Y65.98
X28.914 Y65.05
X29.051 Y64.986
X31.059 Y64.053
X31.104 Y64.031
X33.158 Y62.992
X33.204 Y62.968
X35.258 Y61.841
X35.294 Y61.821
X37.312 Y60.624
X37.357 Y60.596
X39.32 Y59.341
X39.365 Y59.311
X41.291 Y57.987
X41.328 Y57.961
X43.21 Y56.572
X43.245 Y56.545
X45.071 Y55.101
X45.113 Y55.066
X46.907 Y53.546
X46.91 Y53.544
X46.913 Y53.541
X46.918 Y53.535
X46.922 Y53.53
X46.925 Y53.525
X46.928 Y53.519
X46.93 Y53.514
X46.932 Y53.508
X46.934 Y53.503
X46.935 Y53.497
X46.936 Y53.491
X46.937 Y53.486
Y53.48
X46.936 Y53.474
Y53.468
X46.935 Y53.463
X46.933 Y53.457
X46.931 Y53.451
X46.929 Y53.446
X46.926 Y53.44
X46.923 Y53.434
X46.919 Y53.429
X46.914 Y53.423
X46.896 Y53.405
X46.495 Y53.008
X46.491 Y53.004
X46.136 Y52.552
X46.134 Y52.548
X45.836 Y52.051
X45.832 Y52.042
X45.604 Y51.52
X45.603 Y51.517
X45.439 Y50.961
X45.438 Y50.958
X45.346 Y50.388
X45.345 Y50.385
X45.325 Y49.806
Y49.803
X45.378 Y49.227
X45.379 Y49.224
X45.504 Y48.659
X45.505 Y48.656
X45.699 Y48.115
X45.7 Y48.11
X45.964 Y47.592
X46.288 Y47.114
X46.291 Y47.11
X46.671 Y46.678
X46.675 Y46.674
X47.11 Y46.291
X47.114 Y46.288
X47.592 Y45.964
X48.11 Y45.7
X48.115 Y45.699
X48.656 Y45.505
X48.659 Y45.504
X49.224 Y45.379
X49.227 Y45.378
X49.803 Y45.325
X49.806
X50.385 Y45.345
X50.388 Y45.346
X50.958 Y45.438
X50.961 Y45.439
X51.517 Y45.603
X51.52 Y45.604
X52.048 Y45.835
X52.051 Y45.836
X52.548 Y46.134
X52.552 Y46.136
X53.004 Y46.491
X53.008 Y46.495
X53.405 Y46.896
X53.423 Y46.914
X53.429 Y46.919
X53.434 Y46.923
X53.44 Y46.926
X53.446 Y46.929
X53.451 Y46.931
X53.457 Y46.933
X53.463 Y46.935
X53.468 Y46.936
X53.474
X53.48 Y46.937
X53.486
X53.491 Y46.936
X53.497 Y46.935
X53.503 Y46.934
X53.508 Y46.932
X53.514 Y46.93
X53.519 Y46.928
X53.525 Y46.925
X53.53 Y46.922
X53.535 Y46.918
X53.541 Y46.913
X53.544 Y46.91
X53.546 Y46.907
X55.066 Y45.113
X55.101 Y45.071
X56.545 Y43.245
X56.572 Y43.21
X57.961 Y41.328
X57.987 Y41.291
X59.311 Y39.365
X59.341 Y39.32
X60.596 Y37.357
X60.624 Y37.312
X61.821 Y35.294
X61.841 Y35.258
X62.968 Y33.204
X62.992 Y33.158
X64.031 Y31.104
X64.053 Y31.059
X65.029 Y28.959
X65.05 Y28.914
X65.98 Y26.723
X65.998 Y26.677
X66.825 Y24.532
X66.841 Y24.489
X67.62 Y22.25
X67.634 Y22.204
X68.314 Y20.014
X68.328 Y19.968
X68.954 Y17.686
X68.965 Y17.64
X69.499 Y15.404
X69.51 Y15.358
X69.984 Y13.031
X69.991 Y12.99
X70.377 Y10.703
X70.384 Y10.657
X70.697 Y8.329
X70.702 Y8.284
X70.937 Y5.956
X70.94 Y5.911
X71.096 Y3.583
X71.098 Y3.537
X71.111 Y3.148
X71.176 Y1.209
Y1.164
Y-1.164
Y-1.209
X71.098 Y-3.537
X71.096 Y-3.583
X70.94 Y-5.911
X70.937 Y-5.956
X70.702 Y-8.284
X70.697 Y-8.329
X70.384 Y-10.657
X70.377 Y-10.703
X69.991 Y-12.99
X69.984 Y-13.031
X69.51 Y-15.358
X69.499 Y-15.404
X68.965 Y-17.64
X68.954 Y-17.686
X68.328 Y-19.968
X68.314 Y-20.014
X67.634 Y-22.204
X67.62 Y-22.25
X66.841 Y-24.489
X66.825 Y-24.532
X65.998 Y-26.677
X65.98 Y-26.723
X65.05 Y-28.914
X64.986 Y-29.051
X64.053 Y-31.059
X64.031 Y-31.104
X62.992 Y-33.158
X62.968 Y-33.204
X61.841 Y-35.258
X61.821 Y-35.294
X60.624 Y-37.312
X60.596 Y-37.357
X59.341 Y-39.32
X59.311 Y-39.365
X57.987 Y-41.291
X57.961 Y-41.328
X56.572 Y-43.21
X56.545 Y-43.245
X55.101 Y-45.071
X55.066 Y-45.113
X53.546 Y-46.907
X53.544 Y-46.91
X53.541 Y-46.913
X53.535 Y-46.918
X53.53 Y-46.922
X53.525 Y-46.925
X53.519 Y-46.928
X53.514 Y-46.93
X53.508 Y-46.932
X53.503 Y-46.934
X53.497 Y-46.935
X53.491 Y-46.936
X53.486 Y-46.937
X53.48
X53.474 Y-46.936
X53.468
X53.463 Y-46.935
X53.457 Y-46.933
X53.451 Y-46.931
X53.446 Y-46.929
X53.44 Y-46.926
X53.434 Y-46.923
X53.429 Y-46.919
X53.423 Y-46.914
X53.405 Y-46.896
X53.008 Y-46.495
X53.004 Y-46.491
X52.552 Y-46.136
X52.548 Y-46.134
X52.051 Y-45.836
X52.042 Y-45.832
X51.52 Y-45.604
X51.517 Y-45.603
X50.961 Y-45.439
X50.958 Y-45.438
X50.388 Y-45.346
X50.385 Y-45.345
X49.806 Y-45.325
X49.803
X49.227 Y-45.378
X49.224 Y-45.379
X48.659 Y-45.504
X48.656 Y-45.505
X48.115 Y-45.699
X48.11 Y-45.7
X47.592 Y-45.964
X47.114 Y-46.288
X47.11 Y-46.291
X46.675 Y-46.674
X46.671 Y-46.678
X46.291 Y-47.11
X46.288 Y-47.114
X45.964 Y-47.592
X45.7 Y-48.11
X45.699 Y-48.115
X45.505 Y-48.656
X45.504 Y-48.659
X45.379 Y-49.224
X45.378 Y-49.227
X45.325 Y-49.803
Y-49.806
X45.345 Y-50.385
X45.346 Y-50.388
X45.438 Y-50.958
X45.439 Y-50.961
X45.603 Y-51.517
X45.604 Y-51.52
X45.835 Y-52.048
X45.836 Y-52.051
X46.134 Y-52.548
X46.136 Y-52.552
X46.491 Y-53.004
X46.495 Y-53.008
X46.896 Y-53.405
X46.914 Y-53.423
X46.919 Y-53.429
X46.923 Y-53.434
X46.926 Y-53.44
X46.929 Y-53.446
X46.931 Y-53.451
X46.933 Y-53.457
X46.935 Y-53.463
X46.936 Y-53.468
Y-53.474
X46.937 Y-53.48
Y-53.486
X46.936 Y-53.491
X46.935 Y-53.497
X46.934 Y-53.503
X46.932 Y-53.508
X46.93 Y-53.514
X46.928 Y-53.519
X46.925 Y-53.525
X46.922 Y-53.53
X46.918 Y-53.535
X46.913 Y-53.541
X46.91 Y-53.544
X46.907 Y-53.546
X45.113 Y-55.066
X45.071 Y-55.101
X43.245 Y-56.545
X43.21 Y-56.572
X41.328 Y-57.961
X41.291 Y-57.987
X39.365 Y-59.311
X39.32 Y-59.341
X37.357 Y-60.596
X37.312 Y-60.624
X35.294 Y-61.821
X35.258 Y-61.841
X33.204 Y-62.968
X33.158 Y-62.992
X31.104 Y-64.031
X31.059 Y-64.053
X28.959 Y-65.029
X28.914 Y-65.05
X26.723 Y-65.98
X26.677 Y-65.998
X24.532 Y-66.825
X24.489 Y-66.841
X22.25 Y-67.62
X22.204 Y-67.634
X20.014 Y-68.314
X19.968 Y-68.328
X17.686 Y-68.954
X17.64 Y-68.965
X15.404 Y-69.499
X15.358 Y-69.51
X13.031 Y-69.984
X12.99 Y-69.991
X10.703 Y-70.377
X10.657 Y-70.384
X8.329 Y-70.697
X8.284 Y-70.702
X5.956 Y-70.937
X5.911 Y-70.94
X3.583 Y-71.096
X3.537 Y-71.098
X1.209 Y-71.176
X1.164
X-1.164
X-1.209
X-3.537 Y-71.098
X-3.583 Y-71.096
X-5.911 Y-70.94
X-5.956 Y-70.937
X-8.284 Y-70.702
X-8.329 Y-70.697
X-10.657 Y-70.384
X-10.703 Y-70.377
X-12.99 Y-69.991
X-13.031 Y-69.984
X-15.358 Y-69.51
X-15.404 Y-69.499
X-17.64 Y-68.965
X-17.686 Y-68.954
X-19.968 Y-68.328
X-20.014 Y-68.314
X-22.204 Y-67.634
X-22.25 Y-67.62
X-24.489 Y-66.841
X-24.532 Y-66.825
X-26.677 Y-65.998
X-26.723 Y-65.98
X-28.914 Y-65.05
X-29.051 Y-64.986
X-31.059 Y-64.053
X-31.104 Y-64.031
X-33.158 Y-62.992
X-33.204 Y-62.968
X-35.258 Y-61.841
X-35.294 Y-61.821
X-37.312 Y-60.624
X-37.357 Y-60.596
X-39.32 Y-59.341
X-39.365 Y-59.311
X-41.291 Y-57.987
X-41.328 Y-57.961
X-43.21 Y-56.572
X-43.245 Y-56.545
X-45.071 Y-55.101
X-45.113 Y-55.066
X-46.907 Y-53.546
X-46.91 Y-53.544
X-46.913 Y-53.541
X-46.918 Y-53.535
X-46.922 Y-53.53
X-46.925 Y-53.525
X-46.928 Y-53.519
X-46.93 Y-53.514
X-46.932 Y-53.508
X-46.934 Y-53.503
X-46.935 Y-53.497
X-46.936 Y-53.491
X-46.937 Y-53.486
Y-53.48
X-46.936 Y-53.474
Y-53.468
X-46.935 Y-53.463
X-46.933 Y-53.457
X-46.931 Y-53.451
X-46.929 Y-53.446
X-46.926 Y-53.44
X-46.923 Y-53.434
X-46.919 Y-53.429
X-46.914 Y-53.423
X-46.896 Y-53.405
X-46.495 Y-53.008
X-46.491 Y-53.004
X-46.136 Y-52.552
X-46.134 Y-52.548
X-45.836 Y-52.051
X-45.832 Y-52.042
X-45.604 Y-51.52
X-45.603 Y-51.517
X-45.439 Y-50.961
X-45.438 Y-50.958
X-45.346 Y-50.388
X-45.345 Y-50.385
X-45.325 Y-49.806
Y-49.803
X-45.378 Y-49.227
X-45.379 Y-49.224
X-45.504 Y-48.659
X-45.505 Y-48.656
X-45.699 Y-48.115
X-45.7 Y-48.11
X-45.964 Y-47.592
X-46.288 Y-47.114
X-46.291 Y-47.11
X-46.671 Y-46.678
X-46.675 Y-46.674
X-47.11 Y-46.291
X-47.114 Y-46.288
X-47.592 Y-45.964
X-48.11 Y-45.7
X-48.115 Y-45.699
X-48.656 Y-45.505
X-48.659 Y-45.504
X-49.224 Y-45.379
X-49.227 Y-45.378
X-49.803 Y-45.325
X-49.806
X-50.385 Y-45.345
X-50.388 Y-45.346
X-50.958 Y-45.438
X-50.961 Y-45.439
X-51.517 Y-45.603
X-51.52 Y-45.604
X-52.048 Y-45.835
X-52.051 Y-45.836
X-52.548 Y-46.134
X-52.552 Y-46.136
X-53.004 Y-46.491
X-53.008 Y-46.495
X-53.405 Y-46.896
X-53.423 Y-46.914
X-53.429 Y-46.919
X-53.434 Y-46.923
X-53.44 Y-46.926
X-53.446 Y-46.929
X-53.451 Y-46.931
X-53.457 Y-46.933
X-53.463 Y-46.935
X-53.468 Y-46.936
X-53.474
X-53.48 Y-46.937
X-53.486
X-53.491 Y-46.936
X-53.497 Y-46.935
X-53.503 Y-46.934
X-53.508 Y-46.932
X-53.514 Y-46.93
X-53.519 Y-46.928
X-53.525 Y-46.925
X-53.53 Y-46.922
X-53.535 Y-46.918
X-53.541 Y-46.913
X-53.544 Y-46.91
X-53.546 Y-46.907
X-55.066 Y-45.113
X-55.101 Y-45.071
X-56.545 Y-43.245
X-56.572 Y-43.21
X-57.961 Y-41.328
X-57.987 Y-41.291
X-59.311 Y-39.365
X-59.341 Y-39.32
X-60.596 Y-37.357
X-60.624 Y-37.312
X-61.821 Y-35.294
X-61.841 Y-35.258
X-62.968 Y-33.204
X-62.992 Y-33.158
X-64.031 Y-31.104
X-64.053 Y-31.059
X-65.029 Y-28.959
X-65.05 Y-28.914
X-65.98 Y-26.723
X-65.998 Y-26.677
X-66.825 Y-24.532
X-66.841 Y-24.489
X-67.62 Y-22.25
X-67.634 Y-22.204
X-68.314 Y-20.014
X-68.328 Y-19.968
X-68.954 Y-17.686
X-68.965 Y-17.64
X-69.499 Y-15.404
X-69.51 Y-15.358
X-69.984 Y-13.031
X-69.991 Y-12.99
X-70.377 Y-10.703
X-70.384 Y-10.657
X-70.697 Y-8.329
X-70.702 Y-8.284
X-70.937 Y-5.956
X-70.94 Y-5.911
X-71.096 Y-3.583
X-71.098 Y-3.537
X-71.176 Y-1.209
Y-1.164
Y1.164
Y1.209
X-71.098 Y3.537
X-71.096 Y3.583
X-70.94 Y5.911
X-70.937 Y5.956
X-70.702 Y8.284
X-70.697 Y8.329
X-70.384 Y10.657
X-70.377 Y10.703
X-69.991 Y12.99
X-69.984 Y13.031
X-69.51 Y15.358
X-69.499 Y15.404
X-68.965 Y17.64
X-68.954 Y17.686
X-68.328 Y19.968
X-68.314 Y20.014
X-67.634 Y22.204
X-67.62 Y22.25
X-66.841 Y24.489
X-66.825 Y24.532
X-65.998 Y26.677
X-65.98 Y26.723
X-65.05 Y28.914
X-64.986 Y29.051
X-64.053 Y31.059
X-64.031 Y31.104
X-62.992 Y33.158
X-62.968 Y33.204
X-61.841 Y35.258
X-61.821 Y35.294
X-60.624 Y37.312
X-60.596 Y37.357
X-59.341 Y39.32
X-59.311 Y39.365
X-57.987 Y41.291
X-57.961 Y41.328
X-56.572 Y43.21
X-56.545 Y43.245
X-55.101 Y45.071
X-55.066 Y45.113
X-53.546 Y46.907
X-53.544 Y46.91
X-53.541 Y46.913
X-53.535 Y46.918
X-53.53 Y46.922
X-53.525 Y46.925
X-53.519 Y46.928
X-53.514 Y46.93
X-53.508 Y46.932
X-53.503 Y46.934
X-53.497 Y46.935
X-53.491 Y46.936
X-53.486 Y46.937
X-53.48
X-53.474 Y46.936
X-53.468
X-53.463 Y46.935
X-53.457 Y46.933
X-53.451 Y46.931
X-53.446 Y46.929
X-53.44 Y46.926
X-53.434 Y46.923
X-53.429 Y46.919
X-53.423 Y46.914
X-53.405 Y46.896
X-53.008 Y46.495
X-53.004 Y46.491
X-52.552 Y46.136
X-52.548 Y46.134
X-52.051 Y45.836
X-52.042 Y45.832
X-51.52 Y45.604
X-51.517 Y45.603
X-50.961 Y45.439
X-50.958 Y45.438
X-50.388 Y45.346
X-50.385 Y45.345
X-49.806 Y45.325
X-49.803
X-49.227 Y45.378
X-49.224 Y45.379
X-48.659 Y45.504
X-48.656 Y45.505
X-48.115 Y45.699
X-48.11 Y45.7
X-47.592 Y45.964
X-47.114 Y46.288
X-47.11 Y46.291
X-46.675 Y46.674
X-46.671 Y46.678
X-46.291 Y47.11
X-46.288 Y47.114
X-45.964 Y47.592
X-45.7 Y48.11
X-45.699 Y48.115
X-45.505 Y48.656
X-45.504 Y48.659
X-45.379 Y49.224
X-45.378 Y49.227
X-45.325 Y49.803
Y49.806
X-45.345 Y50.385
X-45.346 Y50.388
X-45.438 Y50.958
X-45.439 Y50.961
X-45.603 Y51.517
X-45.604 Y51.52
X-45.835 Y52.048
X-45.836 Y52.051
X-46.134 Y52.548
X-46.136 Y52.552
X-46.491 Y53.004
X-46.495 Y53.008
X-46.896 Y53.405
X-46.914 Y53.423
X-46.919 Y53.429
X-46.923 Y53.434
X-46.926 Y53.44
X-46.929 Y53.446
X-46.931 Y53.451
X-46.933 Y53.457
X-46.935 Y53.463
X-46.936 Y53.468
Y53.474
X-46.937 Y53.48
Y53.486
X-46.936 Y53.491
X-46.935 Y53.497
X-46.934 Y53.503
X-46.932 Y53.508
X-46.93 Y53.514
X-46.928 Y53.519
X-46.925 Y53.525
X-46.922 Y53.53
X-46.918 Y53.535
X-46.913 Y53.541
X-46.91 Y53.544
X-46.907 Y53.546
X-45.113 Y55.066
X-45.071 Y55.101
X-43.245 Y56.545
X-43.21 Y56.572
X-41.328 Y57.961
X-41.291 Y57.987
X-39.365 Y59.311
X-39.32 Y59.341
X-37.357 Y60.596
X-37.312 Y60.624
X-35.294 Y61.821
X-35.258 Y61.841
X-33.204 Y62.968
X-33.158 Y62.992
X-31.104 Y64.031
X-31.059 Y64.053
X-28.959 Y65.029
X-28.914 Y65.05
X-26.723 Y65.98
X-26.677 Y65.998
X-24.532 Y66.825
X-24.489 Y66.841
X-22.25 Y67.62
X-22.204 Y67.634
X-20.014 Y68.314
X-19.968 Y68.328
X-17.686 Y68.954
X-17.64 Y68.965
X-15.404 Y69.499
X-15.358 Y69.51
X-13.031 Y69.984
X-12.99 Y69.991
X-10.703 Y70.377
X-10.657 Y70.384
X-8.329 Y70.697
X-8.284 Y70.702
X-5.956 Y70.937
X-5.911 Y70.94
X-3.583 Y71.096
X-3.537 Y71.098
X-1.209 Y71.176
X-1.164
X1.164
X1.209
X3.537 Y71.098
X3.583 Y71.096
X5.911 Y70.94
X5.956 Y70.937
X8.284 Y70.702
X8.329 Y70.697
X10.657 Y70.384
X10.703 Y70.377
X12.99 Y69.991
X13.031 Y69.984
X15.358 Y69.51
X15.404 Y69.499
X17.64 Y68.965
X17.686 Y68.954
X19.968 Y68.328
X20.014 Y68.314
X22.204 Y67.634
X22.25 Y67.62
X24.489 Y66.841
X24.532 Y66.825
X26.677 Y65.998
X26.723 Y65.98
X28.914 Y65.05
X29.051 Y64.986
X31.059 Y64.053
X31.104 Y64.031
X33.158 Y62.992
X33.204 Y62.968
X35.258 Y61.841
X35.294 Y61.821
X37.312 Y60.624
X37.357 Y60.596
X39.32 Y59.341
X39.365 Y59.311
X41.291 Y57.987
X41.328 Y57.961
X43.21 Y56.572
X43.245 Y56.545
X45.071 Y55.101
X45.113 Y55.066
X46.907 Y53.546
X46.91 Y53.544
X46.913 Y53.541
X46.918 Y53.535
X46.922 Y53.53
X46.925 Y53.525
X46.928 Y53.519
X46.93 Y53.514
X46.932 Y53.508
X46.934 Y53.503
X46.935 Y53.497
X46.936 Y53.491
X46.937 Y53.486
Y53.48
X46.936 Y53.474
Y53.468
X46.935 Y53.463
X46.933 Y53.457
X46.931 Y53.451
X46.929 Y53.446
X46.926 Y53.44
X46.923 Y53.434
X46.919 Y53.429
X46.914 Y53.423
X46.896 Y53.405
X46.495 Y53.008
X46.491 Y53.004
X46.136 Y52.552
X46.134 Y52.548
X45.836 Y52.051
X45.832 Y52.042
X45.604 Y51.52
X45.603 Y51.517
X45.439 Y50.961
X45.438 Y50.958
X45.346 Y50.388
X45.345 Y50.385
X45.325 Y49.806
Y49.803
X45.378 Y49.227
X45.379 Y49.224
X45.504 Y48.659
X45.505 Y48.656
X45.699 Y48.115
X45.7 Y48.11
X45.964 Y47.592
X46.288 Y47.114
X46.291 Y47.11
X46.671 Y46.678
X46.675 Y46.674
X47.11 Y46.291
X47.114 Y46.288
X47.592 Y45.964
X48.11 Y45.7
X48.115 Y45.699
X48.656 Y45.505
X48.659 Y45.504
X49.224 Y45.379
X49.227 Y45.378
X49.803 Y45.325
X49.806
X50.385 Y45.345
X50.388 Y45.346
X50.958 Y45.438
X50.961 Y45.439
X51.517 Y45.603
X51.52 Y45.604
X52.048 Y45.835
X52.051 Y45.836
X52.548 Y46.134
X52.552 Y46.136
X53.004 Y46.491
X53.008 Y46.495
X53.405 Y46.896
X53.423 Y46.914
X53.429 Y46.919
X53.434 Y46.923
X53.44 Y46.926
X53.446 Y46.929
X53.451 Y46.931
X53.457 Y46.933
X53.463 Y46.935
X53.468 Y46.936
X53.474
X53.48 Y46.937
X53.486
X53.491 Y46.936
X53.497 Y46.935
X53.503 Y46.934
X53.508 Y46.932
X53.514 Y46.93
X53.519 Y46.928
X53.525 Y46.925
X53.53 Y46.922
X53.535 Y46.918
X53.541 Y46.913
X53.544 Y46.91
X53.546 Y46.907
X55.066 Y45.113
X55.101 Y45.071
X56.545 Y43.245
X56.572 Y43.21
X57.961 Y41.328
X57.987 Y41.291
X59.311 Y39.365
X59.341 Y39.32
X60.596 Y37.357
X60.624 Y37.312
X61.821 Y35.294
X61.841 Y35.258
X62.968 Y33.204
X62.992 Y33.158
X64.031 Y31.104
X64.053 Y31.059
X65.029 Y28.959
X65.05 Y28.914
X65.98 Y26.723
X65.998 Y26.677
X66.825 Y24.532
X66.841 Y24.489
X67.62 Y22.25
X67.634 Y22.204
X68.314 Y20.014
X68.328 Y19.968
X68.954 Y17.686
X68.965 Y17.64
X69.499 Y15.404
X69.51 Y15.358
X69.984 Y13.031
X69.991 Y12.99
X70.377 Y10.703
X70.384 Y10.657
X70.697 Y8.329
X70.702 Y8.284
X70.937 Y5.956
X70.94 Y5.911
X71.096 Y3.583
X71.098 Y3.537
X71.111 Y3.148
X71.112 Y3.123
X71.113 Y3.099
X71.114 Y3.049
X71.116 Y3
X71.118 Y2.95 Z-0.101
X71.12 Y2.901
X71.121 Y2.851 Z-0.102
X71.123 Y2.802
X71.125 Y2.752 Z-0.103
X71.127 Y2.703 Z-0.104
X71.129 Y2.653 Z-0.105
X71.131 Y2.604 Z-0.106
X71.133 Y2.554 Z-0.107
X71.135 Y2.505 Z-0.108
X71.137 Y2.456 Z-0.109
X71.139 Y2.406 Z-0.11
X71.141 Y2.357 Z-0.111
X71.144 Y2.307 Z-0.112
X71.146 Y2.258 Z-0.114
X71.148 Y2.208 Z-0.115
X71.15 Y2.159 Z-0.117
X71.152 Y2.109 Z-0.118
X71.155 Y2.06 Z-0.12
X71.157 Y2.01 Z-0.121
X71.159 Y1.961 Z-0.123
X71.161 Y1.912 Z-0.125
X71.193 Y1.219 Z-0.149
X71.195 Y1.17 Z-0.151
X71.204 Y0.477 Z-0.175
Y0.428 Z-0.177
X71.205 Y0.378 Z-0.178
X71.206 Y0.329 Z-0.18
Y0.279 Z-0.181
X71.207 Y0.23 Z-0.183
Y0.18 Z-0.184
X71.208 Y0.131 Z-0.186
Y0.081 Z-0.187
X71.209 Y0.032 Z-0.189
Y-0.018 Z-0.19
X71.21 Y-0.067 Z-0.191
Y-0.117 Z-0.192
Y-0.166 Z-0.193
X71.211 Y-0.216 Z-0.194
Y-0.265 Z-0.195
Y-0.315 Z-0.196
X71.212 Y-0.364 Z-0.197
Y-0.414 Z-0.198
Y-0.463
Y-0.513 Z-0.199
X71.213 Y-0.562
Y-0.612
Y-0.661 Z-0.2
Y-0.711
Y-0.771
Y-1.164
X71.212 Y-1.209
X71.134 Y-3.537
X71.132 Y-3.583
X70.976 Y-5.911
X70.973 Y-5.956
X70.739 Y-8.284
X70.734 Y-8.329
X70.421 Y-10.657
X70.414 Y-10.703
X70.021 Y-13.031
X70.011 Y-13.076
X69.547 Y-15.358
X69.537 Y-15.404
X68.992 Y-17.686
X68.986 Y-17.706
X68.366 Y-19.968
X68.353 Y-20.014
X67.658 Y-22.25
X67.642 Y-22.296
X66.881 Y-24.486
X66.864 Y-24.532
X66.019 Y-26.723
X66 Y-26.768
X65.09 Y-28.914
X65.069 Y-28.959
X64.093 Y-31.059
X64.072 Y-31.104
X63.007 Y-33.207
X62.985 Y-33.249
X61.858 Y-35.303
X61.831 Y-35.349
X60.666 Y-37.312
X60.639 Y-37.357
X59.385 Y-39.32
X59.356 Y-39.364
X58.033 Y-41.289
X58.006 Y-41.328
X56.618 Y-43.209
X56.591 Y-43.245
X55.147 Y-45.071
X55.112 Y-45.115
X53.574 Y-46.93
X53.569 Y-46.936
X53.563 Y-46.942
X53.56 Y-46.945
X53.554 Y-46.949
X53.548 Y-46.953
X53.543 Y-46.957
X53.537 Y-46.96
X53.531 Y-46.963
X53.526 Y-46.965
X53.52 Y-46.967
X53.514 Y-46.969
X53.508 Y-46.97
X53.503 Y-46.971
X53.497 Y-46.972
X53.491 Y-46.973
X53.486
X53.48
X53.474
X53.468 Y-46.972
X53.463
X53.457 Y-46.971
X53.451 Y-46.969
X53.446 Y-46.968
X53.44 Y-46.966
X53.434 Y-46.964
X53.429 Y-46.961
X53.423 Y-46.958
X53.417 Y-46.955
X53.411 Y-46.951
X53.405 Y-46.947
X53.399 Y-46.942
X53.377 Y-46.92
X52.983 Y-46.521
X52.98 Y-46.518
X52.531 Y-46.166
X52.528 Y-46.164
X52.036 Y-45.87
X52.034 Y-45.868
X51.506 Y-45.637
X51.503 Y-45.636
X50.953 Y-45.474
X50.95 Y-45.473
X50.385 Y-45.382
X50.382
X49.809 Y-45.362
X49.806
X49.232 Y-45.414
X49.23 Y-45.415
X48.67 Y-45.539
X48.668
X48.126 Y-45.734
X48.123 Y-45.735
X47.612 Y-45.994
X47.609 Y-45.996
X47.137 Y-46.317
X47.133 Y-46.32
X46.701 Y-46.7
X46.698 Y-46.703
X46.32 Y-47.133
X46.317 Y-47.137
X45.996 Y-47.609
X45.994 Y-47.612
X45.735 Y-48.123
X45.734 Y-48.126
X45.539 Y-48.668
Y-48.67
X45.415 Y-49.23
X45.414 Y-49.232
X45.362 Y-49.806
Y-49.809
X45.382 Y-50.382
Y-50.385
X45.473 Y-50.95
X45.474 Y-50.953
X45.636 Y-51.503
X45.637 Y-51.506
X45.868 Y-52.034
X45.87 Y-52.036
X46.164 Y-52.528
X46.166 Y-52.531
X46.518 Y-52.98
X46.521 Y-52.983
X46.92 Y-53.377
X46.942 Y-53.399
X46.947 Y-53.405
X46.951 Y-53.411
X46.955 Y-53.417
X46.958 Y-53.423
X46.961 Y-53.429
X46.964 Y-53.434
X46.966 Y-53.44
X46.968 Y-53.446
X46.969 Y-53.451
X46.971 Y-53.457
X46.972 Y-53.463
Y-53.468
X46.973 Y-53.474
Y-53.48
Y-53.486
Y-53.491
X46.972 Y-53.497
X46.971 Y-53.503
X46.97 Y-53.508
X46.969 Y-53.514
X46.967 Y-53.52
X46.965 Y-53.526
X46.963 Y-53.531
X46.96 Y-53.537
X46.957 Y-53.543
X46.953 Y-53.548
X46.949 Y-53.554
X46.945 Y-53.56
X46.942 Y-53.563
X46.936 Y-53.569
X46.93 Y-53.574
X45.115 Y-55.112
X45.071 Y-55.147
X43.245 Y-56.591
X43.209 Y-56.618
X41.328 Y-58.006
X41.289 Y-58.033
X39.364 Y-59.356
X39.32 Y-59.385
X37.357 Y-60.639
X37.312 Y-60.666
X35.349 Y-61.831
X35.303 Y-61.858
X33.249 Y-62.985
X33.207 Y-63.007
X31.104 Y-64.072
X31.059 Y-64.093
X28.959 Y-65.069
X28.914 Y-65.09
X26.768 Y-66
X26.723 Y-66.019
X24.532 Y-66.864
X24.486 Y-66.881
X22.296 Y-67.642
X22.25 Y-67.658
X20.014 Y-68.353
X19.968 Y-68.366
X17.706 Y-68.986
X17.686 Y-68.992
X15.404 Y-69.537
X15.358 Y-69.547
X13.076 Y-70.011
X13.031 Y-70.021
X10.703 Y-70.414
X10.657 Y-70.421
X8.329 Y-70.734
X8.284 Y-70.739
X5.956 Y-70.973
X5.911 Y-70.976
X3.583 Y-71.132
X3.537 Y-71.134
X1.209 Y-71.212
X1.164 Y-71.213
X-1.164
X-1.209 Y-71.212
X-3.537 Y-71.134
X-3.583 Y-71.132
X-5.911 Y-70.976
X-5.956 Y-70.973
X-8.284 Y-70.739
X-8.329 Y-70.734
X-10.657 Y-70.421
X-10.703 Y-70.414
X-13.031 Y-70.021
X-13.076 Y-70.011
X-15.358 Y-69.547
X-15.404 Y-69.537
X-17.686 Y-68.992
X-17.706 Y-68.986
X-19.968 Y-68.366
X-20.014 Y-68.353
X-22.25 Y-67.658
X-22.296 Y-67.642
X-24.486 Y-66.881
X-24.532 Y-66.864
X-26.723 Y-66.019
X-26.768 Y-66
X-28.914 Y-65.09
X-28.959 Y-65.069
X-31.059 Y-64.093
X-31.104 Y-64.072
X-33.207 Y-63.007
X-33.249 Y-62.985
X-35.303 Y-61.858
X-35.349 Y-61.831
X-37.312 Y-60.666
X-37.357 Y-60.639
X-39.32 Y-59.385
X-39.364 Y-59.356
X-41.289 Y-58.033
X-41.328 Y-58.006
X-43.209 Y-56.618
X-43.245 Y-56.591
X-45.071 Y-55.147
X-45.115 Y-55.112
X-46.93 Y-53.574
X-46.936 Y-53.569
X-46.942 Y-53.563
X-46.945 Y-53.56
X-46.949 Y-53.554
X-46.953 Y-53.548
X-46.957 Y-53.543
X-46.96 Y-53.537
X-46.963 Y-53.531
X-46.965 Y-53.526
X-46.967 Y-53.52
X-46.969 Y-53.514
X-46.97 Y-53.508
X-46.971 Y-53.503
X-46.972 Y-53.497
X-46.973 Y-53.491
Y-53.486
Y-53.48
Y-53.474
X-46.972 Y-53.468
Y-53.463
X-46.971 Y-53.457
X-46.969 Y-53.451
X-46.968 Y-53.446
X-46.966 Y-53.44
X-46.964 Y-53.434
X-46.961 Y-53.429
X-46.958 Y-53.423
X-46.955 Y-53.417
X-46.951 Y-53.411
X-46.947 Y-53.405
X-46.942 Y-53.399
X-46.92 Y-53.377
X-46.521 Y-52.983
X-46.518 Y-52.98
X-46.166 Y-52.531
X-46.164 Y-52.528
X-45.87 Y-52.036
X-45.868 Y-52.034
X-45.637 Y-51.506
X-45.636 Y-51.503
X-45.474 Y-50.953
X-45.473 Y-50.95
X-45.382 Y-50.385
Y-50.382
X-45.362 Y-49.809
Y-49.806
X-45.414 Y-49.232
X-45.415 Y-49.23
X-45.539 Y-48.67
Y-48.668
X-45.734 Y-48.126
X-45.735 Y-48.123
X-45.994 Y-47.612
X-45.996 Y-47.609
X-46.317 Y-47.137
X-46.32 Y-47.133
X-46.698 Y-46.703
X-46.701 Y-46.7
X-47.133 Y-46.32
X-47.137 Y-46.317
X-47.609 Y-45.996
X-47.612 Y-45.994
X-48.123 Y-45.735
X-48.126 Y-45.734
X-48.668 Y-45.539
X-48.67
X-49.23 Y-45.415
X-49.232 Y-45.414
X-49.806 Y-45.362
X-49.809
X-50.382 Y-45.382
X-50.385
X-50.95 Y-45.473
X-50.953 Y-45.474
X-51.503 Y-45.636
X-51.506 Y-45.637
X-52.034 Y-45.868
X-52.036 Y-45.87
X-52.528 Y-46.164
X-52.531 Y-46.166
X-52.98 Y-46.518
X-52.983 Y-46.521
X-53.377 Y-46.92
X-53.399 Y-46.942
X-53.405 Y-46.947
X-53.411 Y-46.951
X-53.417 Y-46.955
X-53.423 Y-46.958
X-53.429 Y-46.961
X-53.434 Y-46.964
X-53.44 Y-46.966
X-53.446 Y-46.968
X-53.451 Y-46.969
X-53.457 Y-46.971
X-53.463 Y-46.972
X-53.468
X-53.474 Y-46.973
X-53.48
X-53.486
X-53.491
X-53.497 Y-46.972
X-53.503 Y-46.971
X-53.508 Y-46.97
X-53.514 Y-46.969
X-53.52 Y-46.967
X-53.526 Y-46.965
X-53.531 Y-46.963
X-53.537 Y-46.96
X-53.543 Y-46.957
X-53.548 Y-46.953
X-53.554 Y-46.949
X-53.56 Y-46.945
X-53.563 Y-46.942
X-53.569 Y-46.936
X-53.574 Y-46.93
X-55.112 Y-45.115
X-55.147 Y-45.071
X-56.591 Y-43.245
X-56.618 Y-43.209
X-58.006 Y-41.328
X-58.033 Y-41.289
X-59.356 Y-39.364
X-59.385 Y-39.32
X-60.639 Y-37.357
X-60.666 Y-37.312
X-61.831 Y-35.349
X-61.858 Y-35.303
X-62.985 Y-33.249
X-63.007 Y-33.207
X-64.072 Y-31.104
X-64.093 Y-31.059
X-65.069 Y-28.959
X-65.09 Y-28.914
X-66 Y-26.768
X-66.019 Y-26.723
X-66.864 Y-24.532
X-66.881 Y-24.486
X-67.642 Y-22.296
X-67.658 Y-22.25
X-68.353 Y-20.014
X-68.366 Y-19.968
X-68.986 Y-17.706
X-68.992 Y-17.686
X-69.537 Y-15.404
X-69.547 Y-15.358
X-70.011 Y-13.076
X-70.021 Y-13.031
X-70.414 Y-10.703
X-70.421 Y-10.657
X-70.734 Y-8.329
X-70.739 Y-8.284
X-70.973 Y-5.956
X-70.976 Y-5.911
X-71.132 Y-3.583
X-71.134 Y-3.537
X-71.177 Y-2.257
X-71.212 Y-1.209
X-71.213 Y-1.164
Y1.164
X-71.212 Y1.209
X-71.134 Y3.537
X-71.132 Y3.583
X-70.976 Y5.911
X-70.973 Y5.956
X-70.739 Y8.284
X-70.734 Y8.329
X-70.421 Y10.657
X-70.414 Y10.703
X-70.021 Y13.031
X-70.011 Y13.076
X-69.547 Y15.358
X-69.537 Y15.404
X-68.992 Y17.686
X-68.986 Y17.706
X-68.366 Y19.968
X-68.353 Y20.014
X-67.658 Y22.25
X-67.642 Y22.296
X-66.881 Y24.486
X-66.864 Y24.532
X-66.019 Y26.723
X-66 Y26.768
X-65.09 Y28.914
X-65.069 Y28.959
X-64.093 Y31.059
X-64.072 Y31.104
X-63.007 Y33.207
X-62.985 Y33.249
X-61.858 Y35.303
X-61.831 Y35.349
X-60.666 Y37.312
X-60.639 Y37.357
X-59.385 Y39.32
X-59.356 Y39.364
X-58.033 Y41.289
X-58.006 Y41.328
X-56.618 Y43.209
X-56.591 Y43.245
X-55.147 Y45.071
X-55.112 Y45.115
X-53.574 Y46.93
X-53.569 Y46.936
X-53.563 Y46.942
X-53.56 Y46.945
X-53.554 Y46.949
X-53.548 Y46.953
X-53.543 Y46.957
X-53.537 Y46.96
X-53.531 Y46.963
X-53.526 Y46.965
X-53.52 Y46.967
X-53.514 Y46.969
X-53.508 Y46.97
X-53.503 Y46.971
X-53.497 Y46.972
X-53.491 Y46.973
X-53.486
X-53.48
X-53.474
X-53.468 Y46.972
X-53.463
X-53.457 Y46.971
X-53.451 Y46.969
X-53.446 Y46.968
X-53.44 Y46.966
X-53.434 Y46.964
X-53.429 Y46.961
X-53.423 Y46.958
X-53.417 Y46.955
X-53.411 Y46.951
X-53.405 Y46.947
X-53.399 Y46.942
X-53.377 Y46.92
X-52.983 Y46.521
X-52.98 Y46.518
X-52.531 Y46.166
X-52.528 Y46.164
X-52.036 Y45.87
X-52.034 Y45.868
X-51.506 Y45.637
X-51.503 Y45.636
X-50.953 Y45.474
X-50.95 Y45.473
X-50.385 Y45.382
X-50.382
X-49.809 Y45.362
X-49.806
X-49.232 Y45.414
X-49.23 Y45.415
X-48.67 Y45.539
X-48.668
X-48.126 Y45.734
X-48.123 Y45.735
X-47.612 Y45.994
X-47.609 Y45.996
X-47.137 Y46.317
X-47.133 Y46.32
X-46.701 Y46.7
X-46.698 Y46.703
X-46.32 Y47.133
X-46.317 Y47.137
X-45.996 Y47.609
X-45.994 Y47.612
X-45.735 Y48.123
X-45.734 Y48.126
X-45.539 Y48.668
Y48.67
X-45.415 Y49.23
X-45.414 Y49.232
X-45.362 Y49.806
Y49.809
X-45.382 Y50.382
Y50.385
X-45.473 Y50.95
X-45.474 Y50.953
X-45.636 Y51.503
X-45.637 Y51.506
X-45.868 Y52.034
X-45.87 Y52.036
X-46.164 Y52.528
X-46.166 Y52.531
X-46.518 Y52.98
X-46.521 Y52.983
X-46.92 Y53.377
X-46.942 Y53.399
X-46.947 Y53.405
X-46.951 Y53.411
X-46.955 Y53.417
X-46.958 Y53.423
X-46.961 Y53.429
X-46.964 Y53.434
X-46.966 Y53.44
X-46.968 Y53.446
X-46.969 Y53.451
X-46.971 Y53.457
X-46.972 Y53.463
Y53.468
X-46.973 Y53.474
Y53.48
Y53.486
Y53.491
X-46.972 Y53.497
X-46.971 Y53.503
X-46.97 Y53.508
X-46.969 Y53.514
X-46.967 Y53.52
X-46.965 Y53.526
X-46.963 Y53.531
X-46.96 Y53.537
X-46.957 Y53.543
X-46.953 Y53.548
X-46.949 Y53.554
X-46.945 Y53.56
X-46.942 Y53.563
X-46.936 Y53.569
X-46.93 Y53.574
X-45.115 Y55.112
X-45.071 Y55.147
X-43.245 Y56.591
X-43.209 Y56.618
X-41.328 Y58.006
X-41.289 Y58.033
X-39.364 Y59.356
X-39.32 Y59.385
X-37.357 Y60.639
X-37.312 Y60.666
X-35.349 Y61.831
X-35.303 Y61.858
X-33.249 Y62.985
X-33.207 Y63.007
X-31.104 Y64.072
X-31.059 Y64.093
X-28.959 Y65.069
X-28.914 Y65.09
X-26.768 Y66
X-26.723 Y66.019
X-24.532 Y66.864
X-24.486 Y66.881
X-22.296 Y67.642
X-22.25 Y67.658
X-20.014 Y68.353
X-19.968 Y68.366
X-17.706 Y68.986
X-17.686 Y68.992
X-15.404 Y69.537
X-15.358 Y69.547
X-13.076 Y70.011
X-13.031 Y70.021
X-10.703 Y70.414
X-10.657 Y70.421
X-8.329 Y70.734
X-8.284 Y70.739
X-5.956 Y70.973
X-5.911 Y70.976
X-3.583 Y71.132
X-3.537 Y71.134
X-1.209 Y71.212
X-1.164 Y71.213
X1.164
X1.209 Y71.212
X3.537 Y71.134
X3.583 Y71.132
X5.911 Y70.976
X5.956 Y70.973
X8.284 Y70.739
X8.329 Y70.734
X10.657 Y70.421
X10.703 Y70.414
X13.031 Y70.021
X13.076 Y70.011
X15.358 Y69.547
X15.404 Y69.537
X17.686 Y68.992
X17.706 Y68.986
X19.968 Y68.366
X20.014 Y68.353
X22.25 Y67.658
X22.296 Y67.642
X24.486 Y66.881
X24.532 Y66.864
X26.723 Y66.019
X26.768 Y66
X28.914 Y65.09
X28.959 Y65.069
X31.059 Y64.093
X31.104 Y64.072
X33.207 Y63.007
X33.249 Y62.985
X35.303 Y61.858
X35.349 Y61.831
X37.312 Y60.666
X37.357 Y60.639
X39.32 Y59.385
X39.364 Y59.356
X41.289 Y58.033
X41.328 Y58.006
X43.209 Y56.618
X43.245 Y56.591
X45.071 Y55.147
X45.115 Y55.112
X46.93 Y53.574
X46.936 Y53.569
X46.942 Y53.563
X46.945 Y53.56
X46.949 Y53.554
X46.953 Y53.548
X46.957 Y53.543
X46.96 Y53.537
X46.963 Y53.531
X46.965 Y53.526
X46.967 Y53.52
X46.969 Y53.514
X46.97 Y53.508
X46.971 Y53.503
X46.972 Y53.497
X46.973 Y53.491
Y53.486
Y53.48
Y53.474
X46.972 Y53.468
Y53.463
X46.971 Y53.457
X46.969 Y53.451
X46.968 Y53.446
X46.966 Y53.44
X46.964 Y53.434
X46.961 Y53.429
X46.958 Y53.423
X46.955 Y53.417
X46.951 Y53.411
X46.947 Y53.405
X46.942 Y53.399
X46.92 Y53.377
X46.521 Y52.983
X46.518 Y52.98
X46.166 Y52.531
X46.164 Y52.528
X45.87 Y52.036
X45.868 Y52.034
X45.637 Y51.506
X45.636 Y51.503
X45.474 Y50.953
X45.473 Y50.95
X45.382 Y50.385
Y50.382
X45.362 Y49.809
Y49.806
X45.414 Y49.232
X45.415 Y49.23
X45.539 Y48.67
Y48.668
X45.734 Y48.126
X45.735 Y48.123
X45.994 Y47.612
X45.996 Y47.609
X46.317 Y47.137
X46.32 Y47.133
X46.698 Y46.703
X46.701 Y46.7
X47.133 Y46.32
X47.137 Y46.317
X47.609 Y45.996
X47.612 Y45.994
X48.123 Y45.735
X48.126 Y45.734
X48.668 Y45.539
X48.67
X49.23 Y45.415
X49.232 Y45.414
X49.806 Y45.362
X49.809
X50.382 Y45.382
X50.385
X50.95 Y45.473
X50.953 Y45.474
X51.503 Y45.636
X51.506 Y45.637
X52.034 Y45.868
X52.036 Y45.87
X52.528 Y46.164
X52.531 Y46.166
X52.98 Y46.518
X52.983 Y46.521
X53.377 Y46.92
X53.399 Y46.942
X53.405 Y46.947
X53.411 Y46.951
X53.417 Y46.955
X53.423 Y46.958
X53.429 Y46.961
X53.434 Y46.964
X53.44 Y46.966
X53.446 Y46.968
X53.451 Y46.969
X53.457 Y46.971
X53.463 Y46.972
X53.468
X53.474 Y46.973
X53.48
X53.486
X53.491
X53.497 Y46.972
X53.503 Y46.971
X53.508 Y46.97
X53.514 Y46.969
X53.52 Y46.967
X53.526 Y46.965
X53.531 Y46.963
X53.537 Y46.96
X53.543 Y46.957
X53.548 Y46.953
X53.554 Y46.949
X53.56 Y46.945
X53.563 Y46.942
X53.569 Y46.936
X53.574 Y46.93
X55.112 Y45.115
X55.147 Y45.071
X56.591 Y43.245
X56.618 Y43.209
X58.006 Y41.328
X58.033 Y41.289
X59.356 Y39.364
X59.385 Y39.32
X60.639 Y37.357
X60.666 Y37.312
X61.831 Y35.349
X61.858 Y35.303
X62.985 Y33.249
X63.007 Y33.207
X64.072 Y31.104
X64.093 Y31.059
X65.069 Y28.959
X65.09 Y28.914
X66 Y26.768
X66.019 Y26.723
X66.864 Y24.532
X66.881 Y24.486
X67.642 Y22.296
X67.658 Y22.25
X68.353 Y20.014
X68.366 Y19.968
X68.986 Y17.706
X68.992 Y17.686
X69.537 Y15.404
X69.547 Y15.358
X70.011 Y13.076
X70.021 Y13.031
X70.414 Y10.703
X70.421 Y10.657
X70.734 Y8.329
X70.739 Y8.284
X70.973 Y5.956
X70.976 Y5.911
X71.132 Y3.583
X71.134 Y3.537
X71.212 Y1.209
X71.213 Y1.164
Y-0.771
Y-1.164
X71.212 Y-1.209
X71.134 Y-3.537
X71.132 Y-3.583
X70.976 Y-5.911
X70.973 Y-5.956
X70.739 Y-8.284
X70.734 Y-8.329
X70.421 Y-10.657
X70.414 Y-10.703
X70.021 Y-13.031
X70.011 Y-13.076
X69.547 Y-15.358
X69.537 Y-15.404
X68.992 Y-17.686
X68.986 Y-17.706
X68.366 Y-19.968
X68.353 Y-20.014
X67.658 Y-22.25
X67.642 Y-22.296
X66.881 Y-24.486
X66.864 Y-24.532
X66.019 Y-26.723
X66 Y-26.768
X65.09 Y-28.914
X65.069 Y-28.959
X64.093 Y-31.059
X64.072 Y-31.104
X63.007 Y-33.207
X62.985 Y-33.249
X61.858 Y-35.303
X61.831 Y-35.349
X60.666 Y-37.312
X60.639 Y-37.357
X59.385 Y-39.32
X59.356 Y-39.364
X58.033 Y-41.289
X58.006 Y-41.328
X56.618 Y-43.209
X56.591 Y-43.245
X55.147 Y-45.071
X55.112 Y-45.115
X53.574 Y-46.93
X53.569 Y-46.936
X53.563 Y-46.942
X53.56 Y-46.945
X53.554 Y-46.949
X53.548 Y-46.953
X53.543 Y-46.957
X53.537 Y-46.96
X53.531 Y-46.963
X53.526 Y-46.965
X53.52 Y-46.967
X53.514 Y-46.969
X53.508 Y-46.97
X53.503 Y-46.971
X53.497 Y-46.972
X53.491 Y-46.973
X53.486
X53.48
X53.474
X53.468 Y-46.972
X53.463
X53.457 Y-46.971
X53.451 Y-46.969
X53.446 Y-46.968
X53.44 Y-46.966
X53.434 Y-46.964
X53.429 Y-46.961
X53.423 Y-46.958
X53.417 Y-46.955
X53.411 Y-46.951
X53.405 Y-46.947
X53.399 Y-46.942
X53.377 Y-46.92
X52.983 Y-46.521
X52.98 Y-46.518
X52.531 Y-46.166
X52.528 Y-46.164
X52.036 Y-45.87
X52.034 Y-45.868
X51.506 Y-45.637
X51.503 Y-45.636
X50.953 Y-45.474
X50.95 Y-45.473
X50.385 Y-45.382
X50.382
X49.809 Y-45.362
X49.806
X49.232 Y-45.414
X49.23 Y-45.415
X48.67 Y-45.539
X48.668
X48.126 Y-45.734
X48.123 Y-45.735
X47.612 Y-45.994
X47.609 Y-45.996
X47.137 Y-46.317
X47.133 Y-46.32
X46.701 Y-46.7
X46.698 Y-46.703
X46.32 Y-47.133
X46.317 Y-47.137
X45.996 Y-47.609
X45.994 Y-47.612
X45.735 Y-48.123
X45.734 Y-48.126
X45.539 Y-48.668
Y-48.67
X45.415 Y-49.23
X45.414 Y-49.232
X45.362 Y-49.806
Y-49.809
X45.382 Y-50.382
Y-50.385
X45.473 Y-50.95
X45.474 Y-50.953
X45.636 Y-51.503
X45.637 Y-51.506
X45.868 Y-52.034
X45.87 Y-52.036
X46.164 Y-52.528
X46.166 Y-52.531
X46.518 Y-52.98
X46.521 Y-52.983
X46.92 Y-53.377
X46.942 Y-53.399
X46.947 Y-53.405
X46.951 Y-53.411
X46.955 Y-53.417
X46.958 Y-53.423
X46.961 Y-53.429
X46.964 Y-53.434
X46.966 Y-53.44
X46.968 Y-53.446
X46.969 Y-53.451
X46.971 Y-53.457
X46.972 Y-53.463
Y-53.468
X46.973 Y-53.474
Y-53.48
Y-53.486
Y-53.491
X46.972 Y-53.497
X46.971 Y-53.503
X46.97 Y-53.508
X46.969 Y-53.514
X46.967 Y-53.52
X46.965 Y-53.526
X46.963 Y-53.531
X46.96 Y-53.537
X46.957 Y-53.543
X46.953 Y-53.548
X46.949 Y-53.554
X46.945 Y-53.56
X46.942 Y-53.563
X46.936 Y-53.569
X46.93 Y-53.574
X45.115 Y-55.112
X45.071 Y-55.147
X43.245 Y-56.591
X43.209 Y-56.618
X41.328 Y-58.006
X41.289 Y-58.033
X39.364 Y-59.356
X39.32 Y-59.385
X37.357 Y-60.639
X37.312 Y-60.666
X35.349 Y-61.831
X35.303 Y-61.858
X33.249 Y-62.985
X33.207 Y-63.007
X31.104 Y-64.072
X31.059 Y-64.093
X28.959 Y-65.069
X28.914 Y-65.09
X26.768 Y-66
X26.723 Y-66.019
X24.532 Y-66.864
X24.486 Y-66.881
X22.296 Y-67.642
X22.25 Y-67.658
X20.014 Y-68.353
X19.968 Y-68.366
X17.706 Y-68.986
X17.686 Y-68.992
X15.404 Y-69.537
X15.358 Y-69.547
X13.076 Y-70.011
X13.031 Y-70.021
X10.703 Y-70.414
X10.657 Y-70.421
X8.329 Y-70.734
X8.284 Y-70.739
X5.956 Y-70.973
X5.911 Y-70.976
X3.583 Y-71.132
X3.537 Y-71.134
X1.209 Y-71.212
X1.164 Y-71.213
X-1.164
X-1.209 Y-71.212
X-3.537 Y-71.134
X-3.583 Y-71.132
X-5.911 Y-70.976
X-5.956 Y-70.973
X-8.284 Y-70.739
X-8.329 Y-70.734
X-10.657 Y-70.421
X-10.703 Y-70.414
X-13.031 Y-70.021
X-13.076 Y-70.011
X-15.358 Y-69.547
X-15.404 Y-69.537
X-17.686 Y-68.992
X-17.706 Y-68.986
X-19.968 Y-68.366
X-20.014 Y-68.353
X-22.25 Y-67.658
X-22.296 Y-67.642
X-24.486 Y-66.881
X-24.532 Y-66.864
X-26.723 Y-66.019
X-26.768 Y-66
X-28.914 Y-65.09
X-28.959 Y-65.069
X-31.059 Y-64.093
X-31.104 Y-64.072
X-33.207 Y-63.007
X-33.249 Y-62.985
X-35.303 Y-61.858
X-35.349 Y-61.831
X-37.312 Y-60.666
X-37.357 Y-60.639
X-39.32 Y-59.385
X-39.364 Y-59.356
X-41.289 Y-58.033
X-41.328 Y-58.006
X-43.209 Y-56.618
X-43.245 Y-56.591
X-45.071 Y-55.147
X-45.115 Y-55.112
X-46.93 Y-53.574
X-46.936 Y-53.569
X-46.942 Y-53.563
X-46.945 Y-53.56
X-46.949 Y-53.554
X-46.953 Y-53.548
X-46.957 Y-53.543
X-46.96 Y-53.537
X-46.963 Y-53.531
X-46.965 Y-53.526
X-46.967 Y-53.52
X-46.969 Y-53.514
X-46.97 Y-53.508
X-46.971 Y-53.503
X-46.972 Y-53.497
X-46.973 Y-53.491
Y-53.486
Y-53.48
Y-53.474
X-46.972 Y-53.468
Y-53.463
X-46.971 Y-53.457
X-46.969 Y-53.451
X-46.968 Y-53.446
X-46.966 Y-53.44
X-46.964 Y-53.434
X-46.961 Y-53.429
X-46.958 Y-53.423
X-46.955 Y-53.417
X-46.951 Y-53.411
X-46.947 Y-53.405
X-46.942 Y-53.399
X-46.92 Y-53.377
X-46.521 Y-52.983
X-46.518 Y-52.98
X-46.166 Y-52.531
X-46.164 Y-52.528
X-45.87 Y-52.036
X-45.868 Y-52.034
X-45.637 Y-51.506
X-45.636 Y-51.503
X-45.474 Y-50.953
X-45.473 Y-50.95
X-45.382 Y-50.385
Y-50.382
X-45.362 Y-49.809
Y-49.806
X-45.414 Y-49.232
X-45.415 Y-49.23
X-45.539 Y-48.67
Y-48.668
X-45.734 Y-48.126
X-45.735 Y-48.123
X-45.994 Y-47.612
X-45.996 Y-47.609
X-46.317 Y-47.137
X-46.32 Y-47.133
X-46.698 Y-46.703
X-46.701 Y-46.7
X-47.133 Y-46.32
X-47.137 Y-46.317
X-47.609 Y-45.996
X-47.612 Y-45.994
X-48.123 Y-45.735
X-48.126 Y-45.734
X-48.668 Y-45.539
X-48.67
X-49.23 Y-45.415
X-49.232 Y-45.414
X-49.806 Y-45.362
X-49.809
X-50.382 Y-45.382
X-50.385
X-50.95 Y-45.473
X-50.953 Y-45.474
X-51.503 Y-45.636
X-51.506 Y-45.637
X-52.034 Y-45.868
X-52.036 Y-45.87
X-52.528 Y-46.164
X-52.531 Y-46.166
X-52.98 Y-46.518
X-52.983 Y-46.521
X-53.377 Y-46.92
X-53.399 Y-46.942
X-53.405 Y-46.947
X-53.411 Y-46.951
X-53.417 Y-46.955
X-53.423 Y-46.958
X-53.429 Y-46.961
X-53.434 Y-46.964
X-53.44 Y-46.966
X-53.446 Y-46.968
X-53.451 Y-46.969
X-53.457 Y-46.971
X-53.463 Y-46.972
X-53.468
X-53.474 Y-46.973
X-53.48
X-53.486
X-53.491
X-53.497 Y-46.972
X-53.503 Y-46.971
X-53.508 Y-46.97
X-53.514 Y-46.969
X-53.52 Y-46.967
X-53.526 Y-46.965
X-53.531 Y-46.963
X-53.537 Y-46.96
X-53.543 Y-46.957
X-53.548 Y-46.953
X-53.554 Y-46.949
X-53.56 Y-46.945
X-53.563 Y-46.942
X-53.569 Y-46.936
X-53.574 Y-46.93
X-55.112 Y-45.115
X-55.147 Y-45.071
X-56.591 Y-43.245
X-56.618 Y-43.209
X-58.006 Y-41.328
X-58.033 Y-41.289
X-59.356 Y-39.364
X-59.385 Y-39.32
X-60.639 Y-37.357
X-60.666 Y-37.312
X-61.831 Y-35.349
X-61.858 Y-35.303
X-62.985 Y-33.249
X-63.007 Y-33.207
X-64.072 Y-31.104
X-64.093 Y-31.059
X-65.069 Y-28.959
X-65.09 Y-28.914
X-66 Y-26.768
X-66.019 Y-26.723
X-66.864 Y-24.532
X-66.881 Y-24.486
X-67.642 Y-22.296
X-67.658 Y-22.25
X-68.353 Y-20.014
X-68.366 Y-19.968
X-68.986 Y-17.706
X-68.992 Y-17.686
X-69.537 Y-15.404
X-69.547 Y-15.358
X-70.011 Y-13.076
X-70.021 Y-13.031
X-70.414 Y-10.703
X-70.421 Y-10.657
X-70.734 Y-8.329
X-70.739 Y-8.284
X-70.973 Y-5.956
X-70.976 Y-5.911
X-71.132 Y-3.583
X-71.134 Y-3.537
X-71.177 Y-2.257
X-71.212 Y-1.209
X-71.213 Y-1.164
Y1.164
X-71.212 Y1.209
X-71.134 Y3.537
X-71.132 Y3.583
X-70.976 Y5.911
X-70.973 Y5.956
X-70.739 Y8.284
X-70.734 Y8.329
X-70.421 Y10.657
X-70.414 Y10.703
X-70.021 Y13.031
X-70.011 Y13.076
X-69.547 Y15.358
X-69.537 Y15.404
X-68.992 Y17.686
X-68.986 Y17.706
X-68.366 Y19.968
X-68.353 Y20.014
X-67.658 Y22.25
X-67.642 Y22.296
X-66.881 Y24.486
X-66.864 Y24.532
X-66.019 Y26.723
X-66 Y26.768
X-65.09 Y28.914
X-65.069 Y28.959
X-64.093 Y31.059
X-64.072 Y31.104
X-63.007 Y33.207
X-62.985 Y33.249
X-61.858 Y35.303
X-61.831 Y35.349
X-60.666 Y37.312
X-60.639 Y37.357
X-59.385 Y39.32
X-59.356 Y39.364
X-58.033 Y41.289
X-58.006 Y41.328
X-56.618 Y43.209
X-56.591 Y43.245
X-55.147 Y45.071
X-55.112 Y45.115
X-53.574 Y46.93
X-53.569 Y46.936
X-53.563 Y46.942
X-53.56 Y46.945
X-53.554 Y46.949
X-53.548 Y46.953
X-53.543 Y46.957
X-53.537 Y46.96
X-53.531 Y46.963
X-53.526 Y46.965
X-53.52 Y46.967
X-53.514 Y46.969
X-53.508 Y46.97
X-53.503 Y46.971
X-53.497 Y46.972
X-53.491 Y46.973
X-53.486
X-53.48
X-53.474
X-53.468 Y46.972
X-53.463
X-53.457 Y46.971
X-53.451 Y46.969
X-53.446 Y46.968
X-53.44 Y46.966
X-53.434 Y46.964
X-53.429 Y46.961
X-53.423 Y46.958
X-53.417 Y46.955
X-53.411 Y46.951
X-53.405 Y46.947
X-53.399 Y46.942
X-53.377 Y46.92
X-52.983 Y46.521
X-52.98 Y46.518
X-52.531 Y46.166
X-52.528 Y46.164
X-52.036 Y45.87
X-52.034 Y45.868
X-51.506 Y45.637
X-51.503 Y45.636
X-50.953 Y45.474
X-50.95 Y45.473
X-50.385 Y45.382
X-50.382
X-49.809 Y45.362
X-49.806
X-49.232 Y45.414
X-49.23 Y45.415
X-48.67 Y45.539
X-48.668
X-48.126 Y45.734
X-48.123 Y45.735
X-47.612 Y45.994
X-47.609 Y45.996
X-47.137 Y46.317
X-47.133 Y46.32
X-46.701 Y46.7
X-46.698 Y46.703
X-46.32 Y47.133
X-46.317 Y47.137
X-45.996 Y47.609
X-45.994 Y47.612
X-45.735 Y48.123
X-45.734 Y48.126
X-45.539 Y48.668
Y48.67
X-45.415 Y49.23
X-45.414 Y49.232
X-45.362 Y49.806
Y49.809
X-45.382 Y50.382
Y50.385
X-45.473 Y50.95
X-45.474 Y50.953
X-45.636 Y51.503
X-45.637 Y51.506
X-45.868 Y52.034
X-45.87 Y52.036
X-46.164 Y52.528
X-46.166 Y52.531
X-46.518 Y52.98
X-46.521 Y52.983
X-46.92 Y53.377
X-46.942 Y53.399
X-46.947 Y53.405
X-46.951 Y53.411
X-46.955 Y53.417
X-46.958 Y53.423
X-46.961 Y53.429
X-46.964 Y53.434
X-46.966 Y53.44
X-46.968 Y53.446
X-46.969 Y53.451
X-46.971 Y53.457
X-46.972 Y53.463
Y53.468
X-46.973 Y53.474
Y53.48
Y53.486
Y53.491
X-46.972 Y53.497
X-46.971 Y53.503
X-46.97 Y53.508
X-46.969 Y53.514
X-46.967 Y53.52
X-46.965 Y53.526
X-46.963 Y53.531
X-46.96 Y53.537
X-46.957 Y53.543
X-46.953 Y53.548
X-46.949 Y53.554
X-46.945 Y53.56
X-46.942 Y53.563
X-46.936 Y53.569
X-46.93 Y53.574
X-45.115 Y55.112
X-45.071 Y55.147
X-43.245 Y56.591
X-43.209 Y56.618
X-41.328 Y58.006
X-41.289 Y58.033
X-39.364 Y59.356
X-39.32 Y59.385
X-37.357 Y60.639
X-37.312 Y60.666
X-35.349 Y61.831
X-35.303 Y61.858
X-33.249 Y62.985
X-33.207 Y63.007
X-31.104 Y64.072
X-31.059 Y64.093
X-28.959 Y65.069
X-28.914 Y65.09
X-26.768 Y66
X-26.723 Y66.019
X-24.532 Y66.864
X-24.486 Y66.881
X-22.296 Y67.642
X-22.25 Y67.658
X-20.014 Y68.353
X-19.968 Y68.366
X-17.706 Y68.986
X-17.686 Y68.992
X-15.404 Y69.537
X-15.358 Y69.547
X-13.076 Y70.011
X-13.031 Y70.021
X-10.703 Y70.414
X-10.657 Y70.421
X-8.329 Y70.734
X-8.284 Y70.739
X-5.956 Y70.973
X-5.911 Y70.976
X-3.583 Y71.132
X-3.537 Y71.134
X-1.209 Y71.212
X-1.164 Y71.213
X1.164
X1.209 Y71.212
X3.537 Y71.134
X3.583 Y71.132
X5.911 Y70.976
X5.956 Y70.973
X8.284 Y70.739
X8.329 Y70.734
X10.657 Y70.421
X10.703 Y70.414
X13.031 Y70.021
X13.076 Y70.011
X15.358 Y69.547
X15.404 Y69.537
X17.686 Y68.992
X17.706 Y68.986
X19.968 Y68.366
X20.014 Y68.353
X22.25 Y67.658
X22.296 Y67.642
X24.486 Y66.881
X24.532 Y66.864
X26.723 Y66.019
X26.768 Y66
X28.914 Y65.09
X28.959 Y65.069
X31.059 Y64.093
X31.104 Y64.072
X33.207 Y63.007
X33.249 Y62.985
X35.303 Y61.858
X35.349 Y61.831
X37.312 Y60.666
X37.357 Y60.639
X39.32 Y59.385
X39.364 Y59.356
X41.289 Y58.033
X41.328 Y58.006
X43.209 Y56.618
X43.245 Y56.591
X45.071 Y55.147
X45.115 Y55.112
X46.93 Y53.574
X46.936 Y53.569
X46.942 Y53.563
X46.945 Y53.56
X46.949 Y53.554
X46.953 Y53.548
X46.957 Y53.543
X46.96 Y53.537
X46.963 Y53.531
X46.965 Y53.526
X46.967 Y53.52
X46.969 Y53.514
X46.97 Y53.508
X46.971 Y53.503
X46.972 Y53.497
X46.973 Y53.491
Y53.486
Y53.48
Y53.474
X46.972 Y53.468
Y53.463
X46.971 Y53.457
X46.969 Y53.451
X46.968 Y53.446
X46.966 Y53.44
X46.964 Y53.434
X46.961 Y53.429
X46.958 Y53.423
X46.955 Y53.417
X46.951 Y53.411
X46.947 Y53.405
X46.942 Y53.399
X46.92 Y53.377
X46.521 Y52.983
X46.518 Y52.98
X46.166 Y52.531
X46.164 Y52.528
X45.87 Y52.036
X45.868 Y52.034
X45.637 Y51.506
X45.636 Y51.503
X45.474 Y50.953
X45.473 Y50.95
X45.382 Y50.385
Y50.382
X45.362 Y49.809
Y49.806
X45.414 Y49.232
X45.415 Y49.23
X45.539 Y48.67
Y48.668
X45.734 Y48.126
X45.735 Y48.123
X45.994 Y47.612
X45.996 Y47.609
X46.317 Y47.137
X46.32 Y47.133
X46.698 Y46.703
X46.701 Y46.7
X47.133 Y46.32
X47.137 Y46.317
X47.609 Y45.996
X47.612 Y45.994
X48.123 Y45.735
X48.126 Y45.734
X48.668 Y45.539
X48.67
X49.23 Y45.415
X49.232 Y45.414
X49.806 Y45.362
X49.809
X50.382 Y45.382
X50.385
X50.95 Y45.473
X50.953 Y45.474
X51.503 Y45.636
X51.506 Y45.637
X52.034 Y45.868
X52.036 Y45.87
X52.528 Y46.164
X52.531 Y46.166
X52.98 Y46.518
X52.983 Y46.521
X53.377 Y46.92
X53.399 Y46.942
X53.405 Y46.947
X53.411 Y46.951
X53.417 Y46.955
X53.423 Y46.958
X53.429 Y46.961
X53.434 Y46.964
X53.44 Y46.966
X53.446 Y46.968
X53.451 Y46.969
X53.457 Y46.971
X53.463 Y46.972
X53.468
X53.474 Y46.973
X53.48
X53.486
X53.491
X53.497 Y46.972
X53.503 Y46.971
X53.508 Y46.97
X53.514 Y46.969
X53.52 Y46.967
X53.526 Y46.965
X53.531 Y46.963
X53.537 Y46.96
X53.543 Y46.957
X53.548 Y46.953
X53.554 Y46.949
X53.56 Y46.945
X53.563 Y46.942
X53.569 Y46.936
X53.574 Y46.93
X55.112 Y45.115
X55.147 Y45.071
X56.591 Y43.245
X56.618 Y43.209
X58.006 Y41.328
X58.033 Y41.289
X59.356 Y39.364
X59.385 Y39.32
X60.639 Y37.357
X60.666 Y37.312
X61.831 Y35.349
X61.858 Y35.303
X62.985 Y33.249
X63.007 Y33.207
X64.072 Y31.104
X64.093 Y31.059
X65.069 Y28.959
X65.09 Y28.914
X66 Y26.768
X66.019 Y26.723
X66.864 Y24.532
X66.881 Y24.486
X67.642 Y22.296
X67.658 Y22.25
X68.353 Y20.014
X68.366 Y19.968
X68.986 Y17.706
X68.992 Y17.686
X69.537 Y15.404
X69.547 Y15.358
X70.011 Y13.076
X70.021 Y13.031
X70.414 Y10.703
X70.421 Y10.657
X70.734 Y8.329
X70.739 Y8.284
X70.973 Y5.956
X70.976 Y5.911
X71.132 Y3.583
X71.134 Y3.537
X71.212 Y1.209
X71.213 Y1.164
Y-0.771
Y-0.795
Y-0.82
Y-0.87
Y-0.919
Y-0.969 Z-0.201
Y-1.018
Y-1.068 Z-0.202
X71.214 Y-1.117
Y-1.166 Z-0.203
X71.213 Y-1.215 Z-0.204
X71.212 Y-1.264 Z-0.205
X71.211 Y-1.314 Z-0.206
X71.209 Y-1.363 Z-0.207
X71.208 Y-1.413 Z-0.208
X71.207 Y-1.462 Z-0.209
X71.206 Y-1.512 Z-0.21
X71.205 Y-1.561 Z-0.211
X71.203 Y-1.611 Z-0.212
X71.202 Y-1.66 Z-0.214
X71.201 Y-1.71 Z-0.215
X71.2 Y-1.759 Z-0.217
X71.199 Y-1.809 Z-0.218
X71.198 Y-1.858 Z-0.22
X71.197 Y-1.908 Z-0.221
X71.196 Y-1.957 Z-0.223
X71.195 Y-2.007 Z-0.225
X71.183 Y-2.551 Z-0.244
X71.165 Y-3.442 Z-0.275
X71.164 Y-3.492 Z-0.277
X71.163 Y-3.541 Z-0.278
X71.161 Y-3.59 Z-0.28
X71.158 Y-3.64 Z-0.281
X71.156 Y-3.689 Z-0.283
X71.153 Y-3.738 Z-0.284
X71.15 Y-3.788 Z-0.286
X71.147 Y-3.837 Z-0.287
X71.144 Y-3.887 Z-0.289
X71.142 Y-3.936 Z-0.29
X71.139 Y-3.986 Z-0.291
X71.136 Y-4.035 Z-0.292
X71.133 Y-4.084 Z-0.293
X71.13 Y-4.134 Z-0.294
X71.127 Y-4.183 Z-0.295
X71.124 Y-4.233 Z-0.296
X71.121 Y-4.282 Z-0.297
X71.118 Y-4.331 Z-0.298
X71.115 Y-4.381
X71.112 Y-4.43 Z-0.299
X71.109 Y-4.48
X71.105 Y-4.529
X71.102 Y-4.578 Z-0.3
X71.099 Y-4.628
X71.095 Y-4.689
X71.013 Y-5.911
X71.01 Y-5.956
X70.775 Y-8.284
X70.771 Y-8.329
X70.457 Y-10.657
X70.451 Y-10.703
X70.058 Y-13.031
X70.049 Y-13.076
X69.584 Y-15.358
X69.58 Y-15.379
X69.029 Y-17.686
X69.017 Y-17.732
X68.404 Y-19.968
X68.393 Y-20.006
X67.696 Y-22.25
X67.681 Y-22.296
X66.919 Y-24.486
X66.903 Y-24.532
X66.058 Y-26.723
X66.04 Y-26.768
X65.129 Y-28.914
X65.109 Y-28.959
X64.112 Y-31.104
X64.103 Y-31.123
X63.05 Y-33.204
X63.026 Y-33.249
X61.899 Y-35.303
X61.873 Y-35.349
X60.68 Y-37.361
X60.653 Y-37.403
X59.399 Y-39.365
X59.368 Y-39.411
X58.05 Y-41.328
X58.033 Y-41.353
X56.637 Y-43.245
X56.618 Y-43.27
X55.157 Y-45.117
X55.12 Y-45.162
X53.605 Y-46.95
X53.596 Y-46.961
X53.59 Y-46.967
X53.584 Y-46.972
X53.573 Y-46.98
X53.562 Y-46.987
X53.56 Y-46.989
X53.548 Y-46.995
X53.537 Y-47
X53.526 Y-47.003
X53.514 Y-47.006
X53.503 Y-47.008
X53.491 Y-47.009
X53.48 Y-47.01
X53.468 Y-47.009
X53.457 Y-47.008
X53.446 Y-47.005
X53.434 Y-47.002
X53.423 Y-46.998
X53.412 Y-46.993
X53.4 Y-46.987
X53.389 Y-46.98
X53.383 Y-46.976
X53.377 Y-46.971
X53.348 Y-46.942
X52.959 Y-46.548
X52.955 Y-46.545
X52.51 Y-46.196
X52.507 Y-46.194
X52.019 Y-45.902
X52.017 Y-45.901
X51.496 Y-45.673
X51.492 Y-45.671
X50.944 Y-45.509
X50.379 Y-45.418
X50.365 Y-45.417
X49.809 Y-45.398
X49.806
X49.238 Y-45.45
X49.235 Y-45.451
X48.681 Y-45.574
X48.676 Y-45.575
X48.14 Y-45.767
X48.137 Y-45.769
X47.629 Y-46.026
X47.159 Y-46.346
X47.155 Y-46.348
X46.727 Y-46.725
X46.724 Y-46.729
X46.348 Y-47.155
X46.346 Y-47.159
X46.026 Y-47.629
X45.769 Y-48.137
X45.767 Y-48.14
X45.575 Y-48.676
X45.574 Y-48.681
X45.451 Y-49.235
X45.45 Y-49.238
X45.398 Y-49.806
Y-49.809
X45.418 Y-50.376
Y-50.379
X45.509 Y-50.944
X45.671 Y-51.492
X45.673 Y-51.496
X45.901 Y-52.017
X45.902 Y-52.019
X46.194 Y-52.507
X46.196 Y-52.51
X46.545 Y-52.955
X46.548 Y-52.959
X46.942 Y-53.348
X46.971 Y-53.377
X46.976 Y-53.383
X46.98 Y-53.389
X46.987 Y-53.4
X46.993 Y-53.412
X46.998 Y-53.423
X47.002 Y-53.434
X47.005 Y-53.446
X47.008 Y-53.457
X47.009 Y-53.468
X47.01 Y-53.48
X47.009 Y-53.491
X47.008 Y-53.503
X47.006 Y-53.514
X47.003 Y-53.526
X47 Y-53.537
X46.995 Y-53.548
X46.989 Y-53.56
X46.987 Y-53.562
X46.98 Y-53.573
X46.972 Y-53.584
X46.967 Y-53.59
X46.961 Y-53.596
X46.95 Y-53.605
X45.162 Y-55.12
X45.116 Y-55.157
X43.27 Y-56.618
X43.245 Y-56.637
X41.353 Y-58.033
X41.328 Y-58.05
X39.411 Y-59.368
X39.365 Y-59.399
X37.403 Y-60.653
X37.361 Y-60.68
X35.349 Y-61.873
X35.303 Y-61.899
X33.249 Y-63.026
X33.204 Y-63.05
X31.123 Y-64.103
X31.104 Y-64.112
X28.959 Y-65.109
X28.914 Y-65.129
X26.768 Y-66.04
X26.723 Y-66.058
X24.532 Y-66.903
X24.486 Y-66.919
X22.296 Y-67.681
X22.25 Y-67.696
X20.006 Y-68.393
X19.968 Y-68.404
X17.732 Y-69.017
X17.686 Y-69.029
X15.379 Y-69.58
X15.358 Y-69.584
X13.076 Y-70.049
X13.031 Y-70.058
X10.703 Y-70.451
X10.657 Y-70.457
X8.329 Y-70.771
X8.284 Y-70.775
X5.956 Y-71.01
X5.911 Y-71.013
X3.583 Y-71.169
X3.537 Y-71.171
X1.209 Y-71.249
X1.164
X-1.164
X-1.209
X-3.537 Y-71.171
X-3.583 Y-71.169
X-5.911 Y-71.013
X-5.956 Y-71.01
X-8.284 Y-70.775
X-8.329 Y-70.771
X-10.657 Y-70.457
X-10.703 Y-70.451
X-13.031 Y-70.058
X-13.076 Y-70.049
X-15.358 Y-69.584
X-15.379 Y-69.58
X-17.686 Y-69.029
X-17.732 Y-69.017
X-19.968 Y-68.404
X-20.006 Y-68.393
X-22.25 Y-67.696
X-22.296 Y-67.681
X-24.486 Y-66.919
X-24.532 Y-66.903
X-26.723 Y-66.058
X-26.768 Y-66.04
X-28.914 Y-65.129
X-28.959 Y-65.109
X-31.104 Y-64.112
X-31.123 Y-64.103
X-33.204 Y-63.05
X-33.249 Y-63.026
X-35.303 Y-61.899
X-35.349 Y-61.873
X-37.361 Y-60.68
X-37.403 Y-60.653
X-39.365 Y-59.399
X-39.411 Y-59.368
X-41.328 Y-58.05
X-41.353 Y-58.033
X-43.245 Y-56.637
X-43.27 Y-56.618
X-45.117 Y-55.157
X-45.162 Y-55.12
X-46.95 Y-53.605
X-46.961 Y-53.596
X-46.967 Y-53.59
X-46.972 Y-53.584
X-46.98 Y-53.573
X-46.987 Y-53.562
X-46.989 Y-53.56
X-46.995 Y-53.548
X-47 Y-53.537
X-47.003 Y-53.526
X-47.006 Y-53.514
X-47.008 Y-53.503
X-47.009 Y-53.491
X-47.01 Y-53.48
X-47.009 Y-53.468
X-47.008 Y-53.457
X-47.005 Y-53.446
X-47.002 Y-53.434
X-46.998 Y-53.423
X-46.993 Y-53.412
X-46.987 Y-53.4
X-46.98 Y-53.389
X-46.976 Y-53.383
X-46.971 Y-53.377
X-46.942 Y-53.348
X-46.548 Y-52.959
X-46.545 Y-52.955
X-46.196 Y-52.51
X-46.194 Y-52.507
X-45.902 Y-52.019
X-45.901 Y-52.017
X-45.673 Y-51.496
X-45.671 Y-51.492
X-45.509 Y-50.944
X-45.418 Y-50.379
X-45.417 Y-50.365
X-45.398 Y-49.809
Y-49.806
X-45.45 Y-49.238
X-45.451 Y-49.235
X-45.574 Y-48.681
X-45.575 Y-48.676
X-45.767 Y-48.14
X-45.769 Y-48.137
X-46.026 Y-47.629
X-46.346 Y-47.159
X-46.348 Y-47.155
X-46.724 Y-46.729
X-46.727 Y-46.725
X-47.155 Y-46.348
X-47.159 Y-46.346
X-47.629 Y-46.026
X-48.137 Y-45.769
X-48.14 Y-45.767
X-48.676 Y-45.575
X-48.681 Y-45.574
X-49.235 Y-45.451
X-49.238 Y-45.45
X-49.806 Y-45.398
X-49.809
X-50.376 Y-45.418
X-50.379
X-50.944 Y-45.509
X-51.492 Y-45.671
X-51.496 Y-45.673
X-52.017 Y-45.901
X-52.019 Y-45.902
X-52.507 Y-46.194
X-52.51 Y-46.196
X-52.955 Y-46.545
X-52.959 Y-46.548
X-53.348 Y-46.942
X-53.377 Y-46.971
X-53.383 Y-46.976
X-53.389 Y-46.98
X-53.4 Y-46.987
X-53.412 Y-46.993
X-53.423 Y-46.998
X-53.434 Y-47.002
X-53.446 Y-47.005
X-53.457 Y-47.008
X-53.468 Y-47.009
X-53.48 Y-47.01
X-53.491 Y-47.009
X-53.503 Y-47.008
X-53.514 Y-47.006
X-53.526 Y-47.003
X-53.537 Y-47
X-53.548 Y-46.995
X-53.56 Y-46.989
X-53.562 Y-46.987
X-53.573 Y-46.98
X-53.584 Y-46.972
X-53.59 Y-46.967
X-53.596 Y-46.961
X-53.605 Y-46.95
X-55.12 Y-45.162
X-55.157 Y-45.116
X-56.618 Y-43.27
X-56.637 Y-43.245
X-58.033 Y-41.353
X-58.05 Y-41.328
X-59.368 Y-39.411
X-59.399 Y-39.365
X-60.653 Y-37.403
X-60.68 Y-37.361
X-61.873 Y-35.349
X-61.899 Y-35.303
X-63.026 Y-33.249
X-63.05 Y-33.204
X-64.103 Y-31.123
X-64.112 Y-31.104
X-65.109 Y-28.959
X-65.129 Y-28.914
X-66.04 Y-26.768
X-66.058 Y-26.723
X-66.903 Y-24.532
X-66.919 Y-24.486
X-67.681 Y-22.296
X-67.696 Y-22.25
X-68.393 Y-20.006
X-68.404 Y-19.968
X-69.017 Y-17.732
X-69.029 Y-17.686
X-69.58 Y-15.379
X-69.584 Y-15.358
X-70.049 Y-13.076
X-70.058 Y-13.031
X-70.451 Y-10.703
X-70.457 Y-10.657
X-70.771 Y-8.329
X-70.775 Y-8.284
X-71.01 Y-5.956
X-71.013 Y-5.911
X-71.169 Y-3.583
X-71.171 Y-3.537
X-71.223 Y-1.981
X-71.249 Y-1.209
Y-1.164
Y1.164
Y1.209
X-71.171 Y3.537
X-71.169 Y3.583
X-71.013 Y5.911
X-71.01 Y5.956
X-70.775 Y8.284
X-70.771 Y8.329
X-70.457 Y10.657
X-70.451 Y10.703
X-70.058 Y13.031
X-70.049 Y13.076
X-69.584 Y15.358
X-69.58 Y15.379
X-69.029 Y17.686
X-69.017 Y17.732
X-68.404 Y19.968
X-68.393 Y20.006
X-67.696 Y22.25
X-67.681 Y22.296
X-66.919 Y24.486
X-66.903 Y24.532
X-66.058 Y26.723
X-66.04 Y26.768
X-65.129 Y28.914
X-65.109 Y28.959
X-64.112 Y31.104
X-64.103 Y31.123
X-63.05 Y33.204
X-63.026 Y33.249
X-61.899 Y35.303
X-61.873 Y35.349
X-60.68 Y37.361
X-60.653 Y37.403
X-59.399 Y39.365
X-59.368 Y39.411
X-58.05 Y41.328
X-58.033 Y41.353
X-56.637 Y43.245
X-56.618 Y43.27
X-55.157 Y45.117
X-55.12 Y45.162
X-53.605 Y46.95
X-53.596 Y46.961
X-53.59 Y46.967
X-53.584 Y46.972
X-53.573 Y46.98
X-53.562 Y46.987
X-53.56 Y46.989
X-53.548 Y46.995
X-53.537 Y47
X-53.526 Y47.003
X-53.514 Y47.006
X-53.503 Y47.008
X-53.491 Y47.009
X-53.48 Y47.01
X-53.468 Y47.009
X-53.457 Y47.008
X-53.446 Y47.005
X-53.434 Y47.002
X-53.423 Y46.998
X-53.412 Y46.993
X-53.4 Y46.987
X-53.389 Y46.98
X-53.383 Y46.976
X-53.377 Y46.971
X-53.348 Y46.942
X-52.959 Y46.548
X-52.955 Y46.545
X-52.51 Y46.196
X-52.507 Y46.194
X-52.019 Y45.902
X-52.017 Y45.901
X-51.496 Y45.673
X-51.492 Y45.671
X-50.944 Y45.509
X-50.379 Y45.418
X-50.365 Y45.417
X-49.809 Y45.398
X-49.806
X-49.238 Y45.45
X-49.235 Y45.451
X-48.681 Y45.574
X-48.676 Y45.575
X-48.14 Y45.767
X-48.137 Y45.769
X-47.629 Y46.026
X-47.159 Y46.346
X-47.155 Y46.348
X-46.727 Y46.725
X-46.724 Y46.729
X-46.348 Y47.155
X-46.346 Y47.159
X-46.026 Y47.629
X-45.769 Y48.137
X-45.767 Y48.14
X-45.575 Y48.676
X-45.574 Y48.681
X-45.451 Y49.235
X-45.45 Y49.238
X-45.398 Y49.806
Y49.809
X-45.418 Y50.376
Y50.379
X-45.509 Y50.944
X-45.671 Y51.492
X-45.673 Y51.496
X-45.901 Y52.017
X-45.902 Y52.019
X-46.194 Y52.507
X-46.196 Y52.51
X-46.545 Y52.955
X-46.548 Y52.959
X-46.942 Y53.348
X-46.971 Y53.377
X-46.976 Y53.383
X-46.98 Y53.389
X-46.987 Y53.4
X-46.993 Y53.412
X-46.998 Y53.423
X-47.002 Y53.434
X-47.005 Y53.446
X-47.008 Y53.457
X-47.009 Y53.468
X-47.01 Y53.48
X-47.009 Y53.491
X-47.008 Y53.503
X-47.006 Y53.514
X-47.003 Y53.526
X-47 Y53.537
X-46.995 Y53.548
X-46.989 Y53.56
X-46.987 Y53.562
X-46.98 Y53.573
X-46.972 Y53.584
X-46.967 Y53.59
X-46.961 Y53.596
X-46.95 Y53.605
X-45.162 Y55.12
X-45.116 Y55.157
X-43.27 Y56.618
X-43.245 Y56.637
X-41.353 Y58.033
X-41.328 Y58.05
X-39.411 Y59.368
X-39.365 Y59.399
X-37.403 Y60.653
X-37.361 Y60.68
X-35.349 Y61.873
X-35.303 Y61.899
X-33.249 Y63.026
X-33.204 Y63.05
X-31.123 Y64.103
X-31.104 Y64.112
X-28.959 Y65.109
X-28.914 Y65.129
X-26.768 Y66.04
X-26.723 Y66.058
X-24.532 Y66.903
X-24.486 Y66.919
X-22.296 Y67.681
X-22.25 Y67.696
X-20.006 Y68.393
X-19.968 Y68.404
X-17.732 Y69.017
X-17.686 Y69.029
X-15.379 Y69.58
X-15.358 Y69.584
X-13.076 Y70.049
X-13.031 Y70.058
X-10.703 Y70.451
X-10.657 Y70.457
X-8.329 Y70.771
X-8.284 Y70.775
X-5.956 Y71.01
X-5.911 Y71.013
X-3.583 Y71.169
X-3.537 Y71.171
X-1.209 Y71.249
X-1.164
X1.164
X1.209
X3.537 Y71.171
X3.583 Y71.169
X5.911 Y71.013
X5.956 Y71.01
X8.284 Y70.775
X8.329 Y70.771
X10.657 Y70.457
X10.703 Y70.451
X13.031 Y70.058
X13.076 Y70.049
X15.358 Y69.584
X15.379 Y69.58
X17.686 Y69.029
X17.732 Y69.017
X19.968 Y68.404
X20.006 Y68.393
X22.25 Y67.696
X22.296 Y67.681
X24.486 Y66.919
X24.532 Y66.903
X26.723 Y66.058
X26.768 Y66.04
X28.914 Y65.129
X28.959 Y65.109
X31.104 Y64.112
X31.123 Y64.103
X33.204 Y63.05
X33.249 Y63.026
X35.303 Y61.899
X35.349 Y61.873
X37.361 Y60.68
X37.403 Y60.653
X39.365 Y59.399
X39.411 Y59.368
X41.328 Y58.05
X41.353 Y58.033
X43.245 Y56.637
X43.27 Y56.618
X45.117 Y55.157
X45.162 Y55.12
X46.95 Y53.605
X46.961 Y53.596
X46.967 Y53.59
X46.972 Y53.584
X46.98 Y53.573
X46.987 Y53.562
X46.989 Y53.56
X46.995 Y53.548
X47 Y53.537
X47.003 Y53.526
X47.006 Y53.514
X47.008 Y53.503
X47.009 Y53.491
X47.01 Y53.48
X47.009 Y53.468
X47.008 Y53.457
X47.005 Y53.446
X47.002 Y53.434
X46.998 Y53.423
X46.993 Y53.412
X46.987 Y53.4
X46.98 Y53.389
X46.976 Y53.383
X46.971 Y53.377
X46.942 Y53.348
X46.548 Y52.959
X46.545 Y52.955
X46.196 Y52.51
X46.194 Y52.507
X45.902 Y52.019
X45.901 Y52.017
X45.673 Y51.496
X45.671 Y51.492
X45.509 Y50.944
X45.418 Y50.379
X45.417 Y50.365
X45.398 Y49.809
Y49.806
X45.45 Y49.238
X45.451 Y49.235
X45.574 Y48.681
X45.575 Y48.676
X45.767 Y48.14
X45.769 Y48.137
X46.026 Y47.629
X46.346 Y47.159
X46.348 Y47.155
X46.724 Y46.729
X46.727 Y46.725
X47.155 Y46.348
X47.159 Y46.346
X47.629 Y46.026
X48.137 Y45.769
X48.14 Y45.767
X48.676 Y45.575
X48.681 Y45.574
X49.235 Y45.451
X49.238 Y45.45
X49.806 Y45.398
X49.809
X50.376 Y45.418
X50.379
X50.944 Y45.509
X51.492 Y45.671
X51.496 Y45.673
X52.017 Y45.901
X52.019 Y45.902
X52.507 Y46.194
X52.51 Y46.196
X52.955 Y46.545
X52.959 Y46.548
X53.348 Y46.942
X53.377 Y46.971
X53.383 Y46.976
X53.389 Y46.98
X53.4 Y46.987
X53.412 Y46.993
X53.423 Y46.998
X53.434 Y47.002
X53.446 Y47.005
X53.457 Y47.008
X53.468 Y47.009
X53.48 Y47.01
X53.491 Y47.009
X53.503 Y47.008
X53.514 Y47.006
X53.526 Y47.003
X53.537 Y47
X53.548 Y46.995
X53.56 Y46.989
X53.562 Y46.987
X53.573 Y46.98
X53.584 Y46.972
X53.59 Y46.967
X53.596 Y46.961
X53.605 Y46.95
X55.12 Y45.162
X55.157 Y45.116
X56.618 Y43.27
X56.637 Y43.245
X58.033 Y41.353
X58.05 Y41.328
X59.368 Y39.411
X59.399 Y39.365
X60.653 Y37.403
X60.68 Y37.361
X61.873 Y35.349
X61.899 Y35.303
X63.026 Y33.249
X63.05 Y33.204
X64.103 Y31.123
X64.112 Y31.104
X65.109 Y28.959
X65.129 Y28.914
X66.04 Y26.768
X66.058 Y26.723
X66.903 Y24.532
X66.919 Y24.486
X67.681 Y22.296
X67.696 Y22.25
X68.393 Y20.006
X68.404 Y19.968
X69.017 Y17.732
X69.029 Y17.686
X69.58 Y15.379
X69.584 Y15.358
X70.049 Y13.076
X70.058 Y13.031
X70.451 Y10.703
X70.457 Y10.657
X70.771 Y8.329
X70.775 Y8.284
X71.01 Y5.956
X71.013 Y5.911
X71.169 Y3.583
X71.171 Y3.537
X71.249 Y1.209
Y1.164
Y-0.771
Y-1.164
Y-1.209
X71.171 Y-3.537
X71.169 Y-3.583
X71.095 Y-4.689
X71.013 Y-5.911
X71.01 Y-5.956
X70.775 Y-8.284
X70.771 Y-8.329
X70.457 Y-10.657
X70.451 Y-10.703
X70.058 Y-13.031
X70.049 Y-13.076
X69.584 Y-15.358
X69.58 Y-15.379
X69.029 Y-17.686
X69.017 Y-17.732
X68.404 Y-19.968
X68.393 Y-20.006
X67.696 Y-22.25
X67.681 Y-22.296
X66.919 Y-24.486
X66.903 Y-24.532
X66.058 Y-26.723
X66.04 Y-26.768
X65.129 Y-28.914
X65.109 Y-28.959
X64.112 Y-31.104
X64.103 Y-31.123
X63.05 Y-33.204
X63.026 Y-33.249
X61.899 Y-35.303
X61.873 Y-35.349
X60.68 Y-37.361
X60.653 Y-37.403
X59.399 Y-39.365
X59.368 Y-39.411
X58.05 Y-41.328
X58.033 Y-41.353
X56.637 Y-43.245
X56.618 Y-43.27
X55.157 Y-45.117
X55.12 Y-45.162
X53.605 Y-46.95
X53.596 Y-46.961
X53.59 Y-46.967
X53.584 Y-46.972
X53.573 Y-46.98
X53.562 Y-46.987
X53.56 Y-46.989
X53.548 Y-46.995
X53.537 Y-47
X53.526 Y-47.003
X53.514 Y-47.006
X53.503 Y-47.008
X53.491 Y-47.009
X53.48 Y-47.01
X53.468 Y-47.009
X53.457 Y-47.008
X53.446 Y-47.005
X53.434 Y-47.002
X53.423 Y-46.998
X53.412 Y-46.993
X53.4 Y-46.987
X53.389 Y-46.98
X53.383 Y-46.976
X53.377 Y-46.971
X53.348 Y-46.942
X52.959 Y-46.548
X52.955 Y-46.545
X52.51 Y-46.196
X52.507 Y-46.194
X52.019 Y-45.902
X52.017 Y-45.901
X51.496 Y-45.673
X51.492 Y-45.671
X50.944 Y-45.509
X50.379 Y-45.418
X50.365 Y-45.417
X49.809 Y-45.398
X49.806
X49.238 Y-45.45
X49.235 Y-45.451
X48.681 Y-45.574
X48.676 Y-45.575
X48.14 Y-45.767
X48.137 Y-45.769
X47.629 Y-46.026
X47.159 Y-46.346
X47.155 Y-46.348
X46.727 Y-46.725
X46.724 Y-46.729
X46.348 Y-47.155
X46.346 Y-47.159
X46.026 Y-47.629
X45.769 Y-48.137
X45.767 Y-48.14
X45.575 Y-48.676
X45.574 Y-48.681
X45.451 Y-49.235
X45.45 Y-49.238
X45.398 Y-49.806
Y-49.809
X45.418 Y-50.376
Y-50.379
X45.509 Y-50.944
X45.671 Y-51.492
X45.673 Y-51.496
X45.901 Y-52.017
X45.902 Y-52.019
X46.194 Y-52.507
X46.196 Y-52.51
X46.545 Y-52.955
X46.548 Y-52.959
X46.942 Y-53.348
X46.971 Y-53.377
X46.976 Y-53.383
X46.98 Y-53.389
X46.987 Y-53.4
X46.993 Y-53.412
X46.998 Y-53.423
X47.002 Y-53.434
X47.005 Y-53.446
X47.008 Y-53.457
X47.009 Y-53.468
X47.01 Y-53.48
X47.009 Y-53.491
X47.008 Y-53.503
X47.006 Y-53.514
X47.003 Y-53.526
X47 Y-53.537
X46.995 Y-53.548
X46.989 Y-53.56
X46.987 Y-53.562
X46.98 Y-53.573
X46.972 Y-53.584
X46.967 Y-53.59
X46.961 Y-53.596
X46.95 Y-53.605
X45.162 Y-55.12
X45.116 Y-55.157
X43.27 Y-56.618
X43.245 Y-56.637
X41.353 Y-58.033
X41.328 Y-58.05
X39.411 Y-59.368
X39.365 Y-59.399
X37.403 Y-60.653
X37.361 Y-60.68
X35.349 Y-61.873
X35.303 Y-61.899
X33.249 Y-63.026
X33.204 Y-63.05
X31.123 Y-64.103
X31.104 Y-64.112
X28.959 Y-65.109
X28.914 Y-65.129
X26.768 Y-66.04
X26.723 Y-66.058
X24.532 Y-66.903
X24.486 Y-66.919
X22.296 Y-67.681
X22.25 Y-67.696
X20.006 Y-68.393
X19.968 Y-68.404
X17.732 Y-69.017
X17.686 Y-69.029
X15.379 Y-69.58
X15.358 Y-69.584
X13.076 Y-70.049
X13.031 Y-70.058
X10.703 Y-70.451
X10.657 Y-70.457
X8.329 Y-70.771
X8.284 Y-70.775
X5.956 Y-71.01
X5.911 Y-71.013
X3.583 Y-71.169
X3.537 Y-71.171
X1.209 Y-71.249
X1.164
X-1.164
X-1.209
X-3.537 Y-71.171
X-3.583 Y-71.169
X-5.911 Y-71.013
X-5.956 Y-71.01
X-8.284 Y-70.775
X-8.329 Y-70.771
X-10.657 Y-70.457
X-10.703 Y-70.451
X-13.031 Y-70.058
X-13.076 Y-70.049
X-15.358 Y-69.584
X-15.379 Y-69.58
X-17.686 Y-69.029
X-17.732 Y-69.017
X-19.968 Y-68.404
X-20.006 Y-68.393
X-22.25 Y-67.696
X-22.296 Y-67.681
X-24.486 Y-66.919
X-24.532 Y-66.903
X-26.723 Y-66.058
X-26.768 Y-66.04
X-28.914 Y-65.129
X-28.959 Y-65.109
X-31.104 Y-64.112
X-31.123 Y-64.103
X-33.204 Y-63.05
X-33.249 Y-63.026
X-35.303 Y-61.899
X-35.349 Y-61.873
X-37.361 Y-60.68
X-37.403 Y-60.653
X-39.365 Y-59.399
X-39.411 Y-59.368
X-41.328 Y-58.05
X-41.353 Y-58.033
X-43.245 Y-56.637
X-43.27 Y-56.618
X-45.117 Y-55.157
X-45.162 Y-55.12
X-46.95 Y-53.605
X-46.961 Y-53.596
X-46.967 Y-53.59
X-46.972 Y-53.584
X-46.98 Y-53.573
X-46.987 Y-53.562
X-46.989 Y-53.56
X-46.995 Y-53.548
X-47 Y-53.537
X-47.003 Y-53.526
X-47.006 Y-53.514
X-47.008 Y-53.503
X-47.009 Y-53.491
X-47.01 Y-53.48
X-47.009 Y-53.468
X-47.008 Y-53.457
X-47.005 Y-53.446
X-47.002 Y-53.434
X-46.998 Y-53.423
X-46.993 Y-53.412
X-46.987 Y-53.4
X-46.98 Y-53.389
X-46.976 Y-53.383
X-46.971 Y-53.377
X-46.942 Y-53.348
X-46.548 Y-52.959
X-46.545 Y-52.955
X-46.196 Y-52.51
X-46.194 Y-52.507
X-45.902 Y-52.019
X-45.901 Y-52.017
X-45.673 Y-51.496
X-45.671 Y-51.492
X-45.509 Y-50.944
X-45.418 Y-50.379
X-45.417 Y-50.365
X-45.398 Y-49.809
Y-49.806
X-45.45 Y-49.238
X-45.451 Y-49.235
X-45.574 Y-48.681
X-45.575 Y-48.676
X-45.767 Y-48.14
X-45.769 Y-48.137
X-46.026 Y-47.629
X-46.346 Y-47.159
X-46.348 Y-47.155
X-46.724 Y-46.729
X-46.727 Y-46.725
X-47.155 Y-46.348
X-47.159 Y-46.346
X-47.629 Y-46.026
X-48.137 Y-45.769
X-48.14 Y-45.767
X-48.676 Y-45.575
X-48.681 Y-45.574
X-49.235 Y-45.451
X-49.238 Y-45.45
X-49.806 Y-45.398
X-49.809
X-50.376 Y-45.418
X-50.379
X-50.944 Y-45.509
X-51.492 Y-45.671
X-51.496 Y-45.673
X-52.017 Y-45.901
X-52.019 Y-45.902
X-52.507 Y-46.194
X-52.51 Y-46.196
X-52.955 Y-46.545
X-52.959 Y-46.548
X-53.348 Y-46.942
X-53.377 Y-46.971
X-53.383 Y-46.976
X-53.389 Y-46.98
X-53.4 Y-46.987
X-53.412 Y-46.993
X-53.423 Y-46.998
X-53.434 Y-47.002
X-53.446 Y-47.005
X-53.457 Y-47.008
X-53.468 Y-47.009
X-53.48 Y-47.01
X-53.491 Y-47.009
X-53.503 Y-47.008
X-53.514 Y-47.006
X-53.526 Y-47.003
X-53.537 Y-47
X-53.548 Y-46.995
X-53.56 Y-46.989
X-53.562 Y-46.987
X-53.573 Y-46.98
X-53.584 Y-46.972
X-53.59 Y-46.967
X-53.596 Y-46.961
X-53.605 Y-46.95
X-55.12 Y-45.162
X-55.157 Y-45.116
X-56.618 Y-43.27
X-56.637 Y-43.245
X-58.033 Y-41.353
X-58.05 Y-41.328
X-59.368 Y-39.411
X-59.399 Y-39.365
X-60.653 Y-37.403
X-60.68 Y-37.361
X-61.873 Y-35.349
X-61.899 Y-35.303
X-63.026 Y-33.249
X-63.05 Y-33.204
X-64.103 Y-31.123
X-64.112 Y-31.104
X-65.109 Y-28.959
X-65.129 Y-28.914
X-66.04 Y-26.768
X-66.058 Y-26.723
X-66.903 Y-24.532
X-66.919 Y-24.486
X-67.681 Y-22.296
X-67.696 Y-22.25
X-68.393 Y-20.006
X-68.404 Y-19.968
X-69.017 Y-17.732
X-69.029 Y-17.686
X-69.58 Y-15.379
X-69.584 Y-15.358
X-70.049 Y-13.076
X-70.058 Y-13.031
X-70.451 Y-10.703
X-70.457 Y-10.657
X-70.771 Y-8.329
X-70.775 Y-8.284
X-71.01 Y-5.956
X-71.013 Y-5.911
X-71.169 Y-3.583
X-71.171 Y-3.537
X-71.223 Y-1.981
X-71.249 Y-1.209
Y-1.164
Y1.164
Y1.209
X-71.171 Y3.537
X-71.169 Y3.583
X-71.013 Y5.911
X-71.01 Y5.956
X-70.775 Y8.284
X-70.771 Y8.329
X-70.457 Y10.657
X-70.451 Y10.703
X-70.058 Y13.031
X-70.049 Y13.076
X-69.584 Y15.358
X-69.58 Y15.379
X-69.029 Y17.686
X-69.017 Y17.732
X-68.404 Y19.968
X-68.393 Y20.006
X-67.696 Y22.25
X-67.681 Y22.296
X-66.919 Y24.486
X-66.903 Y24.532
X-66.058 Y26.723
X-66.04 Y26.768
X-65.129 Y28.914
X-65.109 Y28.959
X-64.112 Y31.104
X-64.103 Y31.123
X-63.05 Y33.204
X-63.026 Y33.249
X-61.899 Y35.303
X-61.873 Y35.349
X-60.68 Y37.361
X-60.653 Y37.403
X-59.399 Y39.365
X-59.368 Y39.411
X-58.05 Y41.328
X-58.033 Y41.353
X-56.637 Y43.245
X-56.618 Y43.27
X-55.157 Y45.117
X-55.12 Y45.162
X-53.605 Y46.95
X-53.596 Y46.961
X-53.59 Y46.967
X-53.584 Y46.972
X-53.573 Y46.98
X-53.562 Y46.987
X-53.56 Y46.989
X-53.548 Y46.995
X-53.537 Y47
X-53.526 Y47.003
X-53.514 Y47.006
X-53.503 Y47.008
X-53.491 Y47.009
X-53.48 Y47.01
X-53.468 Y47.009
X-53.457 Y47.008
X-53.446 Y47.005
X-53.434 Y47.002
X-53.423 Y46.998
X-53.412 Y46.993
X-53.4 Y46.987
X-53.389 Y46.98
X-53.383 Y46.976
X-53.377 Y46.971
X-53.348 Y46.942
X-52.959 Y46.548
X-52.955 Y46.545
X-52.51 Y46.196
X-52.507 Y46.194
X-52.019 Y45.902
X-52.017 Y45.901
X-51.496 Y45.673
X-51.492 Y45.671
X-50.944 Y45.509
X-50.379 Y45.418
X-50.365 Y45.417
X-49.809 Y45.398
X-49.806
X-49.238 Y45.45
X-49.235 Y45.451
X-48.681 Y45.574
X-48.676 Y45.575
X-48.14 Y45.767
X-48.137 Y45.769
X-47.629 Y46.026
X-47.159 Y46.346
X-47.155 Y46.348
X-46.727 Y46.725
X-46.724 Y46.729
X-46.348 Y47.155
X-46.346 Y47.159
X-46.026 Y47.629
X-45.769 Y48.137
X-45.767 Y48.14
X-45.575 Y48.676
X-45.574 Y48.681
X-45.451 Y49.235
X-45.45 Y49.238
X-45.398 Y49.806
Y49.809
X-45.418 Y50.376
Y50.379
X-45.509 Y50.944
X-45.671 Y51.492
X-45.673 Y51.496
X-45.901 Y52.017
X-45.902 Y52.019
X-46.194 Y52.507
X-46.196 Y52.51
X-46.545 Y52.955
X-46.548 Y52.959
X-46.942 Y53.348
X-46.971 Y53.377
X-46.976 Y53.383
X-46.98 Y53.389
X-46.987 Y53.4
X-46.993 Y53.412
X-46.998 Y53.423
X-47.002 Y53.434
X-47.005 Y53.446
X-47.008 Y53.457
X-47.009 Y53.468
X-47.01 Y53.48
X-47.009 Y53.491
X-47.008 Y53.503
X-47.006 Y53.514
X-47.003 Y53.526
X-47 Y53.537
X-46.995 Y53.548
X-46.989 Y53.56
X-46.987 Y53.562
X-46.98 Y53.573
X-46.972 Y53.584
X-46.967 Y53.59
X-46.961 Y53.596
X-46.95 Y53.605
X-45.162 Y55.12
X-45.116 Y55.157
X-43.27 Y56.618
X-43.245 Y56.637
X-41.353 Y58.033
X-41.328 Y58.05
X-39.411 Y59.368
X-39.365 Y59.399
X-37.403 Y60.653
X-37.361 Y60.68
X-35.349 Y61.873
X-35.303 Y61.899
X-33.249 Y63.026
X-33.204 Y63.05
X-31.123 Y64.103
X-31.104 Y64.112
X-28.959 Y65.109
X-28.914 Y65.129
X-26.768 Y66.04
X-26.723 Y66.058
X-24.532 Y66.903
X-24.486 Y66.919
X-22.296 Y67.681
X-22.25 Y67.696
X-20.006 Y68.393
X-19.968 Y68.404
X-17.732 Y69.017
X-17.686 Y69.029
X-15.379 Y69.58
X-15.358 Y69.584
X-13.076 Y70.049
X-13.031 Y70.058
X-10.703 Y70.451
X-10.657 Y70.457
X-8.329 Y70.771
X-8.284 Y70.775
X-5.956 Y71.01
X-5.911 Y71.013
X-3.583 Y71.169
X-3.537 Y71.171
X-1.209 Y71.249
X-1.164
X1.164
X1.209
X3.537 Y71.171
X3.583 Y71.169
X5.911 Y71.013
X5.956 Y71.01
X8.284 Y70.775
X8.329 Y70.771
X10.657 Y70.457
X10.703 Y70.451
X13.031 Y70.058
X13.076 Y70.049
X15.358 Y69.584
X15.379 Y69.58
X17.686 Y69.029
X17.732 Y69.017
X19.968 Y68.404
X20.006 Y68.393
X22.25 Y67.696
X22.296 Y67.681
X24.486 Y66.919
X24.532 Y66.903
X26.723 Y66.058
X26.768 Y66.04
X28.914 Y65.129
X28.959 Y65.109
X31.104 Y64.112
X31.123 Y64.103
X33.204 Y63.05
X33.249 Y63.026
X35.303 Y61.899
X35.349 Y61.873
X37.361 Y60.68
X37.403 Y60.653
X39.365 Y59.399
X39.411 Y59.368
X41.328 Y58.05
X41.353 Y58.033
X43.245 Y56.637
X43.27 Y56.618
X45.117 Y55.157
X45.162 Y55.12
X46.95 Y53.605
X46.961 Y53.596
X46.967 Y53.59
X46.972 Y53.584
X46.98 Y53.573
X46.987 Y53.562
X46.989 Y53.56
X46.995 Y53.548
X47 Y53.537
X47.003 Y53.526
X47.006 Y53.514
X47.008 Y53.503
X47.009 Y53.491
X47.01 Y53.48
X47.009 Y53.468
X47.008 Y53.457
X47.005 Y53.446
X47.002 Y53.434
X46.998 Y53.423
X46.993 Y53.412
X46.987 Y53.4
X46.98 Y53.389
X46.976 Y53.383
X46.971 Y53.377
X46.942 Y53.348
X46.548 Y52.959
X46.545 Y52.955
X46.196 Y52.51
X46.194 Y52.507
X45.902 Y52.019
X45.901 Y52.017
X45.673 Y51.496
X45.671 Y51.492
X45.509 Y50.944
X45.418 Y50.379
X45.417 Y50.365
X45.398 Y49.809
Y49.806
X45.45 Y49.238
X45.451 Y49.235
X45.574 Y48.681
X45.575 Y48.676
X45.767 Y48.14
X45.769 Y48.137
X46.026 Y47.629
X46.346 Y47.159
X46.348 Y47.155
X46.724 Y46.729
X46.727 Y46.725
X47.155 Y46.348
X47.159 Y46.346
X47.629 Y46.026
X48.137 Y45.769
X48.14 Y45.767
X48.676 Y45.575
X48.681 Y45.574
X49.235 Y45.451
X49.238 Y45.45
X49.806 Y45.398
X49.809
X50.376 Y45.418
X50.379
X50.944 Y45.509
X51.492 Y45.671
X51.496 Y45.673
X52.017 Y45.901
X52.019 Y45.902
X52.507 Y46.194
X52.51 Y46.196
X52.955 Y46.545
X52.959 Y46.548
X53.348 Y46.942
X53.377 Y46.971
X53.383 Y46.976
X53.389 Y46.98
X53.4 Y46.987
X53.412 Y46.993
X53.423 Y46.998
X53.434 Y47.002
X53.446 Y47.005
X53.457 Y47.008
X53.468 Y47.009
X53.48 Y47.01
X53.491 Y47.009
X53.503 Y47.008
X53.514 Y47.006
X53.526 Y47.003
X53.537 Y47
X53.548 Y46.995
X53.56 Y46.989
X53.562 Y46.987
X53.573 Y46.98
X53.584 Y46.972
X53.59 Y46.967
X53.596 Y46.961
X53.605 Y46.95
X55.12 Y45.162
X55.157 Y45.116
X56.618 Y43.27
X56.637 Y43.245
X58.033 Y41.353
X58.05 Y41.328
X59.368 Y39.411
X59.399 Y39.365
X60.653 Y37.403
X60.68 Y37.361
X61.873 Y35.349
X61.899 Y35.303
X63.026 Y33.249
X63.05 Y33.204
X64.103 Y31.123
X64.112 Y31.104
X65.109 Y28.959
X65.129 Y28.914
X66.04 Y26.768
X66.058 Y26.723
X66.903 Y24.532
X66.919 Y24.486
X67.681 Y22.296
X67.696 Y22.25
X68.393 Y20.006
X68.404 Y19.968
X69.017 Y17.732
X69.029 Y17.686
X69.58 Y15.379
X69.584 Y15.358
X70.049 Y13.076
X70.058 Y13.031
X70.451 Y10.703
X70.457 Y10.657
X70.771 Y8.329
X70.775 Y8.284
X71.01 Y5.956
X71.013 Y5.911
X71.169 Y3.583
X71.171 Y3.537
X71.249 Y1.209
Y1.164
Y-1.164
Y-1.209
X71.171 Y-3.537
X71.169 Y-3.583
X71.095 Y-4.689
X71.093 Y-4.713
X71.092 Y-4.738
X71.088 Y-4.787
X71.085 Y-4.837
X71.082 Y-4.886 Z-0.301
X71.079 Y-4.936
X71.076 Y-4.985 Z-0.302
X71.073 Y-5.034
X71.069 Y-5.084 Z-0.303
X71.066 Y-5.133 Z-0.304
X71.063 Y-5.183 Z-0.305
X71.06 Y-5.232 Z-0.306
X71.057 Y-5.281 Z-0.307
X71.055 Y-5.331 Z-0.308
X71.052 Y-5.38 Z-0.309
X71.049 Y-5.43 Z-0.31
X71.046 Y-5.479 Z-0.311
X71.043 Y-5.528 Z-0.312
X71.04 Y-5.578 Z-0.314
X71.037 Y-5.627 Z-0.315
X71.035 Y-5.677 Z-0.317
X71.032 Y-5.726 Z-0.318
X71.029 Y-5.776 Z-0.32
X71.026 Y-5.825 Z-0.321
X71.024 Y-5.874 Z-0.323
X71.021 Y-5.924 Z-0.325
X71.018 Y-5.972 Z-0.326
X70.896 Y-7.353 Z-0.375
X70.892 Y-7.402 Z-0.377
X70.888 Y-7.452 Z-0.378
X70.883 Y-7.501 Z-0.38
X70.879 Y-7.55 Z-0.381
X70.875 Y-7.6 Z-0.383
X70.87 Y-7.649 Z-0.384
X70.866 Y-7.698 Z-0.386
X70.861 Y-7.748 Z-0.387
X70.857 Y-7.797 Z-0.389
X70.852 Y-7.846 Z-0.39
X70.848 Y-7.895 Z-0.391
X70.843 Y-7.945 Z-0.392
X70.839 Y-7.994 Z-0.393
X70.834 Y-8.043 Z-0.394
X70.829 Y-8.093 Z-0.395
X70.825 Y-8.142 Z-0.396
X70.82 Y-8.191 Z-0.397
X70.815 Y-8.24 Z-0.398
X70.811 Y-8.29
X70.806 Y-8.339 Z-0.399
X70.799 Y-8.388
X70.793 Y-8.437
X70.786 Y-8.486 Z-0.4
X70.78 Y-8.535
X70.772 Y-8.595
X70.493 Y-10.668
X70.488 Y-10.703
X70.094 Y-13.031
X70.086 Y-13.076
X69.621 Y-15.358
X69.611 Y-15.404
X69.067 Y-17.686
X69.055 Y-17.732
X68.439 Y-19.979
X68.429 Y-20.014
X67.734 Y-22.25
X67.72 Y-22.296
X66.942 Y-24.532
X66.933 Y-24.557
X66.097 Y-26.723
X66.079 Y-26.768
X65.153 Y-28.952
X65.149 Y-28.959
X64.148 Y-31.113
X64.13 Y-31.15
X63.091 Y-33.204
X63.068 Y-33.249
X63.053 Y-33.276
X61.941 Y-35.303
X61.915 Y-35.349
X60.724 Y-37.357
X60.697 Y-37.403
X59.442 Y-39.365
X59.412 Y-39.411
X58.078 Y-41.351
X58.063 Y-41.374
X56.663 Y-43.27
X56.648 Y-43.291
X55.203 Y-45.118
X55.168 Y-45.162
X53.651 Y-46.953
X53.621 Y-46.987
X53.613 Y-46.995
X53.605 Y-47.002
X53.594 Y-47.01
X53.583 Y-47.018
X53.571 Y-47.024
X53.56 Y-47.03
X53.551 Y-47.033
X53.542 Y-47.036
X53.533 Y-47.039
X53.523 Y-47.041
X53.514 Y-47.043
X53.503 Y-47.045
X53.491 Y-47.046
X53.48
X53.468
X53.457 Y-47.044
X53.446 Y-47.043
X53.434 Y-47.04
X53.423 Y-47.037
X53.412 Y-47.033
X53.403 Y-47.03
X53.394 Y-47.026
X53.386 Y-47.021
X53.377 Y-47.016
X53.368 Y-47.01
X53.36 Y-47.003
X53.351 Y-46.996
X53.342 Y-46.987
X52.936 Y-46.577
X52.932 Y-46.573
X52.488 Y-46.225
X52.002 Y-45.934
X51.999 Y-45.933
X51.482 Y-45.706
X51.478 Y-45.705
X50.938 Y-45.546
X50.935 Y-45.545
X50.376 Y-45.454
X50.373
X49.81 Y-45.435
X49.807
X49.244 Y-45.486
X49.241 Y-45.487
X48.69 Y-45.609
X48.688 Y-45.61
X48.156 Y-45.8
X48.154 Y-45.801
X47.649 Y-46.057
X47.646 Y-46.059
X47.179 Y-46.376
X47.176 Y-46.379
X46.752 Y-46.752
X46.749 Y-46.755
X46.379 Y-47.176
X46.376 Y-47.179
X46.059 Y-47.646
X46.057 Y-47.649
X45.801 Y-48.154
X45.8 Y-48.156
X45.61 Y-48.688
X45.609 Y-48.69
X45.487 Y-49.241
X45.486 Y-49.244
X45.435 Y-49.807
Y-49.81
X45.454 Y-50.373
Y-50.376
X45.545 Y-50.935
X45.546 Y-50.938
X45.705 Y-51.478
X45.706 Y-51.482
X45.933 Y-51.999
X45.934 Y-52.002
X46.225 Y-52.488
X46.573 Y-52.932
X46.577 Y-52.936
X46.987 Y-53.342
X46.996 Y-53.351
X47.003 Y-53.36
X47.01 Y-53.368
X47.016 Y-53.377
X47.021 Y-53.386
X47.026 Y-53.394
X47.03 Y-53.403
X47.033 Y-53.412
X47.037 Y-53.423
X47.04 Y-53.434
X47.043 Y-53.446
X47.044 Y-53.457
X47.046 Y-53.468
Y-53.48
Y-53.491
X47.045 Y-53.503
X47.043 Y-53.514
X47.041 Y-53.523
X47.039 Y-53.533
X47.036 Y-53.542
X47.033 Y-53.551
X47.03 Y-53.56
X47.024 Y-53.571
X47.018 Y-53.583
X47.01 Y-53.594
X47.002 Y-53.605
X46.995 Y-53.613
X46.987 Y-53.621
X46.953 Y-53.651
X45.162 Y-55.168
X45.116 Y-55.204
X43.291 Y-56.648
X43.27 Y-56.663
X41.374 Y-58.063
X41.351 Y-58.078
X39.411 Y-59.412
X39.365 Y-59.442
X37.403 Y-60.697
X37.357 Y-60.724
X35.349 Y-61.915
X35.303 Y-61.941
X33.276 Y-63.053
X33.249 Y-63.068
X33.188 Y-63.099
X31.15 Y-64.13
X31.113 Y-64.148
X28.959 Y-65.149
X28.952 Y-65.153
X26.768 Y-66.079
X26.723 Y-66.097
X24.557 Y-66.933
X24.532 Y-66.942
X22.296 Y-67.72
X22.25 Y-67.734
X20.014 Y-68.429
X19.979 Y-68.439
X17.732 Y-69.055
X17.686 Y-69.067
X15.404 Y-69.611
X15.358 Y-69.621
X13.076 Y-70.086
X13.031 Y-70.094
X10.703 Y-70.488
X10.668 Y-70.493
X8.375 Y-70.801
X8.329 Y-70.807
X8.147 Y-70.826
X6.002 Y-71.042
X5.956 Y-71.046
X5.819 Y-71.056
X3.583 Y-71.205
X3.537 Y-71.207
X1.209 Y-71.285
X1.164 Y-71.286
X-1.164
X-1.209 Y-71.285
X-3.537 Y-71.207
X-3.583 Y-71.205
X-5.911 Y-71.049
X-5.956 Y-71.046
X-6.002 Y-71.042
X-8.284 Y-70.812
X-8.329 Y-70.807
X-8.375 Y-70.801
X-10.668 Y-70.493
X-10.703 Y-70.488
X-13.031 Y-70.094
X-13.076 Y-70.086
X-15.358 Y-69.621
X-15.404 Y-69.611
X-17.686 Y-69.067
X-17.732 Y-69.055
X-19.979 Y-68.439
X-20.014 Y-68.429
X-22.25 Y-67.734
X-22.296 Y-67.72
X-24.532 Y-66.942
X-24.557 Y-66.933
X-26.723 Y-66.097
X-26.768 Y-66.079
X-28.952 Y-65.153
X-28.959 Y-65.149
X-31.113 Y-64.148
X-31.15 Y-64.13
X-33.204 Y-63.091
X-33.249 Y-63.068
X-33.276 Y-63.053
X-35.303 Y-61.941
X-35.349 Y-61.915
X-37.357 Y-60.724
X-37.403 Y-60.697
X-39.365 Y-59.442
X-39.411 Y-59.412
X-41.351 Y-58.078
X-41.374 Y-58.063
X-43.27 Y-56.663
X-43.291 Y-56.648
X-45.118 Y-55.203
X-45.162 Y-55.168
X-46.953 Y-53.651
X-46.987 Y-53.621
X-46.995 Y-53.613
X-47.002 Y-53.605
X-47.01 Y-53.594
X-47.018 Y-53.583
X-47.024 Y-53.571
X-47.03 Y-53.56
X-47.033 Y-53.551
X-47.036 Y-53.542
X-47.039 Y-53.533
X-47.041 Y-53.523
X-47.043 Y-53.514
X-47.045 Y-53.503
X-47.046 Y-53.491
Y-53.48
Y-53.468
X-47.044 Y-53.457
X-47.043 Y-53.446
X-47.04 Y-53.434
X-47.037 Y-53.423
X-47.033 Y-53.412
X-47.03 Y-53.403
X-47.026 Y-53.394
X-47.021 Y-53.386
X-47.016 Y-53.377
X-47.01 Y-53.368
X-47.003 Y-53.36
X-46.996 Y-53.351
X-46.987 Y-53.342
X-46.577 Y-52.936
X-46.573 Y-52.932
X-46.225 Y-52.488
X-45.934 Y-52.002
X-45.933 Y-51.999
X-45.706 Y-51.482
X-45.705 Y-51.478
X-45.546 Y-50.938
X-45.545 Y-50.935
X-45.454 Y-50.376
Y-50.373
X-45.435 Y-49.81
Y-49.807
X-45.486 Y-49.244
X-45.487 Y-49.241
X-45.609 Y-48.69
X-45.61 Y-48.688
X-45.8 Y-48.156
X-45.801 Y-48.154
X-46.057 Y-47.649
X-46.059 Y-47.646
X-46.376 Y-47.179
X-46.379 Y-47.176
X-46.749 Y-46.755
X-46.752 Y-46.752
X-47.176 Y-46.379
X-47.179 Y-46.376
X-47.646 Y-46.059
X-47.649 Y-46.057
X-48.154 Y-45.801
X-48.156 Y-45.8
X-48.688 Y-45.61
X-48.69 Y-45.609
X-49.241 Y-45.487
X-49.244 Y-45.486
X-49.807 Y-45.435
X-49.81
X-50.373 Y-45.454
X-50.376
X-50.935 Y-45.545
X-50.938 Y-45.546
X-51.478 Y-45.705
X-51.482 Y-45.706
X-51.999 Y-45.933
X-52.002 Y-45.934
X-52.488 Y-46.225
X-52.932 Y-46.573
X-52.936 Y-46.577
X-53.342 Y-46.987
X-53.351 Y-46.996
X-53.36 Y-47.003
X-53.368 Y-47.01
X-53.377 Y-47.016
X-53.386 Y-47.021
X-53.394 Y-47.026
X-53.403 Y-47.03
X-53.412 Y-47.033
X-53.423 Y-47.037
X-53.434 Y-47.04
X-53.446 Y-47.043
X-53.457 Y-47.044
X-53.468 Y-47.046
X-53.48
X-53.491
X-53.503 Y-47.045
X-53.514 Y-47.043
X-53.523 Y-47.041
X-53.533 Y-47.039
X-53.542 Y-47.036
X-53.551 Y-47.033
X-53.56 Y-47.03
X-53.571 Y-47.024
X-53.583 Y-47.018
X-53.594 Y-47.01
X-53.605 Y-47.002
X-53.613 Y-46.995
X-53.621 Y-46.987
X-53.651 Y-46.953
X-55.168 Y-45.162
X-55.204 Y-45.116
X-56.648 Y-43.291
X-56.663 Y-43.27
X-58.063 Y-41.374
X-58.078 Y-41.351
X-59.412 Y-39.411
X-59.442 Y-39.365
X-60.697 Y-37.403
X-60.724 Y-37.357
X-61.915 Y-35.349
X-61.941 Y-35.303
X-63.053 Y-33.276
X-63.068 Y-33.249
X-63.099 Y-33.188
X-64.13 Y-31.15
X-64.148 Y-31.113
X-65.149 Y-28.959
X-65.153 Y-28.952
X-66.079 Y-26.768
X-66.097 Y-26.723
X-66.933 Y-24.557
X-66.942 Y-24.532
X-67.72 Y-22.296
X-67.734 Y-22.25
X-68.429 Y-20.014
X-68.439 Y-19.979
X-69.055 Y-17.732
X-69.067 Y-17.686
X-69.611 Y-15.404
X-69.621 Y-15.358
X-70.086 Y-13.076
X-70.094 Y-13.031
X-70.488 Y-10.703
X-70.493 Y-10.668
X-70.801 Y-8.375
X-70.807 Y-8.329
X-70.826 Y-8.147
X-71.042 Y-6.002
X-71.046 Y-5.956
X-71.056 Y-5.819
X-71.205 Y-3.583
X-71.207 Y-3.537
X-71.268 Y-1.706
X-71.285 Y-1.209
X-71.286 Y-1.164
Y1.164
X-71.285 Y1.209
X-71.207 Y3.537
X-71.205 Y3.583
X-71.049 Y5.911
X-71.046 Y5.956
X-71.042 Y6.002
X-70.812 Y8.284
X-70.807 Y8.329
X-70.801 Y8.375
X-70.493 Y10.668
X-70.488 Y10.703
X-70.094 Y13.031
X-70.086 Y13.076
X-69.621 Y15.358
X-69.611 Y15.404
X-69.067 Y17.686
X-69.055 Y17.732
X-68.439 Y19.979
X-68.429 Y20.014
X-67.734 Y22.25
X-67.72 Y22.296
X-66.942 Y24.532
X-66.933 Y24.557
X-66.097 Y26.723
X-66.079 Y26.768
X-65.153 Y28.952
X-65.149 Y28.959
X-64.148 Y31.113
X-64.13 Y31.15
X-63.091 Y33.204
X-63.068 Y33.249
X-63.053 Y33.276
X-61.941 Y35.303
X-61.915 Y35.349
X-60.724 Y37.357
X-60.697 Y37.403
X-59.442 Y39.365
X-59.412 Y39.411
X-58.078 Y41.351
X-58.063 Y41.374
X-56.663 Y43.27
X-56.648 Y43.291
X-55.203 Y45.118
X-55.168 Y45.162
X-53.651 Y46.953
X-53.621 Y46.987
X-53.613 Y46.995
X-53.605 Y47.002
X-53.594 Y47.01
X-53.583 Y47.018
X-53.571 Y47.024
X-53.56 Y47.03
X-53.551 Y47.033
X-53.542 Y47.036
X-53.533 Y47.039
X-53.523 Y47.041
X-53.514 Y47.043
X-53.503 Y47.045
X-53.491 Y47.046
X-53.48
X-53.468
X-53.457 Y47.044
X-53.446 Y47.043
X-53.434 Y47.04
X-53.423 Y47.037
X-53.412 Y47.033
X-53.403 Y47.03
X-53.394 Y47.026
X-53.386 Y47.021
X-53.377 Y47.016
X-53.368 Y47.01
X-53.36 Y47.003
X-53.351 Y46.996
X-53.342 Y46.987
X-52.936 Y46.577
X-52.932 Y46.573
X-52.488 Y46.225
X-52.002 Y45.934
X-51.999 Y45.933
X-51.482 Y45.706
X-51.478 Y45.705
X-50.938 Y45.546
X-50.935 Y45.545
X-50.376 Y45.454
X-50.373
X-49.81 Y45.435
X-49.807
X-49.244 Y45.486
X-49.241 Y45.487
X-48.69 Y45.609
X-48.688 Y45.61
X-48.156 Y45.8
X-48.154 Y45.801
X-47.649 Y46.057
X-47.646 Y46.059
X-47.179 Y46.376
X-47.176 Y46.379
X-46.752 Y46.752
X-46.749 Y46.755
X-46.379 Y47.176
X-46.376 Y47.179
X-46.059 Y47.646
X-46.057 Y47.649
X-45.801 Y48.154
X-45.8 Y48.156
X-45.61 Y48.688
X-45.609 Y48.69
X-45.487 Y49.241
X-45.486 Y49.244
X-45.435 Y49.807
Y49.81
X-45.454 Y50.373
Y50.376
X-45.545 Y50.935
X-45.546 Y50.938
X-45.705 Y51.478
X-45.706 Y51.482
X-45.933 Y51.999
X-45.934 Y52.002
X-46.225 Y52.488
X-46.573 Y52.932
X-46.577 Y52.936
X-46.987 Y53.342
X-46.996 Y53.351
X-47.003 Y53.36
X-47.01 Y53.368
X-47.016 Y53.377
X-47.021 Y53.386
X-47.026 Y53.394
X-47.03 Y53.403
X-47.033 Y53.412
X-47.037 Y53.423
X-47.04 Y53.434
X-47.043 Y53.446
X-47.044 Y53.457
X-47.046 Y53.468
Y53.48
Y53.491
X-47.045 Y53.503
X-47.043 Y53.514
X-47.041 Y53.523
X-47.039 Y53.533
X-47.036 Y53.542
X-47.033 Y53.551
X-47.03 Y53.56
X-47.024 Y53.571
X-47.018 Y53.583
X-47.01 Y53.594
X-47.002 Y53.605
X-46.995 Y53.613
X-46.987 Y53.621
X-46.953 Y53.651
X-45.162 Y55.168
X-45.116 Y55.204
X-43.291 Y56.648
X-43.27 Y56.663
X-41.374 Y58.063
X-41.351 Y58.078
X-39.411 Y59.412
X-39.365 Y59.442
X-37.403 Y60.697
X-37.357 Y60.724
X-35.349 Y61.915
X-35.303 Y61.941
X-33.276 Y63.053
X-33.249 Y63.068
X-33.188 Y63.099
X-31.15 Y64.13
X-31.113 Y64.148
X-28.959 Y65.149
X-28.952 Y65.153
X-26.768 Y66.079
X-26.723 Y66.097
X-24.557 Y66.933
X-24.532 Y66.942
X-22.296 Y67.72
X-22.25 Y67.734
X-20.014 Y68.429
X-19.979 Y68.439
X-17.732 Y69.055
X-17.686 Y69.067
X-15.404 Y69.611
X-15.358 Y69.621
X-13.076 Y70.086
X-13.031 Y70.094
X-10.703 Y70.488
X-10.668 Y70.493
X-8.375 Y70.801
X-8.329 Y70.807
X-8.147 Y70.826
X-6.002 Y71.042
X-5.956 Y71.046
X-5.819 Y71.056
X-3.583 Y71.205
X-3.537 Y71.207
X-1.209 Y71.285
X-1.164 Y71.286
X1.164
X1.209 Y71.285
X3.537 Y71.207
X3.583 Y71.205
X5.911 Y71.049
X5.956 Y71.046
X6.002 Y71.042
X8.284 Y70.812
X8.329 Y70.807
X8.375 Y70.801
X10.668 Y70.493
X10.703 Y70.488
X13.031 Y70.094
X13.076 Y70.086
X15.358 Y69.621
X15.404 Y69.611
X17.686 Y69.067
X17.732 Y69.055
X19.979 Y68.439
X20.014 Y68.429
X22.25 Y67.734
X22.296 Y67.72
X24.532 Y66.942
X24.557 Y66.933
X26.723 Y66.097
X26.768 Y66.079
X28.952 Y65.153
X28.959 Y65.149
X31.113 Y64.148
X31.15 Y64.13
X33.204 Y63.091
X33.249 Y63.068
X33.276 Y63.053
X35.303 Y61.941
X35.349 Y61.915
X37.357 Y60.724
X37.403 Y60.697
X39.365 Y59.442
X39.411 Y59.412
X41.351 Y58.078
X41.374 Y58.063
X43.27 Y56.663
X43.291 Y56.648
X45.118 Y55.203
X45.162 Y55.168
X46.953 Y53.651
X46.987 Y53.621
X46.995 Y53.613
X47.002 Y53.605
X47.01 Y53.594
X47.018 Y53.583
X47.024 Y53.571
X47.03 Y53.56
X47.033 Y53.551
X47.036 Y53.542
X47.039 Y53.533
X47.041 Y53.523
X47.043 Y53.514
X47.045 Y53.503
X47.046 Y53.491
Y53.48
Y53.468
X47.044 Y53.457
X47.043 Y53.446
X47.04 Y53.434
X47.037 Y53.423
X47.033 Y53.412
X47.03 Y53.403
X47.026 Y53.394
X47.021 Y53.386
X47.016 Y53.377
X47.01 Y53.368
X47.003 Y53.36
X46.996 Y53.351
X46.987 Y53.342
X46.577 Y52.936
X46.573 Y52.932
X46.225 Y52.488
X45.934 Y52.002
X45.933 Y51.999
X45.706 Y51.482
X45.705 Y51.478
X45.546 Y50.938
X45.545 Y50.935
X45.454 Y50.376
Y50.373
X45.435 Y49.81
Y49.807
X45.486 Y49.244
X45.487 Y49.241
X45.609 Y48.69
X45.61 Y48.688
X45.8 Y48.156
X45.801 Y48.154
X46.057 Y47.649
X46.059 Y47.646
X46.376 Y47.179
X46.379 Y47.176
X46.749 Y46.755
X46.752 Y46.752
X47.176 Y46.379
X47.179 Y46.376
X47.646 Y46.059
X47.649 Y46.057
X48.154 Y45.801
X48.156 Y45.8
X48.688 Y45.61
X48.69 Y45.609
X49.241 Y45.487
X49.244 Y45.486
X49.807 Y45.435
X49.81
X50.373 Y45.454
X50.376
X50.935 Y45.545
X50.938 Y45.546
X51.478 Y45.705
X51.482 Y45.706
X51.999 Y45.933
X52.002 Y45.934
X52.488 Y46.225
X52.932 Y46.573
X52.936 Y46.577
X53.342 Y46.987
X53.351 Y46.996
X53.36 Y47.003
X53.368 Y47.01
X53.377 Y47.016
X53.386 Y47.021
X53.394 Y47.026
X53.403 Y47.03
X53.412 Y47.033
X53.423 Y47.037
X53.434 Y47.04
X53.446 Y47.043
X53.457 Y47.044
X53.468 Y47.046
X53.48
X53.491
X53.503 Y47.045
X53.514 Y47.043
X53.523 Y47.041
X53.533 Y47.039
X53.542 Y47.036
X53.551 Y47.033
X53.56 Y47.03
X53.571 Y47.024
X53.583 Y47.018
X53.594 Y47.01
X53.605 Y47.002
X53.613 Y46.995
X53.621 Y46.987
X53.651 Y46.953
X55.168 Y45.162
X55.204 Y45.116
X56.648 Y43.291
X56.663 Y43.27
X58.063 Y41.374
X58.078 Y41.351
X59.412 Y39.411
X59.442 Y39.365
X60.697 Y37.403
X60.724 Y37.357
X61.915 Y35.349
X61.941 Y35.303
X63.053 Y33.276
X63.068 Y33.249
X63.099 Y33.188
X64.13 Y31.15
X64.148 Y31.113
X65.149 Y28.959
X65.153 Y28.952
X66.079 Y26.768
X66.097 Y26.723
X66.933 Y24.557
X66.942 Y24.532
X67.72 Y22.296
X67.734 Y22.25
X68.429 Y20.014
X68.439 Y19.979
X69.055 Y17.732
X69.067 Y17.686
X69.611 Y15.404
X69.621 Y15.358
X70.086 Y13.076
X70.094 Y13.031
X70.488 Y10.703
X70.493 Y10.668
X70.801 Y8.375
X70.807 Y8.329
X70.826 Y8.147
X71.042 Y6.002
X71.046 Y5.956
X71.056 Y5.819
X71.205 Y3.583
X71.207 Y3.537
X71.285 Y1.209
X71.286 Y1.164
Y-1.164
X71.285 Y-1.209
X71.207 Y-3.537
X71.205 Y-3.583
X71.049 Y-5.911
X71.046 Y-5.956
X71.042 Y-6.002
X70.812 Y-8.284
X70.807 Y-8.329
X70.801 Y-8.375
X70.772 Y-8.595
X70.493 Y-10.668
X70.488 Y-10.703
X70.094 Y-13.031
X70.086 Y-13.076
X69.621 Y-15.358
X69.611 Y-15.404
X69.067 Y-17.686
X69.055 Y-17.732
X68.439 Y-19.979
X68.429 Y-20.014
X67.734 Y-22.25
X67.72 Y-22.296
X66.942 Y-24.532
X66.933 Y-24.557
X66.097 Y-26.723
X66.079 Y-26.768
X65.153 Y-28.952
X65.149 Y-28.959
X64.148 Y-31.113
X64.13 Y-31.15
X63.091 Y-33.204
X63.068 Y-33.249
X63.053 Y-33.276
X61.941 Y-35.303
X61.915 Y-35.349
X60.724 Y-37.357
X60.697 Y-37.403
X59.442 Y-39.365
X59.412 Y-39.411
X58.078 Y-41.351
X58.063 Y-41.374
X56.663 Y-43.27
X56.648 Y-43.291
X55.203 Y-45.118
X55.168 Y-45.162
X53.651 Y-46.953
X53.621 Y-46.987
X53.613 Y-46.995
X53.605 Y-47.002
X53.594 Y-47.01
X53.583 Y-47.018
X53.571 Y-47.024
X53.56 Y-47.03
X53.551 Y-47.033
X53.542 Y-47.036
X53.533 Y-47.039
X53.523 Y-47.041
X53.514 Y-47.043
X53.503 Y-47.045
X53.491 Y-47.046
X53.48
X53.468
X53.457 Y-47.044
X53.446 Y-47.043
X53.434 Y-47.04
X53.423 Y-47.037
X53.412 Y-47.033
X53.403 Y-47.03
X53.394 Y-47.026
X53.386 Y-47.021
X53.377 Y-47.016
X53.368 Y-47.01
X53.36 Y-47.003
X53.351 Y-46.996
X53.342 Y-46.987
X52.936 Y-46.577
X52.932 Y-46.573
X52.488 Y-46.225
X52.002 Y-45.934
X51.999 Y-45.933
X51.482 Y-45.706
X51.478 Y-45.705
X50.938 Y-45.546
X50.935 Y-45.545
X50.376 Y-45.454
X50.373
X49.81 Y-45.435
X49.807
X49.244 Y-45.486
X49.241 Y-45.487
X48.69 Y-45.609
X48.688 Y-45.61
X48.156 Y-45.8
X48.154 Y-45.801
X47.649 Y-46.057
X47.646 Y-46.059
X47.179 Y-46.376
X47.176 Y-46.379
X46.752 Y-46.752
X46.749 Y-46.755
X46.379 Y-47.176
X46.376 Y-47.179
X46.059 Y-47.646
X46.057 Y-47.649
X45.801 Y-48.154
X45.8 Y-48.156
X45.61 Y-48.688
X45.609 Y-48.69
X45.487 Y-49.241
X45.486 Y-49.244
X45.435 Y-49.807
Y-49.81
X45.454 Y-50.373
Y-50.376
X45.545 Y-50.935
X45.546 Y-50.938
X45.705 Y-51.478
X45.706 Y-51.482
X45.933 Y-51.999
X45.934 Y-52.002
X46.225 Y-52.488
X46.573 Y-52.932
X46.577 Y-52.936
X46.987 Y-53.342
X46.996 Y-53.351
X47.003 Y-53.36
X47.01 Y-53.368
X47.016 Y-53.377
X47.021 Y-53.386
X47.026 Y-53.394
X47.03 Y-53.403
X47.033 Y-53.412
X47.037 Y-53.423
X47.04 Y-53.434
X47.043 Y-53.446
X47.044 Y-53.457
X47.046 Y-53.468
Y-53.48
Y-53.491
X47.045 Y-53.503
X47.043 Y-53.514
X47.041 Y-53.523
X47.039 Y-53.533
X47.036 Y-53.542
X47.033 Y-53.551
X47.03 Y-53.56
X47.024 Y-53.571
X47.018 Y-53.583
X47.01 Y-53.594
X47.002 Y-53.605
X46.995 Y-53.613
X46.987 Y-53.621
X46.953 Y-53.651
X45.162 Y-55.168
X45.116 Y-55.204
X43.291 Y-56.648
X43.27 Y-56.663
X41.374 Y-58.063
X41.351 Y-58.078
X39.411 Y-59.412
X39.365 Y-59.442
X37.403 Y-60.697
X37.357 Y-60.724
X35.349 Y-61.915
X35.303 Y-61.941
X33.276 Y-63.053
X33.249 Y-63.068
X33.188 Y-63.099
X31.15 Y-64.13
X31.113 Y-64.148
X28.959 Y-65.149
X28.952 Y-65.153
X26.768 Y-66.079
X26.723 Y-66.097
X24.557 Y-66.933
X24.532 Y-66.942
X22.296 Y-67.72
X22.25 Y-67.734
X20.014 Y-68.429
X19.979 Y-68.439
X17.732 Y-69.055
X17.686 Y-69.067
X15.404 Y-69.611
X15.358 Y-69.621
X13.076 Y-70.086
X13.031 Y-70.094
X10.703 Y-70.488
X10.668 Y-70.493
X8.375 Y-70.801
X8.329 Y-70.807
X8.147 Y-70.826
X6.002 Y-71.042
X5.956 Y-71.046
X5.819 Y-71.056
X3.583 Y-71.205
X3.537 Y-71.207
X1.209 Y-71.285
X1.164 Y-71.286
X-1.164
X-1.209 Y-71.285
X-3.537 Y-71.207
X-3.583 Y-71.205
X-5.911 Y-71.049
X-5.956 Y-71.046
X-6.002 Y-71.042
X-8.284 Y-70.812
X-8.329 Y-70.807
X-8.375 Y-70.801
X-10.668 Y-70.493
X-10.703 Y-70.488
X-13.031 Y-70.094
X-13.076 Y-70.086
X-15.358 Y-69.621
X-15.404 Y-69.611
X-17.686 Y-69.067
X-17.732 Y-69.055
X-19.979 Y-68.439
X-20.014 Y-68.429
X-22.25 Y-67.734
X-22.296 Y-67.72
X-24.532 Y-66.942
X-24.557 Y-66.933
X-26.723 Y-66.097
X-26.768 Y-66.079
X-28.952 Y-65.153
X-28.959 Y-65.149
X-31.113 Y-64.148
X-31.15 Y-64.13
X-33.204 Y-63.091
X-33.249 Y-63.068
X-33.276 Y-63.053
X-35.303 Y-61.941
X-35.349 Y-61.915
X-37.357 Y-60.724
X-37.403 Y-60.697
X-39.365 Y-59.442
X-39.411 Y-59.412
X-41.351 Y-58.078
X-41.374 Y-58.063
X-43.27 Y-56.663
X-43.291 Y-56.648
X-45.118 Y-55.203
X-45.162 Y-55.168
X-46.953 Y-53.651
X-46.987 Y-53.621
X-46.995 Y-53.613
X-47.002 Y-53.605
X-47.01 Y-53.594
X-47.018 Y-53.583
X-47.024 Y-53.571
X-47.03 Y-53.56
X-47.033 Y-53.551
X-47.036 Y-53.542
X-47.039 Y-53.533
X-47.041 Y-53.523
X-47.043 Y-53.514
X-47.045 Y-53.503
X-47.046 Y-53.491
Y-53.48
Y-53.468
X-47.044 Y-53.457
X-47.043 Y-53.446
X-47.04 Y-53.434
X-47.037 Y-53.423
X-47.033 Y-53.412
X-47.03 Y-53.403
X-47.026 Y-53.394
X-47.021 Y-53.386
X-47.016 Y-53.377
X-47.01 Y-53.368
X-47.003 Y-53.36
X-46.996 Y-53.351
X-46.987 Y-53.342
X-46.577 Y-52.936
X-46.573 Y-52.932
X-46.225 Y-52.488
X-45.934 Y-52.002
X-45.933 Y-51.999
X-45.706 Y-51.482
X-45.705 Y-51.478
X-45.546 Y-50.938
X-45.545 Y-50.935
X-45.454 Y-50.376
Y-50.373
X-45.435 Y-49.81
Y-49.807
X-45.486 Y-49.244
X-45.487 Y-49.241
X-45.609 Y-48.69
X-45.61 Y-48.688
X-45.8 Y-48.156
